( pcb2gcode 2.5.0 )
( Software-independent Gcode )

G94 ( Millimeters per minute feed rate. )
G21 ( Units == Millimeters. )

G90 ( Absolute coordinates. )
G00 S20000 ( RPM spindle speed. )
G64 P0.05000 ( set maximum deviation from commanded toolpath )
G01 F400.00000 ( Feedrate. )


G00 Z30.00000 (Retract to tool change height)
T1
M5      (Spindle stop.)
G04 P1.00000 (Wait for spindle to stop)
(MSG, Change tool bit to mill diameter 0.80000mm)
M6      (Tool change.)
M0      (Temporary machine stop.)
M3 ( Spindle on clockwise. )
G04 P1.00000 (Wait for spindle to get up to speed)
G04 P0 ( dwell for no time -- G64 should not smooth over this point )
G00 Z3.50000 ( retract )

G00 X-0.12546 Y0.72452 ( rapid move to begin. )
G01 F200.00000
( Mill infeed pass 1/1 )
G01 Z-0.20000
G04 P0 ( dwell for no time -- G64 should not smooth over this point )
G01 F400.00000
G01 X-0.12546 Y0.72452
G01 X-0.12546 Y78.06551
G01 X-0.13552 Y78.15456
G01 X-0.15523 Y78.24090
G01 X-0.18479 Y78.32543
G01 X-0.23244 Y78.40125
G01 X-0.28766 Y78.47049
G01 X-0.35098 Y78.53381
G01 X-0.42680 Y78.58146
G01 X-0.50658 Y78.61989
G01 X-0.56937 Y78.64387
G01 X-0.63529 Y78.65700
G01 X-0.67958 Y78.66200
G01 X-0.72449 Y78.66454
G01 X-36.02099 Y78.66454
G01 X-36.11002 Y78.65448
G01 X-36.19635 Y78.63477
G01 X-36.28088 Y78.60521
G01 X-36.35670 Y78.55756
G01 X-36.42594 Y78.50234
G01 X-36.48927 Y78.43902
G01 X-36.53692 Y78.36320
G01 X-36.57535 Y78.28342
G01 X-36.59932 Y78.22063
G01 X-36.61246 Y78.15471
G01 X-36.61746 Y78.11042
G01 X-36.62000 Y78.06551
G01 X-36.62000 Y68.84584
G01 X-47.09625 Y63.29960
G01 X-47.17030 Y63.24905
G01 X-47.23738 Y63.19122
G01 X-47.29821 Y63.12553
G01 X-47.34291 Y63.04799
G01 X-47.37827 Y62.96681
G01 X-47.39890 Y62.90684
G01 X-47.40979 Y62.84438
G01 X-47.41325 Y62.80750
G01 X-47.41500 Y62.77019
G01 X-47.41500 Y0.72452
G01 X-47.40494 Y0.63549
G01 X-47.38523 Y0.54915
G01 X-47.35566 Y0.46462
G01 X-47.30801 Y0.38880
G01 X-47.25279 Y0.31956
G01 X-47.18945 Y0.25622
G01 X-47.11360 Y0.20857
G01 X-47.03380 Y0.17014
G01 X-46.97106 Y0.14618
G01 X-46.90517 Y0.13305
G01 X-46.86090 Y0.12805
G01 X-46.81599 Y0.12551
G01 X-0.72449 Y0.12551
G01 X-0.63544 Y0.13557
G01 X-0.54910 Y0.15528
G01 X-0.46457 Y0.18484
G01 X-0.38875 Y0.23249
G01 X-0.31951 Y0.28771
G01 X-0.25619 Y0.35103
G01 X-0.20854 Y0.42685
G01 X-0.17011 Y0.50663
G01 X-0.14613 Y0.56942
G01 X-0.13300 Y0.63534
G01 X-0.12800 Y0.67963
G01 X-0.12546 Y0.72452
G04 P0 ( dwell for no time -- G64 should not smooth over this point )
G00 Z3.50000 ( retract )

G00 X-3.23950 Y5.59961 ( rapid move to begin. )
G01 F200.00000
( Mill infeed pass 1/1 )
G01 Z-0.20000
G04 P0 ( dwell for no time -- G64 should not smooth over this point )
G01 F400.00000
G01 X-3.23950 Y5.59961
G01 X-3.23950 Y5.88054
G01 X-3.24227 Y5.90528
G01 X-3.27092 Y6.15953
G01 X-3.33343 Y6.43334
G01 X-3.42619 Y6.69844
G01 X-3.54803 Y6.95148
G01 X-3.69743 Y7.18927
G01 X-3.87254 Y7.40883
G01 X-4.07117 Y7.60746
G01 X-4.29073 Y7.78257
G01 X-4.52852 Y7.93197
G01 X-4.78156 Y8.05381
G01 X-5.04666 Y8.14657
G01 X-5.32047 Y8.20908
G01 X-5.57472 Y8.23773
G01 X-5.59946 Y8.24050
G01 X-5.88044 Y8.24050
G01 X-5.91323 Y8.23682
G01 X-6.15946 Y8.20908
G01 X-6.43329 Y8.14657
G01 X-6.69837 Y8.05381
G01 X-6.95143 Y7.93197
G01 X-7.18920 Y7.78257
G01 X-7.40878 Y7.60746
G01 X-7.60741 Y7.40883
G01 X-7.78249 Y7.18927
G01 X-7.93192 Y6.95148
G01 X-8.05376 Y6.69844
G01 X-8.14652 Y6.43334
G01 X-8.20901 Y6.15956
G01 X-8.24045 Y5.88044
G01 X-8.24045 Y5.59961
G01 X-8.20901 Y5.32049
G01 X-8.14652 Y5.04673
G01 X-8.05376 Y4.78161
G01 X-7.93192 Y4.52857
G01 X-7.78249 Y4.29078
G01 X-7.60741 Y4.07125
G01 X-7.40878 Y3.87259
G01 X-7.18922 Y3.69751
G01 X-6.95143 Y3.54808
G01 X-6.69839 Y3.42624
G01 X-6.43329 Y3.33350
G01 X-6.15951 Y3.27102
G01 X-5.88039 Y3.23957
G01 X-5.59956 Y3.23957
G01 X-5.32044 Y3.27102
G01 X-5.04666 Y3.33350
G01 X-4.78156 Y3.42624
G01 X-4.52852 Y3.54808
G01 X-4.29073 Y3.69751
G01 X-4.07117 Y3.87259
G01 X-3.87254 Y4.07125
G01 X-3.69743 Y4.29080
G01 X-3.54803 Y4.52857
G01 X-3.42619 Y4.78163
G01 X-3.33343 Y5.04673
G01 X-3.27094 Y5.32052
G01 X-3.23950 Y5.59961
G04 P0 ( dwell for no time -- G64 should not smooth over this point )
G00 Z3.50000 ( retract )

G00 X-2.33691 Y32.83581 ( rapid move to begin. )
G01 F200.00000
( Mill infeed pass 1/1 )
G01 Z-0.20000
G04 P0 ( dwell for no time -- G64 should not smooth over this point )
G01 F400.00000
G01 X-2.33691 Y32.83581
G01 X-2.35997 Y32.60169
G01 X-2.37526 Y32.52478
G01 X-2.44356 Y32.29969
G01 X-2.47356 Y32.22722
G01 X-2.58446 Y32.01978
G01 X-2.62802 Y31.95458
G01 X-2.77724 Y31.77274
G01 X-2.83269 Y31.71729
G01 X-3.01455 Y31.56804
G01 X-3.07976 Y31.52448
G01 X-3.28720 Y31.41358
G01 X-3.35966 Y31.38359
G01 X-3.58476 Y31.31529
G01 X-3.66167 Y31.29999
G01 X-3.89578 Y31.27693
G01 X-3.97419 Y31.27693
G01 X-4.20830 Y31.29999
G01 X-4.28522 Y31.31529
G01 X-4.51031 Y31.38359
G01 X-4.58278 Y31.41358
G01 X-4.79022 Y31.52448
G01 X-4.85542 Y31.56804
G01 X-5.03728 Y31.71729
G01 X-5.09273 Y31.77274
G01 X-5.24196 Y31.95458
G01 X-5.25562 Y31.97502
G01 X-7.47500 Y31.97502
G01 X-7.51419 Y31.97696
G01 X-7.61173 Y31.98656
G01 X-7.68864 Y32.00187
G01 X-7.78244 Y32.03032
G01 X-7.85488 Y32.06032
G01 X-7.94132 Y32.10652
G01 X-8.00652 Y32.15008
G01 X-8.08229 Y32.21226
G01 X-8.11137 Y32.23863
G01 X-9.05368 Y33.18092
G01 X-9.11276 Y33.13243
G01 X-9.18190 Y33.09547
G01 X-9.25696 Y33.07269
G01 X-9.28498 Y33.06994
G01 X-9.28498 Y18.18600
G01 X-9.28691 Y18.14681
G01 X-9.29653 Y18.04927
G01 X-9.31182 Y17.97236
G01 X-9.34027 Y17.87856
G01 X-9.37027 Y17.80612
G01 X-9.41647 Y17.71968
G01 X-9.46006 Y17.65448
G01 X-9.52224 Y17.57871
G01 X-9.54860 Y17.54963
G01 X-11.55838 Y15.53983
G01 X-11.55759 Y15.53719
G01 X-11.54227 Y15.46030
G01 X-11.52691 Y15.30422
G01 X-11.52691 Y15.22581
G01 X-11.54227 Y15.06972
G01 X-11.55759 Y14.99284
G01 X-11.60311 Y14.84275
G01 X-11.63310 Y14.77031
G01 X-11.70704 Y14.63201
G01 X-11.75061 Y14.56680
G01 X-11.82498 Y14.47618
G01 X-11.82498 Y12.24385
G01 X-11.75061 Y12.15322
G01 X-11.70704 Y12.08802
G01 X-11.63310 Y11.94972
G01 X-11.60311 Y11.87727
G01 X-11.55759 Y11.72719
G01 X-11.54227 Y11.65030
G01 X-11.52691 Y11.49422
G01 X-11.52691 Y11.41581
G01 X-11.54227 Y11.25972
G01 X-11.55759 Y11.18284
G01 X-11.60311 Y11.03275
G01 X-11.63310 Y10.96031
G01 X-11.70704 Y10.82201
G01 X-11.75061 Y10.75680
G01 X-11.85010 Y10.63557
G01 X-11.90555 Y10.58012
G01 X-12.02678 Y10.48063
G01 X-12.09198 Y10.43707
G01 X-12.23028 Y10.36313
G01 X-12.30273 Y10.33313
G01 X-12.45281 Y10.28762
G01 X-12.52970 Y10.27230
G01 X-12.68578 Y10.25693
G01 X-12.76419 Y10.25693
G01 X-12.92028 Y10.27230
G01 X-12.99716 Y10.28762
G01 X-13.14725 Y10.33313
G01 X-13.21969 Y10.36313
G01 X-13.35799 Y10.43707
G01 X-13.42320 Y10.48063
G01 X-13.54443 Y10.58012
G01 X-13.59988 Y10.63557
G01 X-13.69937 Y10.75680
G01 X-13.74293 Y10.82201
G01 X-13.81687 Y10.96031
G01 X-13.84687 Y11.03275
G01 X-13.89238 Y11.18284
G01 X-13.90770 Y11.25972
G01 X-13.92307 Y11.41581
G01 X-13.92307 Y11.49422
G01 X-13.90770 Y11.65030
G01 X-13.89238 Y11.72719
G01 X-13.84687 Y11.87727
G01 X-13.81687 Y11.94972
G01 X-13.74293 Y12.08802
G01 X-13.69937 Y12.15322
G01 X-13.62500 Y12.24385
G01 X-13.62500 Y14.47618
G01 X-13.69937 Y14.56680
G01 X-13.74293 Y14.63201
G01 X-13.81687 Y14.77031
G01 X-13.84687 Y14.84275
G01 X-13.89238 Y14.99284
G01 X-13.90770 Y15.06972
G01 X-13.92307 Y15.22581
G01 X-13.92307 Y15.30422
G01 X-13.90770 Y15.46030
G01 X-13.89238 Y15.53719
G01 X-13.84687 Y15.68727
G01 X-13.81687 Y15.75972
G01 X-13.74293 Y15.89802
G01 X-13.69937 Y15.96322
G01 X-13.59988 Y16.08445
G01 X-13.54443 Y16.13990
G01 X-13.42320 Y16.23939
G01 X-13.36531 Y16.27808
G01 X-13.36137 Y16.28240
G01 X-11.08500 Y18.55880
G01 X-11.08500 Y33.06994
G01 X-11.11301 Y33.07269
G01 X-11.18807 Y33.09547
G01 X-11.25721 Y33.13243
G01 X-11.31784 Y33.18216
G01 X-11.35998 Y33.23352
G01 X-11.36757 Y33.24279
G01 X-11.40453 Y33.31193
G01 X-11.42731 Y33.38699
G01 X-11.43498 Y33.46501
G01 X-11.43498 Y35.16501
G01 X-11.42731 Y35.24304
G01 X-11.40453 Y35.31810
G01 X-11.36757 Y35.38724
G01 X-11.31784 Y35.44787
G01 X-11.25721 Y35.49760
G01 X-11.18807 Y35.53456
G01 X-11.11301 Y35.55734
G01 X-11.03499 Y35.56501
G01 X-9.33499 Y35.56501
G01 X-9.25696 Y35.55734
G01 X-9.18190 Y35.53456
G01 X-9.11276 Y35.49760
G01 X-9.05213 Y35.44787
G01 X-9.00240 Y35.38724
G01 X-8.96544 Y35.31810
G01 X-8.94266 Y35.24304
G01 X-8.93992 Y35.21502
G01 X-8.91500 Y35.21502
G01 X-8.87578 Y35.21309
G01 X-8.77825 Y35.20349
G01 X-8.70134 Y35.18818
G01 X-8.60753 Y35.15973
G01 X-8.53509 Y35.12973
G01 X-8.44866 Y35.08353
G01 X-8.38345 Y35.03997
G01 X-8.30769 Y34.97779
G01 X-8.27860 Y34.95142
G01 X-7.10220 Y33.77505
G01 X-5.25560 Y33.77505
G01 X-5.24196 Y33.79544
G01 X-5.09273 Y33.97731
G01 X-5.03728 Y34.03276
G01 X-4.85542 Y34.18198
G01 X-4.79022 Y34.22554
G01 X-4.58278 Y34.33644
G01 X-4.51031 Y34.36643
G01 X-4.28522 Y34.43474
G01 X-4.20830 Y34.45003
G01 X-3.97419 Y34.47309
G01 X-3.89578 Y34.47309
G01 X-3.66167 Y34.45003
G01 X-3.58476 Y34.43474
G01 X-3.35966 Y34.36643
G01 X-3.28720 Y34.33644
G01 X-3.07976 Y34.22554
G01 X-3.01455 Y34.18198
G01 X-2.83269 Y34.03276
G01 X-2.77724 Y33.97731
G01 X-2.62802 Y33.79544
G01 X-2.58446 Y33.73027
G01 X-2.47356 Y33.52280
G01 X-2.44356 Y33.45036
G01 X-2.37526 Y33.22524
G01 X-2.35997 Y33.14833
G01 X-2.33691 Y32.91422
G01 X-2.33691 Y32.83581
G04 P0 ( dwell for no time -- G64 should not smooth over this point )
G00 Z3.50000 ( retract )

G00 X-2.33038 Y32.87502 ( rapid move to begin. )
G01 F200.00000
( Mill infeed pass 1/1 )
G01 Z-0.20000
G04 P0 ( dwell for no time -- G64 should not smooth over this point )
G01 F400.00000
G01 X-2.33038 Y32.87502
G01 X-2.34671 Y33.10337
G01 X-2.39538 Y33.32709
G01 X-2.47539 Y33.54160
G01 X-2.58509 Y33.74251
G01 X-2.72233 Y33.92582
G01 X-2.88420 Y34.08770
G01 X-2.96142 Y34.14551
G01 X-2.97107 Y34.15295
G01 X-2.98059 Y34.16054
G01 X-3.05146 Y34.23362
G01 X-3.10452 Y34.30451
G01 X-3.14981 Y34.38175
G01 X-3.17678 Y34.46712
G01 X-3.19385 Y34.55404
G01 X-3.20117 Y34.64337
G01 X-3.18842 Y34.73207
G01 X-3.16607 Y34.81777
G01 X-3.13391 Y34.90133
G01 X-3.08397 Y34.97565
G01 X-3.02667 Y35.04317
G01 X-2.96142 Y35.10453
G01 X-2.88420 Y35.16234
G01 X-2.72230 Y35.32424
G01 X-2.58509 Y35.50750
G01 X-2.47539 Y35.70844
G01 X-2.39538 Y35.92297
G01 X-2.34671 Y36.14670
G01 X-2.33038 Y36.37502
G01 X-2.34671 Y36.60336
G01 X-2.39538 Y36.82709
G01 X-2.47539 Y37.04161
G01 X-2.58509 Y37.24250
G01 X-2.72233 Y37.42581
G01 X-2.88420 Y37.58771
G01 X-2.96142 Y37.64552
G01 X-2.97056 Y37.65256
G01 X-2.98009 Y37.66013
G01 X-3.05151 Y37.73366
G01 X-3.10457 Y37.80458
G01 X-3.14983 Y37.88179
G01 X-3.17678 Y37.96711
G01 X-3.19385 Y38.05401
G01 X-3.20117 Y38.14334
G01 X-3.18842 Y38.23206
G01 X-3.16607 Y38.31776
G01 X-3.13391 Y38.40133
G01 X-3.08397 Y38.47565
G01 X-3.02667 Y38.54316
G01 X-2.96147 Y38.60450
G01 X-2.88423 Y38.66236
G01 X-2.72230 Y38.82426
G01 X-2.58509 Y39.00752
G01 X-2.47539 Y39.20846
G01 X-2.39538 Y39.42297
G01 X-2.34671 Y39.64669
G01 X-2.33038 Y39.87501
G01 X-2.34671 Y40.10336
G01 X-2.39538 Y40.32708
G01 X-2.47539 Y40.54161
G01 X-2.58509 Y40.74255
G01 X-2.73201 Y40.93879
G01 X-2.76480 Y40.99035
G01 X-2.79332 Y41.04387
G01 X-2.82233 Y41.11341
G01 X-2.83780 Y41.18717
G01 X-2.84773 Y41.27518
G01 X-2.84775 Y41.36480
G01 X-2.82779 Y41.45217
G01 X-2.79853 Y41.53576
G01 X-2.75969 Y41.61641
G01 X-2.70389 Y41.68641
G01 X-2.64128 Y41.74905
G01 X-2.57120 Y41.80495
G01 X-2.48367 Y41.85994
G01 X-2.41989 Y41.92372
G01 X-2.37183 Y42.00018
G01 X-2.34204 Y42.08534
G01 X-2.33450 Y42.15250
G01 X-2.33450 Y44.59753
G01 X-2.34204 Y44.66474
G01 X-2.37183 Y44.74988
G01 X-2.41989 Y44.82633
G01 X-2.48367 Y44.89011
G01 X-2.56010 Y44.93814
G01 X-2.64529 Y44.96794
G01 X-2.71250 Y44.97551
G01 X-5.15748 Y44.97551
G01 X-5.22468 Y44.96796
G01 X-5.30983 Y44.93817
G01 X-5.38628 Y44.89011
G01 X-5.45006 Y44.82633
G01 X-5.49812 Y44.74988
G01 X-5.52374 Y44.67665
G01 X-5.55115 Y44.61536
G01 X-5.58338 Y44.55702
G01 X-5.62786 Y44.49240
G01 X-5.68412 Y44.43771
G01 X-5.75336 Y44.38249
G01 X-5.82920 Y44.33484
G01 X-5.91374 Y44.30525
G01 X-6.00010 Y44.28554
G01 X-6.08912 Y44.27551
G01 X-7.16484 Y44.27551
G01 X-7.30484 Y44.25333
G01 X-7.37228 Y44.23144
G01 X-7.43967 Y44.20954
G01 X-7.56596 Y44.14521
G01 X-7.68061 Y44.06189
G01 X-8.26192 Y43.48059
G01 X-8.27804 Y43.46532
G01 X-8.29468 Y43.45044
G01 X-8.38785 Y43.38816
G01 X-8.46766 Y43.34973
G01 X-8.55219 Y43.32014
G01 X-8.64121 Y43.31011
G01 X-8.72976 Y43.31011
G01 X-8.81876 Y43.32014
G01 X-8.90329 Y43.34973
G01 X-8.93270 Y43.36388
G01 X-8.98310 Y43.38816
G01 X-9.05894 Y43.43581
G01 X-9.12229 Y43.49916
G01 X-9.17751 Y43.56840
G01 X-9.22516 Y43.64424
G01 X-9.25475 Y43.72877
G01 X-9.27446 Y43.81513
G01 X-9.28449 Y43.90413
G01 X-9.28449 Y58.87591
G01 X-9.30664 Y59.01589
G01 X-9.35046 Y59.15069
G01 X-9.39442 Y59.23702
G01 X-9.41457 Y59.27655
G01 X-9.41477 Y59.27695
G01 X-9.49811 Y59.39166
G01 X-11.02320 Y60.91675
G01 X-11.03702 Y60.93128
G01 X-11.05048 Y60.94616
G01 X-11.11225 Y61.03692
G01 X-11.15157 Y61.11629
G01 X-11.18208 Y61.20047
G01 X-11.21969 Y61.35714
G01 X-11.29203 Y61.53173
G01 X-11.37621 Y61.66915
G01 X-11.38622 Y61.68642
G01 X-11.39584 Y61.70405
G01 X-11.43476 Y61.80684
G01 X-11.45444 Y61.89318
G01 X-11.46447 Y61.98208
G01 X-11.46447 Y63.79795
G01 X-11.46397 Y63.81768
G01 X-11.46298 Y63.83775
G01 X-11.44248 Y63.94593
G01 X-11.41416 Y64.02985
G01 X-11.37621 Y64.11095
G01 X-11.29201 Y64.24832
G01 X-11.21969 Y64.42292
G01 X-11.17560 Y64.60661
G01 X-11.16077 Y64.79503
G01 X-11.17560 Y64.98342
G01 X-11.21969 Y65.16716
G01 X-11.29201 Y65.34173
G01 X-11.39074 Y65.50285
G01 X-11.51347 Y65.64653
G01 X-11.65716 Y65.76927
G01 X-11.81827 Y65.86800
G01 X-11.99285 Y65.94031
G01 X-12.17656 Y65.98441
G01 X-12.36498 Y65.99924
G01 X-12.55337 Y65.98441
G01 X-12.63590 Y65.96459
G01 X-12.73709 Y65.94031
G01 X-12.91169 Y65.86800
G01 X-13.07278 Y65.76927
G01 X-13.21646 Y65.64653
G01 X-13.33920 Y65.50285
G01 X-13.43793 Y65.34173
G01 X-13.51024 Y65.16714
G01 X-13.55436 Y64.98339
G01 X-13.56919 Y64.79503
G01 X-13.55436 Y64.60666
G01 X-13.51024 Y64.42292
G01 X-13.43793 Y64.24832
G01 X-13.36836 Y64.13480
G01 X-13.35368 Y64.11083
G01 X-13.34364 Y64.09345
G01 X-13.33402 Y64.07580
G01 X-13.29523 Y63.97334
G01 X-13.27552 Y63.88700
G01 X-13.26546 Y63.79795
G01 X-13.26546 Y61.98208
G01 X-13.26599 Y61.96186
G01 X-13.26701 Y61.94179
G01 X-13.28751 Y61.83410
G01 X-13.31583 Y61.75020
G01 X-13.35375 Y61.66915
G01 X-13.43793 Y61.53176
G01 X-13.51024 Y61.35714
G01 X-13.55436 Y61.17339
G01 X-13.56919 Y60.98503
G01 X-13.55436 Y60.79666
G01 X-13.51024 Y60.61292
G01 X-13.43793 Y60.43832
G01 X-13.33922 Y60.27723
G01 X-13.21649 Y60.13352
G01 X-13.07278 Y60.01078
G01 X-12.91169 Y59.91205
G01 X-12.73709 Y59.83974
G01 X-12.58042 Y59.80215
G01 X-12.56089 Y59.79691
G01 X-12.54164 Y59.79125
G01 X-12.44176 Y59.74624
G01 X-12.36676 Y59.69912
G01 X-12.29668 Y59.64324
G01 X-11.26092 Y58.60746
G01 X-11.21759 Y58.55615
G01 X-11.17900 Y58.50179
G01 X-11.14009 Y58.43367
G01 X-11.11522 Y58.35930
G01 X-11.09551 Y58.27297
G01 X-11.08546 Y58.18391
G01 X-11.08546 Y49.50390
G01 X-11.09074 Y49.43913
G01 X-11.10118 Y49.37552
G01 X-11.12102 Y49.30080
G01 X-11.15485 Y49.23130
G01 X-11.20113 Y49.15579
G01 X-11.25622 Y49.08513
G01 X-11.32564 Y49.02848
G01 X-11.40011 Y48.98053
G01 X-11.48030 Y48.94080
G01 X-11.49153 Y48.93811
G01 X-11.56732 Y48.91990
G01 X-11.65520 Y48.90898
G01 X-11.74484 Y48.90796
G01 X-11.83244 Y48.92691
G01 X-11.91637 Y48.95523
G01 X-11.99747 Y48.99318
G01 X-12.17829 Y49.10400
G01 X-12.35284 Y49.17631
G01 X-12.53658 Y49.22041
G01 X-12.72497 Y49.23524
G01 X-12.91337 Y49.22041
G01 X-12.99589 Y49.20059
G01 X-13.09711 Y49.17631
G01 X-13.23193 Y49.12046
G01 X-13.27171 Y49.10397
G01 X-13.43280 Y49.00527
G01 X-13.57648 Y48.88253
G01 X-13.69922 Y48.73885
G01 X-13.76048 Y48.63885
G01 X-13.79795 Y48.57771
G01 X-13.87026 Y48.40314
G01 X-13.91435 Y48.21942
G01 X-13.92919 Y48.03103
G01 X-13.91435 Y47.84263
G01 X-13.87026 Y47.65892
G01 X-13.79795 Y47.48434
G01 X-13.73950 Y47.38896
G01 X-13.71372 Y47.34688
G01 X-13.70364 Y47.32945
G01 X-13.69401 Y47.31180
G01 X-13.65522 Y47.20934
G01 X-13.63551 Y47.12300
G01 X-13.62546 Y47.03395
G01 X-13.62546 Y45.47208
G01 X-13.62599 Y45.45186
G01 X-13.62700 Y45.43179
G01 X-13.64750 Y45.32410
G01 X-13.67582 Y45.24020
G01 X-13.71372 Y45.15915
G01 X-13.79795 Y45.02171
G01 X-13.87026 Y44.84714
G01 X-13.91435 Y44.66342
G01 X-13.92919 Y44.47503
G01 X-13.91435 Y44.28663
G01 X-13.87026 Y44.10294
G01 X-13.85131 Y44.05722
G01 X-13.79790 Y43.92826
G01 X-13.71375 Y43.79095
G01 X-13.70364 Y43.77345
G01 X-13.69401 Y43.75580
G01 X-13.65522 Y43.65334
G01 X-13.63551 Y43.56700
G01 X-13.62546 Y43.47795
G01 X-13.62546 Y40.08611
G01 X-13.60331 Y39.94615
G01 X-13.55949 Y39.81136
G01 X-13.49515 Y39.68507
G01 X-13.41184 Y39.57039
G01 X-12.54961 Y38.70816
G01 X-12.43493 Y38.62485
G01 X-12.38825 Y38.60105
G01 X-12.30864 Y38.56048
G01 X-12.21672 Y38.53064
G01 X-12.17080 Y38.51253
G01 X-12.12642 Y38.49178
G01 X-12.06623 Y38.45695
G01 X-12.01299 Y38.41222
G01 X-11.95038 Y38.34959
G01 X-11.89457 Y38.27958
G01 X-11.85574 Y38.19894
G01 X-11.82648 Y38.11535
G01 X-11.80651 Y38.02797
G01 X-11.80654 Y38.00692
G01 X-11.80654 Y37.93836
G01 X-11.81647 Y37.85035
G01 X-11.83641 Y37.76305
G01 X-11.87527 Y37.68238
G01 X-11.92239 Y37.60740
G01 X-11.97821 Y37.53737
G01 X-13.41182 Y36.10377
G01 X-13.49523 Y35.98896
G01 X-13.55949 Y35.86280
G01 X-13.60328 Y35.72805
G01 X-13.60478 Y35.71865
G01 X-13.61090 Y35.68010
G01 X-13.62546 Y35.58800
G01 X-13.62546 Y32.77208
G01 X-13.62599 Y32.75186
G01 X-13.62700 Y32.73179
G01 X-13.64750 Y32.62410
G01 X-13.67582 Y32.54020
G01 X-13.71372 Y32.45920
G01 X-13.76188 Y32.38056
G01 X-13.79795 Y32.32171
G01 X-13.87026 Y32.14714
G01 X-13.91435 Y31.96342
G01 X-13.92919 Y31.77503
G01 X-13.91435 Y31.58663
G01 X-13.87026 Y31.40292
G01 X-13.79792 Y31.22832
G01 X-13.75586 Y31.15966
G01 X-13.71377 Y31.09098
G01 X-13.70364 Y31.07345
G01 X-13.69401 Y31.05580
G01 X-13.65522 Y30.95334
G01 X-13.63551 Y30.86700
G01 X-13.62546 Y30.77795
G01 X-13.62546 Y28.96208
G01 X-13.62599 Y28.94186
G01 X-13.62700 Y28.92179
G01 X-13.64750 Y28.81410
G01 X-13.67582 Y28.73020
G01 X-13.71375 Y28.64915
G01 X-13.79792 Y28.51173
G01 X-13.87026 Y28.33714
G01 X-13.91435 Y28.15342
G01 X-13.92919 Y27.96503
G01 X-13.91435 Y27.77663
G01 X-13.87026 Y27.59292
G01 X-13.79795 Y27.41832
G01 X-13.69922 Y27.25723
G01 X-13.57648 Y27.11352
G01 X-13.43277 Y26.99078
G01 X-13.27168 Y26.89205
G01 X-13.09708 Y26.81974
G01 X-12.91337 Y26.77564
G01 X-12.72497 Y26.76081
G01 X-12.53658 Y26.77564
G01 X-12.35286 Y26.81974
G01 X-12.17827 Y26.89208
G01 X-11.99744 Y27.00287
G01 X-11.93943 Y27.03221
G01 X-11.87974 Y27.05654
G01 X-11.80567 Y27.07867
G01 X-11.72876 Y27.08616
G01 X-11.64022 Y27.08616
G01 X-11.55119 Y27.07613
G01 X-11.46666 Y27.04654
G01 X-11.43725 Y27.03239
G01 X-11.38685 Y27.00811
G01 X-11.31101 Y26.96046
G01 X-11.24766 Y26.89711
G01 X-11.19244 Y26.82787
G01 X-11.14479 Y26.75205
G01 X-11.11522 Y26.66752
G01 X-11.09551 Y26.58118
G01 X-11.08546 Y26.49213
G01 X-11.08546 Y18.80713
G01 X-11.09112 Y18.74010
G01 X-11.10230 Y18.67437
G01 X-11.12295 Y18.59872
G01 X-11.15797 Y18.52860
G01 X-11.20509 Y18.45361
G01 X-11.26092 Y18.38359
G01 X-13.31151 Y16.33299
G01 X-13.34672 Y16.30173
G01 X-13.38344 Y16.27277
G01 X-13.42203 Y16.24585
G01 X-13.43277 Y16.23927
G01 X-13.48723 Y16.19279
G01 X-13.57646 Y16.11653
G01 X-13.69922 Y15.97285
G01 X-13.79792 Y15.81173
G01 X-13.87026 Y15.63714
G01 X-13.91435 Y15.45342
G01 X-13.92919 Y15.26503
G01 X-13.91435 Y15.07663
G01 X-13.87026 Y14.89292
G01 X-13.79795 Y14.71834
G01 X-13.72835 Y14.60480
G01 X-13.71367 Y14.58083
G01 X-13.70364 Y14.56345
G01 X-13.69401 Y14.54580
G01 X-13.65522 Y14.44334
G01 X-13.63551 Y14.35700
G01 X-13.62546 Y14.26795
G01 X-13.62546 Y12.45208
G01 X-13.62599 Y12.43186
G01 X-13.62700 Y12.41179
G01 X-13.64750 Y12.30410
G01 X-13.67582 Y12.22020
G01 X-13.71375 Y12.13915
G01 X-13.79792 Y12.00173
G01 X-13.87026 Y11.82714
G01 X-13.91435 Y11.64342
G01 X-13.92919 Y11.45503
G01 X-13.91435 Y11.26663
G01 X-13.87026 Y11.08292
G01 X-13.79795 Y10.90832
G01 X-13.69922 Y10.74723
G01 X-13.57648 Y10.60352
G01 X-13.43277 Y10.48078
G01 X-13.27168 Y10.38205
G01 X-13.09708 Y10.30974
G01 X-12.91337 Y10.26564
G01 X-12.72497 Y10.25081
G01 X-12.53658 Y10.26564
G01 X-12.35286 Y10.30974
G01 X-12.17827 Y10.38208
G01 X-12.01715 Y10.48078
G01 X-11.87346 Y10.60352
G01 X-11.75073 Y10.74720
G01 X-11.65205 Y10.90824
G01 X-11.57969 Y11.08292
G01 X-11.53559 Y11.26663
G01 X-11.52076 Y11.45503
G01 X-11.53559 Y11.64342
G01 X-11.57969 Y11.82714
G01 X-11.65203 Y12.00173
G01 X-11.73620 Y12.13915
G01 X-11.74621 Y12.15642
G01 X-11.75584 Y12.17405
G01 X-11.79472 Y12.27672
G01 X-11.81444 Y12.36305
G01 X-11.82449 Y12.45208
G01 X-11.82449 Y14.26795
G01 X-11.82396 Y14.28819
G01 X-11.82294 Y14.30826
G01 X-11.80247 Y14.41593
G01 X-11.77415 Y14.49985
G01 X-11.73620 Y14.58095
G01 X-11.65200 Y14.71832
G01 X-11.57969 Y14.89292
G01 X-11.53559 Y15.07663
G01 X-11.52076 Y15.26508
G01 X-11.52183 Y15.27887
G01 X-11.51974 Y15.36152
G01 X-11.50920 Y15.44285
G01 X-11.48896 Y15.52670
G01 X-11.45119 Y15.60424
G01 X-11.40407 Y15.67922
G01 X-11.34824 Y15.74925
G01 X-9.49811 Y17.59939
G01 X-9.41480 Y17.71407
G01 X-9.38261 Y17.77721
G01 X-9.35046 Y17.84036
G01 X-9.30664 Y17.97515
G01 X-9.28449 Y18.11513
G01 X-9.28449 Y31.96489
G01 X-9.28383 Y31.98765
G01 X-9.28256 Y32.00995
G01 X-9.26080 Y32.11925
G01 X-9.23156 Y32.20284
G01 X-9.19267 Y32.28361
G01 X-9.13677 Y32.35369
G01 X-9.07413 Y32.41630
G01 X-9.00413 Y32.47210
G01 X-8.92348 Y32.51094
G01 X-8.83989 Y32.54020
G01 X-8.75252 Y32.56016
G01 X-8.66291 Y32.56014
G01 X-8.57489 Y32.55021
G01 X-8.48759 Y32.53027
G01 X-8.40692 Y32.49141
G01 X-8.33194 Y32.44429
G01 X-8.26192 Y32.38846
G01 X-8.06161 Y32.18816
G01 X-7.94693 Y32.10484
G01 X-7.88379 Y32.07266
G01 X-7.82064 Y32.04051
G01 X-7.76082 Y32.02105
G01 X-7.68587 Y31.99672
G01 X-7.54584 Y31.97454
G01 X-5.54605 Y31.97454
G01 X-5.47896 Y31.96888
G01 X-5.41325 Y31.95770
G01 X-5.33766 Y31.93705
G01 X-5.26756 Y31.90208
G01 X-5.19255 Y31.85496
G01 X-5.12248 Y31.79908
G01 X-4.98575 Y31.66235
G01 X-4.80249 Y31.52514
G01 X-4.60155 Y31.41544
G01 X-4.38702 Y31.33543
G01 X-4.16335 Y31.28676
G01 X-3.93500 Y31.27045
G01 X-3.70650 Y31.28679
G01 X-3.48293 Y31.33543
G01 X-3.26840 Y31.41544
G01 X-3.15375 Y31.47802
G01 X-3.06754 Y31.52511
G01 X-3.06121 Y31.52986
G01 X-2.88420 Y31.66238
G01 X-2.72230 Y31.82425
G01 X-2.58509 Y32.00751
G01 X-2.47539 Y32.20845
G01 X-2.39538 Y32.42298
G01 X-2.34671 Y32.64668
G01 X-2.33038 Y32.87502
G04 P0 ( dwell for no time -- G64 should not smooth over this point )
G00 Z3.50000 ( retract )

G00 X-2.33691 Y36.33580 ( rapid move to begin. )
G01 F200.00000
( Mill infeed pass 1/1 )
G01 Z-0.20000
G04 P0 ( dwell for no time -- G64 should not smooth over this point )
G01 F400.00000
G01 X-2.33691 Y36.33580
G01 X-2.35997 Y36.10169
G01 X-2.37526 Y36.02480
G01 X-2.44356 Y35.79968
G01 X-2.47356 Y35.72724
G01 X-2.58446 Y35.51977
G01 X-2.62802 Y35.45457
G01 X-2.77724 Y35.27273
G01 X-2.83269 Y35.21728
G01 X-3.01455 Y35.06803
G01 X-3.07976 Y35.02447
G01 X-3.28720 Y34.91358
G01 X-3.35966 Y34.88358
G01 X-3.58476 Y34.81530
G01 X-3.66167 Y34.79999
G01 X-3.89578 Y34.77695
G01 X-3.97419 Y34.77695
G01 X-4.20830 Y34.79999
G01 X-4.28522 Y34.81530
G01 X-4.51031 Y34.88358
G01 X-4.58278 Y34.91358
G01 X-4.79022 Y35.02447
G01 X-4.85542 Y35.06803
G01 X-5.03728 Y35.21728
G01 X-5.09273 Y35.27273
G01 X-5.24196 Y35.45457
G01 X-5.25562 Y35.47502
G01 X-7.29199 Y35.47502
G01 X-7.33118 Y35.47695
G01 X-7.42872 Y35.48655
G01 X-7.50563 Y35.50187
G01 X-7.59943 Y35.53031
G01 X-7.67187 Y35.56031
G01 X-7.75831 Y35.60651
G01 X-7.82351 Y35.65007
G01 X-7.89928 Y35.71225
G01 X-7.92836 Y35.73862
G01 X-8.14477 Y35.95500
G01 X-9.31995 Y35.95500
G01 X-9.33019 Y35.94477
G01 X-9.33936 Y35.93722
G01 X-9.45899 Y35.83905
G01 X-9.52419 Y35.79549
G01 X-9.67116 Y35.71695
G01 X-9.74360 Y35.68693
G01 X-9.90303 Y35.63857
G01 X-9.97995 Y35.62328
G01 X-10.14578 Y35.60695
G01 X-10.22419 Y35.60695
G01 X-10.39003 Y35.62328
G01 X-10.46694 Y35.63857
G01 X-10.62638 Y35.68693
G01 X-10.69882 Y35.71695
G01 X-10.84578 Y35.79549
G01 X-10.91098 Y35.83905
G01 X-11.03140 Y35.93788
G01 X-11.82498 Y35.14431
G01 X-11.82498 Y32.56385
G01 X-11.75061 Y32.47322
G01 X-11.70704 Y32.40802
G01 X-11.63310 Y32.26972
G01 X-11.60311 Y32.19727
G01 X-11.55759 Y32.04719
G01 X-11.54227 Y31.97030
G01 X-11.52691 Y31.81422
G01 X-11.52691 Y31.73581
G01 X-11.54227 Y31.57972
G01 X-11.55759 Y31.50284
G01 X-11.60311 Y31.35275
G01 X-11.63310 Y31.28031
G01 X-11.70704 Y31.14201
G01 X-11.75061 Y31.07680
G01 X-11.82498 Y30.98618
G01 X-11.82498 Y28.75385
G01 X-11.75061 Y28.66322
G01 X-11.70704 Y28.59802
G01 X-11.63310 Y28.45972
G01 X-11.60311 Y28.38727
G01 X-11.55759 Y28.23719
G01 X-11.54227 Y28.16030
G01 X-11.52691 Y28.00422
G01 X-11.52691 Y27.92581
G01 X-11.54227 Y27.76972
G01 X-11.55759 Y27.69284
G01 X-11.60311 Y27.54275
G01 X-11.63310 Y27.47031
G01 X-11.65800 Y27.42378
G01 X-11.70704 Y27.33201
G01 X-11.75061 Y27.26680
G01 X-11.85010 Y27.14557
G01 X-11.90555 Y27.09012
G01 X-12.02678 Y26.99063
G01 X-12.09198 Y26.94707
G01 X-12.23028 Y26.87313
G01 X-12.30273 Y26.84313
G01 X-12.45281 Y26.79762
G01 X-12.52970 Y26.78230
G01 X-12.68578 Y26.76693
G01 X-12.76419 Y26.76693
G01 X-12.92028 Y26.78230
G01 X-12.99716 Y26.79762
G01 X-13.14725 Y26.84313
G01 X-13.21969 Y26.87313
G01 X-13.35799 Y26.94707
G01 X-13.42320 Y26.99063
G01 X-13.54443 Y27.09012
G01 X-13.59988 Y27.14557
G01 X-13.69937 Y27.26680
G01 X-13.74293 Y27.33201
G01 X-13.81687 Y27.47031
G01 X-13.84687 Y27.54275
G01 X-13.89238 Y27.69284
G01 X-13.90770 Y27.76972
G01 X-13.92307 Y27.92581
G01 X-13.92307 Y28.00422
G01 X-13.90770 Y28.16030
G01 X-13.89238 Y28.23719
G01 X-13.84687 Y28.38727
G01 X-13.81687 Y28.45972
G01 X-13.74293 Y28.59802
G01 X-13.69937 Y28.66322
G01 X-13.62500 Y28.75385
G01 X-13.62500 Y30.98618
G01 X-13.69937 Y31.07680
G01 X-13.74293 Y31.14201
G01 X-13.81687 Y31.28031
G01 X-13.84687 Y31.35275
G01 X-13.89238 Y31.50284
G01 X-13.90770 Y31.57972
G01 X-13.92307 Y31.73581
G01 X-13.92307 Y31.81422
G01 X-13.90770 Y31.97030
G01 X-13.89238 Y32.04719
G01 X-13.84687 Y32.19727
G01 X-13.81687 Y32.26972
G01 X-13.74293 Y32.40802
G01 X-13.69937 Y32.47322
G01 X-13.62500 Y32.56385
G01 X-13.62500 Y35.51711
G01 X-13.62307 Y35.55632
G01 X-13.61344 Y35.65388
G01 X-13.59815 Y35.73077
G01 X-13.56970 Y35.82457
G01 X-13.53971 Y35.89701
G01 X-13.49348 Y35.98348
G01 X-13.44992 Y36.04868
G01 X-13.38774 Y36.12445
G01 X-13.36137 Y36.15353
G01 X-12.02345 Y37.49142
G01 X-11.99437 Y37.51779
G01 X-11.91860 Y37.57997
G01 X-11.85340 Y37.62353
G01 X-11.76696 Y37.66973
G01 X-11.69452 Y37.69973
G01 X-11.60072 Y37.72818
G01 X-11.52381 Y37.74349
G01 X-11.42627 Y37.75309
G01 X-11.38708 Y37.75502
G01 X-11.05002 Y37.75502
G01 X-11.03979 Y37.76526
G01 X-10.91098 Y37.87097
G01 X-10.84578 Y37.91454
G01 X-10.69882 Y37.99307
G01 X-10.62638 Y38.02310
G01 X-10.46694 Y38.07146
G01 X-10.39003 Y38.08675
G01 X-10.22419 Y38.10308
G01 X-10.14578 Y38.10308
G01 X-9.97995 Y38.08675
G01 X-9.90303 Y38.07146
G01 X-9.74360 Y38.02310
G01 X-9.67116 Y37.99307
G01 X-9.52419 Y37.91454
G01 X-9.45899 Y37.87097
G01 X-9.33019 Y37.76526
G01 X-9.31995 Y37.75502
G01 X-7.77200 Y37.75502
G01 X-7.73278 Y37.75309
G01 X-7.63525 Y37.74349
G01 X-7.55834 Y37.72818
G01 X-7.46453 Y37.69973
G01 X-7.39209 Y37.66973
G01 X-7.30566 Y37.62353
G01 X-7.24045 Y37.57997
G01 X-7.16469 Y37.51779
G01 X-7.13560 Y37.49142
G01 X-6.91920 Y37.27504
G01 X-5.25560 Y37.27504
G01 X-5.24196 Y37.29546
G01 X-5.09273 Y37.47730
G01 X-5.03728 Y37.53275
G01 X-4.85542 Y37.68197
G01 X-4.79022 Y37.72553
G01 X-4.58278 Y37.83643
G01 X-4.51031 Y37.86645
G01 X-4.31719 Y37.92503
G01 X-4.28522 Y37.93473
G01 X-4.20830 Y37.95002
G01 X-3.97419 Y37.97308
G01 X-3.89578 Y37.97308
G01 X-3.66167 Y37.95002
G01 X-3.58476 Y37.93473
G01 X-3.35966 Y37.86645
G01 X-3.28720 Y37.83643
G01 X-3.07976 Y37.72553
G01 X-3.01455 Y37.68197
G01 X-2.83269 Y37.53275
G01 X-2.77724 Y37.47730
G01 X-2.62802 Y37.29546
G01 X-2.58446 Y37.23026
G01 X-2.47356 Y37.02279
G01 X-2.44356 Y36.95035
G01 X-2.37526 Y36.72523
G01 X-2.35997 Y36.64832
G01 X-2.33691 Y36.41421
G01 X-2.33691 Y36.33580
G04 P0 ( dwell for no time -- G64 should not smooth over this point )
G00 Z3.50000 ( retract )

G00 X-2.33691 Y39.83582 ( rapid move to begin. )
G01 F200.00000
( Mill infeed pass 1/1 )
G01 Z-0.20000
G04 P0 ( dwell for no time -- G64 should not smooth over this point )
G01 F400.00000
G01 X-2.33691 Y39.83582
G01 X-2.35997 Y39.60171
G01 X-2.37526 Y39.52479
G01 X-2.44356 Y39.29967
G01 X-2.47356 Y39.22723
G01 X-2.58446 Y39.01977
G01 X-2.62802 Y38.95456
G01 X-2.77724 Y38.77273
G01 X-2.83269 Y38.71728
G01 X-3.01455 Y38.56805
G01 X-3.07976 Y38.52449
G01 X-3.28720 Y38.41359
G01 X-3.35966 Y38.38357
G01 X-3.58476 Y38.31530
G01 X-3.66167 Y38.30001
G01 X-3.89578 Y38.27694
G01 X-3.97419 Y38.27694
G01 X-4.20830 Y38.30001
G01 X-4.28522 Y38.31530
G01 X-4.51031 Y38.38357
G01 X-4.58278 Y38.41359
G01 X-4.79022 Y38.52449
G01 X-4.85542 Y38.56805
G01 X-5.03728 Y38.71728
G01 X-5.09273 Y38.77273
G01 X-5.24196 Y38.95456
G01 X-5.25562 Y38.97501
G01 X-6.66519 Y38.97501
G01 X-6.88160 Y38.75863
G01 X-6.91069 Y38.73226
G01 X-6.98645 Y38.67008
G01 X-7.05166 Y38.62650
G01 X-7.13809 Y38.58029
G01 X-7.21053 Y38.55030
G01 X-7.30434 Y38.52185
G01 X-7.38125 Y38.50656
G01 X-7.47878 Y38.49693
G01 X-7.51800 Y38.49500
G01 X-9.31995 Y38.49500
G01 X-9.33019 Y38.48477
G01 X-9.45899 Y38.37905
G01 X-9.52419 Y38.33549
G01 X-9.67116 Y38.25695
G01 X-9.74360 Y38.22693
G01 X-9.90303 Y38.17857
G01 X-9.97995 Y38.16328
G01 X-10.14578 Y38.14695
G01 X-10.22419 Y38.14695
G01 X-10.39003 Y38.16328
G01 X-10.46694 Y38.17857
G01 X-10.62638 Y38.22693
G01 X-10.69882 Y38.25695
G01 X-10.84578 Y38.33549
G01 X-10.91098 Y38.37905
G01 X-11.03979 Y38.48477
G01 X-11.05002 Y38.49500
G01 X-11.96300 Y38.49500
G01 X-12.00219 Y38.49693
G01 X-12.09973 Y38.50656
G01 X-12.17664 Y38.52185
G01 X-12.27044 Y38.55030
G01 X-12.34288 Y38.58029
G01 X-12.42932 Y38.62650
G01 X-12.49452 Y38.67008
G01 X-12.57029 Y38.73226
G01 X-12.59937 Y38.75863
G01 X-13.36137 Y39.52063
G01 X-13.38774 Y39.54971
G01 X-13.44992 Y39.62548
G01 X-13.49350 Y39.69068
G01 X-13.53971 Y39.77712
G01 X-13.56970 Y39.84956
G01 X-13.59815 Y39.94336
G01 X-13.61344 Y40.02027
G01 X-13.62307 Y40.11781
G01 X-13.62500 Y40.15700
G01 X-13.62500 Y43.68618
G01 X-13.69937 Y43.77680
G01 X-13.74293 Y43.84201
G01 X-13.81687 Y43.98031
G01 X-13.84687 Y44.05275
G01 X-13.89238 Y44.20284
G01 X-13.90770 Y44.27972
G01 X-13.92307 Y44.43581
G01 X-13.92307 Y44.51422
G01 X-13.90770 Y44.67030
G01 X-13.89238 Y44.74719
G01 X-13.84687 Y44.89727
G01 X-13.81687 Y44.96972
G01 X-13.74293 Y45.10802
G01 X-13.69937 Y45.17322
G01 X-13.62500 Y45.26385
G01 X-13.62500 Y47.24218
G01 X-13.69937 Y47.33280
G01 X-13.74293 Y47.39801
G01 X-13.81687 Y47.53631
G01 X-13.84687 Y47.60875
G01 X-13.89238 Y47.75884
G01 X-13.90770 Y47.83572
G01 X-13.92307 Y47.99181
G01 X-13.92307 Y48.07022
G01 X-13.90770 Y48.22630
G01 X-13.89238 Y48.30319
G01 X-13.84687 Y48.45327
G01 X-13.81687 Y48.52572
G01 X-13.74293 Y48.66402
G01 X-13.69937 Y48.72922
G01 X-13.59988 Y48.85045
G01 X-13.54443 Y48.90590
G01 X-13.42320 Y49.00539
G01 X-13.35799 Y49.04896
G01 X-13.21969 Y49.12290
G01 X-13.14725 Y49.15289
G01 X-12.99716 Y49.19841
G01 X-12.92028 Y49.21373
G01 X-12.76419 Y49.22909
G01 X-12.68578 Y49.22909
G01 X-12.52970 Y49.21373
G01 X-12.45281 Y49.19841
G01 X-12.30273 Y49.15289
G01 X-12.23028 Y49.12290
G01 X-12.09198 Y49.04896
G01 X-12.02678 Y49.00539
G01 X-11.90555 Y48.90590
G01 X-11.85010 Y48.85045
G01 X-11.75061 Y48.72922
G01 X-11.70704 Y48.66402
G01 X-11.63310 Y48.52572
G01 X-11.60311 Y48.45327
G01 X-11.55759 Y48.30319
G01 X-11.54227 Y48.22630
G01 X-11.52691 Y48.07022
G01 X-11.52691 Y47.99181
G01 X-11.54227 Y47.83572
G01 X-11.55759 Y47.75884
G01 X-11.60311 Y47.60875
G01 X-11.63310 Y47.53631
G01 X-11.70704 Y47.39801
G01 X-11.75061 Y47.33280
G01 X-11.82498 Y47.24218
G01 X-11.82498 Y45.26385
G01 X-11.75061 Y45.17322
G01 X-11.70704 Y45.10802
G01 X-11.63310 Y44.96972
G01 X-11.60311 Y44.89727
G01 X-11.55759 Y44.74719
G01 X-11.54227 Y44.67030
G01 X-11.52691 Y44.51422
G01 X-11.52691 Y44.43581
G01 X-11.54227 Y44.27972
G01 X-11.55759 Y44.20284
G01 X-11.60311 Y44.05275
G01 X-11.63310 Y43.98031
G01 X-11.70704 Y43.84201
G01 X-11.75061 Y43.77680
G01 X-11.82498 Y43.68618
G01 X-11.82498 Y40.52980
G01 X-11.59020 Y40.29502
G01 X-11.05002 Y40.29502
G01 X-11.03979 Y40.30526
G01 X-10.91098 Y40.41097
G01 X-10.84578 Y40.45454
G01 X-10.69882 Y40.53307
G01 X-10.62638 Y40.56310
G01 X-10.46694 Y40.61146
G01 X-10.39003 Y40.62675
G01 X-10.22419 Y40.64308
G01 X-10.14578 Y40.64308
G01 X-9.97995 Y40.62675
G01 X-9.90303 Y40.61146
G01 X-9.74360 Y40.56310
G01 X-9.67116 Y40.53307
G01 X-9.52419 Y40.45454
G01 X-9.45899 Y40.41097
G01 X-9.33019 Y40.30526
G01 X-9.31995 Y40.29502
G01 X-7.89077 Y40.29502
G01 X-7.67436 Y40.51141
G01 X-7.64528 Y40.53777
G01 X-7.56951 Y40.59995
G01 X-7.50431 Y40.64354
G01 X-7.41787 Y40.68974
G01 X-7.34543 Y40.71974
G01 X-7.25163 Y40.74818
G01 X-7.17472 Y40.76348
G01 X-7.07718 Y40.77310
G01 X-7.03799 Y40.77503
G01 X-5.25560 Y40.77503
G01 X-5.24196 Y40.79545
G01 X-5.09273 Y40.97729
G01 X-5.03728 Y41.03274
G01 X-4.85542 Y41.18199
G01 X-4.79022 Y41.22555
G01 X-4.58278 Y41.33645
G01 X-4.51031 Y41.36645
G01 X-4.28522 Y41.43472
G01 X-4.20830 Y41.45004
G01 X-3.97419 Y41.47308
G01 X-3.89578 Y41.47308
G01 X-3.66167 Y41.45004
G01 X-3.58476 Y41.43472
G01 X-3.35966 Y41.36645
G01 X-3.28720 Y41.33645
G01 X-3.18895 Y41.28392
G01 X-3.07976 Y41.22555
G01 X-3.01455 Y41.18199
G01 X-2.83269 Y41.03274
G01 X-2.77724 Y40.97729
G01 X-2.62802 Y40.79545
G01 X-2.58446 Y40.73025
G01 X-2.47356 Y40.52279
G01 X-2.44356 Y40.45034
G01 X-2.37526 Y40.22522
G01 X-2.35997 Y40.14834
G01 X-2.33691 Y39.91423
G01 X-2.33691 Y39.83582
G04 P0 ( dwell for no time -- G64 should not smooth over this point )
G00 Z3.50000 ( retract )

G00 X-2.33498 Y42.17500 ( rapid move to begin. )
G01 F200.00000
( Mill infeed pass 1/1 )
G01 Z-0.20000
G04 P0 ( dwell for no time -- G64 should not smooth over this point )
G01 F400.00000
G01 X-2.33498 Y42.17500
G01 X-2.34267 Y42.09698
G01 X-2.36292 Y42.03028
G01 X-2.36655 Y42.01984
G01 X-2.39670 Y41.96347
G01 X-2.40668 Y41.94757
G01 X-2.44562 Y41.90013
G01 X-2.46010 Y41.88565
G01 X-2.50620 Y41.84780
G01 X-2.52898 Y41.83376
G01 X-2.58192 Y41.80546
G01 X-2.65695 Y41.78270
G01 X-2.73498 Y41.77501
G01 X-5.13500 Y41.77501
G01 X-5.21303 Y41.78270
G01 X-5.28806 Y41.80546
G01 X-5.35722 Y41.84242
G01 X-5.41783 Y41.89218
G01 X-5.46759 Y41.95278
G01 X-5.50454 Y42.02194
G01 X-5.52730 Y42.09698
G01 X-5.53500 Y42.17500
G01 X-5.53500 Y42.47500
G01 X-6.72120 Y42.47500
G01 X-7.89760 Y41.29863
G01 X-7.92669 Y41.27226
G01 X-8.00245 Y41.21008
G01 X-8.06766 Y41.16650
G01 X-8.15409 Y41.12029
G01 X-8.22653 Y41.09030
G01 X-8.32034 Y41.06185
G01 X-8.39725 Y41.04656
G01 X-8.49478 Y41.03693
G01 X-8.53400 Y41.03500
G01 X-9.31995 Y41.03500
G01 X-9.33019 Y41.02477
G01 X-9.45899 Y40.91905
G01 X-9.52419 Y40.87549
G01 X-9.67116 Y40.79695
G01 X-9.74360 Y40.76693
G01 X-9.90303 Y40.71857
G01 X-9.97995 Y40.70328
G01 X-10.14578 Y40.68695
G01 X-10.22419 Y40.68695
G01 X-10.39003 Y40.70328
G01 X-10.46694 Y40.71857
G01 X-10.62638 Y40.76693
G01 X-10.69882 Y40.79695
G01 X-10.84578 Y40.87549
G01 X-10.91098 Y40.91905
G01 X-11.03979 Y41.02477
G01 X-11.09523 Y41.08021
G01 X-11.20095 Y41.20902
G01 X-11.24451 Y41.27422
G01 X-11.32305 Y41.42118
G01 X-11.35307 Y41.49362
G01 X-11.40143 Y41.65306
G01 X-11.41672 Y41.72997
G01 X-11.42543 Y41.81831
G01 X-11.43305 Y41.89581
G01 X-11.43305 Y41.97422
G01 X-11.41672 Y42.14005
G01 X-11.40143 Y42.21697
G01 X-11.35307 Y42.37640
G01 X-11.32305 Y42.44884
G01 X-11.24451 Y42.59581
G01 X-11.20095 Y42.66101
G01 X-11.09523 Y42.78981
G01 X-11.08500 Y42.80005
G01 X-11.08500 Y58.43225
G01 X-12.44357 Y59.79082
G01 X-12.56026 Y59.80230
G01 X-12.63717 Y59.81762
G01 X-12.78726 Y59.86313
G01 X-12.85970 Y59.89313
G01 X-12.99800 Y59.96707
G01 X-13.06320 Y60.01063
G01 X-13.18444 Y60.11012
G01 X-13.23988 Y60.16557
G01 X-13.33938 Y60.28680
G01 X-13.38294 Y60.35201
G01 X-13.45685 Y60.49031
G01 X-13.48687 Y60.56275
G01 X-13.53239 Y60.71284
G01 X-13.54768 Y60.78972
G01 X-13.56307 Y60.94581
G01 X-13.56307 Y61.02422
G01 X-13.54768 Y61.18030
G01 X-13.53239 Y61.25719
G01 X-13.48687 Y61.40727
G01 X-13.45685 Y61.47972
G01 X-13.38294 Y61.61802
G01 X-13.33938 Y61.68322
G01 X-13.26498 Y61.77387
G01 X-13.26498 Y64.00615
G01 X-13.33938 Y64.09680
G01 X-13.38294 Y64.16201
G01 X-13.45685 Y64.30031
G01 X-13.48687 Y64.37275
G01 X-13.53239 Y64.52284
G01 X-13.54768 Y64.59972
G01 X-13.56307 Y64.75581
G01 X-13.56307 Y64.83422
G01 X-13.54768 Y64.99030
G01 X-13.53239 Y65.06719
G01 X-13.48687 Y65.21727
G01 X-13.45685 Y65.28972
G01 X-13.38294 Y65.42802
G01 X-13.33938 Y65.49322
G01 X-13.23988 Y65.61445
G01 X-13.18444 Y65.66990
G01 X-13.06320 Y65.76939
G01 X-12.99800 Y65.81296
G01 X-12.85970 Y65.88690
G01 X-12.78726 Y65.91689
G01 X-12.63717 Y65.96241
G01 X-12.56026 Y65.97773
G01 X-12.40420 Y65.99309
G01 X-12.32579 Y65.99309
G01 X-12.16971 Y65.97773
G01 X-12.09279 Y65.96241
G01 X-11.94273 Y65.91689
G01 X-11.87029 Y65.88690
G01 X-11.73196 Y65.81296
G01 X-11.66679 Y65.76939
G01 X-11.54555 Y65.66990
G01 X-11.49010 Y65.61445
G01 X-11.39061 Y65.49322
G01 X-11.34705 Y65.42802
G01 X-11.27311 Y65.28972
G01 X-11.24311 Y65.21727
G01 X-11.19757 Y65.06719
G01 X-11.18228 Y64.99030
G01 X-11.16691 Y64.83422
G01 X-11.16691 Y64.75581
G01 X-11.18228 Y64.59972
G01 X-11.19757 Y64.52284
G01 X-11.24311 Y64.37275
G01 X-11.27311 Y64.30031
G01 X-11.34705 Y64.16201
G01 X-11.39061 Y64.09680
G01 X-11.46496 Y64.00620
G01 X-11.46496 Y61.77382
G01 X-11.39061 Y61.68322
G01 X-11.34705 Y61.61802
G01 X-11.27311 Y61.47972
G01 X-11.24311 Y61.40727
G01 X-11.19757 Y61.25719
G01 X-11.18228 Y61.18030
G01 X-11.17080 Y61.06364
G01 X-9.54860 Y59.44142
G01 X-9.52224 Y59.41233
G01 X-9.46006 Y59.33657
G01 X-9.41647 Y59.27136
G01 X-9.37027 Y59.18493
G01 X-9.34027 Y59.11249
G01 X-9.31182 Y59.01868
G01 X-9.29653 Y58.94177
G01 X-9.28691 Y58.84424
G01 X-9.28498 Y58.80502
G01 X-9.28498 Y42.83502
G01 X-8.90677 Y42.83502
G01 X-7.73037 Y44.01140
G01 X-7.70129 Y44.03776
G01 X-7.62552 Y44.09994
G01 X-7.56032 Y44.14353
G01 X-7.47388 Y44.18973
G01 X-7.40144 Y44.21973
G01 X-7.30764 Y44.24818
G01 X-7.23073 Y44.26347
G01 X-7.13319 Y44.27310
G01 X-7.09400 Y44.27503
G01 X-5.53500 Y44.27503
G01 X-5.53500 Y44.57503
G01 X-5.52730 Y44.65305
G01 X-5.50574 Y44.72415
G01 X-5.50388 Y44.72933
G01 X-5.47333 Y44.78648
G01 X-5.46327 Y44.80248
G01 X-5.42433 Y44.84993
G01 X-5.40990 Y44.86436
G01 X-5.36240 Y44.90335
G01 X-5.34658 Y44.91330
G01 X-5.29014 Y44.94345
G01 X-5.27978 Y44.94708
G01 X-5.21303 Y44.96733
G01 X-5.13500 Y44.97502
G01 X-2.73498 Y44.97502
G01 X-2.65695 Y44.96733
G01 X-2.59012 Y44.94706
G01 X-2.57983 Y44.94345
G01 X-2.52322 Y44.91320
G01 X-2.50765 Y44.90342
G01 X-2.45992 Y44.86423
G01 X-2.44575 Y44.85008
G01 X-2.40661 Y44.80236
G01 X-2.39680 Y44.78676
G01 X-2.36652 Y44.73014
G01 X-2.36297 Y44.71998
G01 X-2.34267 Y44.65305
G01 X-2.33498 Y44.57503
G01 X-2.33498 Y42.17500
G04 P0 ( dwell for no time -- G64 should not smooth over this point )
G00 Z3.50000 ( retract )

G00 X-3.23950 Y72.90961 ( rapid move to begin. )
G01 F200.00000
( Mill infeed pass 1/1 )
G01 Z-0.20000
G04 P0 ( dwell for no time -- G64 should not smooth over this point )
G01 F400.00000
G01 X-3.23950 Y72.90961
G01 X-3.27094 Y72.63052
G01 X-3.33343 Y72.35671
G01 X-3.42619 Y72.09163
G01 X-3.54803 Y71.83857
G01 X-3.69743 Y71.60080
G01 X-3.87254 Y71.38122
G01 X-4.07117 Y71.18259
G01 X-4.29073 Y71.00751
G01 X-4.52852 Y70.85808
G01 X-4.78156 Y70.73624
G01 X-5.04666 Y70.64348
G01 X-5.32044 Y70.58099
G01 X-5.59956 Y70.54955
G01 X-5.88039 Y70.54955
G01 X-6.15951 Y70.58099
G01 X-6.43329 Y70.64348
G01 X-6.69839 Y70.73624
G01 X-6.95143 Y70.85808
G01 X-7.18922 Y71.00751
G01 X-7.40878 Y71.18259
G01 X-7.60741 Y71.38122
G01 X-7.78249 Y71.60078
G01 X-7.93192 Y71.83857
G01 X-8.05376 Y72.09163
G01 X-8.11566 Y72.26847
G01 X-8.14652 Y72.35668
G01 X-8.20901 Y72.63049
G01 X-8.24045 Y72.90961
G01 X-8.24045 Y73.19044
G01 X-8.20901 Y73.46956
G01 X-8.14652 Y73.74334
G01 X-8.05376 Y74.00844
G01 X-7.93192 Y74.26148
G01 X-7.78249 Y74.49927
G01 X-7.60741 Y74.71883
G01 X-7.40878 Y74.91746
G01 X-7.18920 Y75.09257
G01 X-6.95143 Y75.24197
G01 X-6.69837 Y75.36381
G01 X-6.43329 Y75.45657
G01 X-6.15946 Y75.51908
G01 X-5.91323 Y75.54682
G01 X-5.88044 Y75.55050
G01 X-5.59946 Y75.55050
G01 X-5.57472 Y75.54773
G01 X-5.32047 Y75.51908
G01 X-5.04666 Y75.45657
G01 X-4.78156 Y75.36381
G01 X-4.52852 Y75.24197
G01 X-4.29073 Y75.09257
G01 X-4.07117 Y74.91746
G01 X-3.87254 Y74.71883
G01 X-3.69743 Y74.49927
G01 X-3.54803 Y74.26148
G01 X-3.42619 Y74.00844
G01 X-3.33343 Y73.74334
G01 X-3.27094 Y73.46956
G01 X-3.23950 Y73.19044
G01 X-3.23950 Y72.90961
G04 P0 ( dwell for no time -- G64 should not smooth over this point )
G00 Z3.50000 ( retract )

G00 X-15.88849 Y71.96311 ( rapid move to begin. )
G01 F200.00000
( Mill infeed pass 1/1 )
G01 Z-0.20000
G04 P0 ( dwell for no time -- G64 should not smooth over this point )
G01 F400.00000
G01 X-15.88849 Y71.96311
G01 X-15.89195 Y71.94119
G01 X-15.91064 Y71.82318
G01 X-15.93414 Y71.75087
G01 X-15.94882 Y71.68978
G01 X-15.95794 Y71.63220
G01 X-15.95687 Y71.63202
G01 X-15.96073 Y71.61355
G01 X-15.97120 Y71.51894
G01 X-16.00086 Y71.43415
G01 X-16.04887 Y71.35772
G01 X-16.11267 Y71.29392
G01 X-16.18910 Y71.24591
G01 X-16.27432 Y71.21609
G01 X-16.35324 Y71.20718
G01 X-16.35547 Y71.20703
G01 X-16.38923 Y71.20296
G01 X-16.44679 Y71.19354
G01 X-16.50582 Y71.17919
G01 X-16.57810 Y71.15569
G01 X-16.71808 Y71.13354
G01 X-18.07721 Y71.13354
G01 X-18.16624 Y71.12349
G01 X-18.25257 Y71.10378
G01 X-18.33710 Y71.07421
G01 X-18.41292 Y71.02656
G01 X-18.48216 Y70.97134
G01 X-18.54551 Y70.90799
G01 X-18.59316 Y70.83215
G01 X-18.63159 Y70.75234
G01 X-18.66118 Y70.66781
G01 X-18.67122 Y70.57878
G01 X-18.67122 Y70.49024
G01 X-18.66118 Y70.40124
G01 X-18.63159 Y70.31671
G01 X-18.59316 Y70.23690
G01 X-18.53111 Y70.14399
G01 X-18.51625 Y70.12735
G01 X-18.50076 Y70.11097
G01 X-18.49639 Y70.10660
G01 X-18.42613 Y70.01506
G01 X-18.40828 Y69.99176
G01 X-18.40378 Y69.98592
G01 X-18.36469 Y69.93494
G01 X-18.25651 Y69.74757
G01 X-18.17371 Y69.54767
G01 X-18.11770 Y69.33873
G01 X-18.08948 Y69.12423
G01 X-18.08948 Y18.30185
G01 X-18.11772 Y18.08735
G01 X-18.17371 Y17.87833
G01 X-18.21884 Y17.76934
G01 X-18.25649 Y17.67848
G01 X-18.36469 Y17.49108
G01 X-18.39283 Y17.45438
G01 X-18.49641 Y17.31943
G01 X-18.66756 Y17.14826
G01 X-18.67292 Y17.14292
G01 X-21.61896 Y14.19688
G01 X-21.79437 Y14.02144
G01 X-21.96600 Y13.88977
G01 X-22.15343 Y13.78156
G01 X-22.35323 Y13.69879
G01 X-22.35650 Y13.69790
G01 X-22.43933 Y13.66533
G01 X-22.51764 Y13.62396
G01 X-22.59168 Y13.57349
G01 X-22.65264 Y13.50775
G01 X-22.70522 Y13.43648
G01 X-22.74997 Y13.35893
G01 X-22.77200 Y13.28751
G01 X-22.77636 Y13.27336
G01 X-22.79282 Y13.18634
G01 X-22.79953 Y13.09706
G01 X-22.78617 Y13.00854
G01 X-22.76326 Y12.92299
G01 X-22.73054 Y12.83955
G01 X-22.68005 Y12.76551
G01 X-22.62229 Y12.69841
G01 X-22.57286 Y12.65015
G01 X-22.51589 Y12.61108
G01 X-22.47385 Y12.58733
G01 X-22.43016 Y12.56605
G01 X-22.33827 Y12.52797
G01 X-22.17715 Y12.42927
G01 X-22.03347 Y12.30653
G01 X-21.91073 Y12.16285
G01 X-21.81203 Y12.00173
G01 X-21.73969 Y11.82714
G01 X-21.69559 Y11.64342
G01 X-21.68076 Y11.45503
G01 X-21.69559 Y11.26663
G01 X-21.73969 Y11.08292
G01 X-21.81205 Y10.90824
G01 X-21.91073 Y10.74720
G01 X-22.03347 Y10.60352
G01 X-22.17715 Y10.48078
G01 X-22.33827 Y10.38208
G01 X-22.51286 Y10.30974
G01 X-22.69658 Y10.26564
G01 X-22.88497 Y10.25081
G01 X-23.07337 Y10.26564
G01 X-23.25708 Y10.30974
G01 X-23.43168 Y10.38208
G01 X-23.56910 Y10.46625
G01 X-23.65015 Y10.50418
G01 X-23.73405 Y10.53250
G01 X-23.84174 Y10.55300
G01 X-23.86181 Y10.55401
G01 X-23.88205 Y10.55454
G01 X-25.69322 Y10.55454
G01 X-25.78225 Y10.54449
G01 X-25.86859 Y10.52478
G01 X-25.95312 Y10.49521
G01 X-26.02894 Y10.44756
G01 X-26.09818 Y10.39234
G01 X-26.16152 Y10.32899
G01 X-26.20917 Y10.25315
G01 X-26.24760 Y10.17334
G01 X-26.27720 Y10.08881
G01 X-26.28723 Y9.99978
G01 X-26.28723 Y9.91124
G01 X-26.28024 Y9.83689
G01 X-26.25957 Y9.76514
G01 X-26.23790 Y9.70992
G01 X-26.21194 Y9.65602
G01 X-26.20651 Y9.64660
G01 X-26.12373 Y9.44670
G01 X-26.06772 Y9.23771
G01 X-26.03948 Y9.02320
G01 X-26.03948 Y7.36651
G01 X-26.02944 Y7.27761
G01 X-26.00976 Y7.19128
G01 X-25.98019 Y7.10667
G01 X-25.93252 Y7.03080
G01 X-25.87730 Y6.96156
G01 X-25.81395 Y6.89821
G01 X-25.73811 Y6.85056
G01 X-25.65830 Y6.81213
G01 X-25.59556 Y6.78818
G01 X-25.52967 Y6.77505
G01 X-25.48540 Y6.77005
G01 X-25.44049 Y6.76751
G01 X-22.43306 Y6.76751
G01 X-22.40314 Y6.76278
G01 X-22.29313 Y6.74536
G01 X-22.22082 Y6.72186
G01 X-22.15973 Y6.70718
G01 X-22.10215 Y6.69806
G01 X-22.10197 Y6.69913
G01 X-22.08350 Y6.69527
G01 X-21.98889 Y6.68480
G01 X-21.90410 Y6.65514
G01 X-21.82767 Y6.60713
G01 X-21.76387 Y6.54333
G01 X-21.71586 Y6.46690
G01 X-21.68604 Y6.38168
G01 X-21.67713 Y6.30276
G01 X-21.67698 Y6.30053
G01 X-21.67291 Y6.26677
G01 X-21.66349 Y6.20921
G01 X-21.64914 Y6.15018
G01 X-21.62564 Y6.07790
G01 X-21.60349 Y5.93792
G01 X-21.60349 Y5.79613
G01 X-21.62564 Y5.65615
G01 X-21.64914 Y5.58387
G01 X-21.66382 Y5.52278
G01 X-21.67294 Y5.46522
G01 X-21.67187 Y5.46502
G01 X-21.67573 Y5.44655
G01 X-21.68620 Y5.35194
G01 X-21.71586 Y5.26718
G01 X-21.76387 Y5.19072
G01 X-21.82767 Y5.12695
G01 X-21.90410 Y5.07891
G01 X-21.98932 Y5.04909
G01 X-22.06824 Y5.04018
G01 X-22.07047 Y5.04003
G01 X-22.10423 Y5.03596
G01 X-22.16179 Y5.02656
G01 X-22.22082 Y5.01219
G01 X-22.29310 Y4.98869
G01 X-22.43308 Y4.96654
G01 X-26.02922 Y4.96654
G01 X-26.11824 Y4.95651
G01 X-26.20458 Y4.93680
G01 X-26.27892 Y4.91196
G01 X-26.34699 Y4.87307
G01 X-26.40138 Y4.83449
G01 X-26.45276 Y4.79108
G01 X-28.01745 Y3.22639
G01 X-28.10803 Y3.15692
G01 X-28.18905 Y3.09474
G01 X-28.37643 Y2.98656
G01 X-28.57633 Y2.90376
G01 X-28.78527 Y2.84775
G01 X-28.99982 Y2.81953
G01 X-30.48331 Y2.81953
G01 X-30.57234 Y2.80947
G01 X-30.65867 Y2.78976
G01 X-30.76311 Y2.74991
G01 X-30.78265 Y2.73912
G01 X-30.80198 Y2.72771
G01 X-30.83507 Y2.70691
G01 X-30.92026 Y2.67709
G01 X-30.98747 Y2.66955
G01 X-33.83248 Y2.66955
G01 X-33.89968 Y2.67709
G01 X-33.98485 Y2.70691
G01 X-34.01807 Y2.72779
G01 X-34.09864 Y2.76655
G01 X-34.18223 Y2.79581
G01 X-34.29206 Y2.81768
G01 X-34.31434 Y2.81890
G01 X-34.33667 Y2.81953
G01 X-36.32617 Y2.81953
G01 X-36.54068 Y2.84775
G01 X-36.74964 Y2.90376
G01 X-36.94954 Y2.98656
G01 X-37.03440 Y3.03556
G01 X-37.13689 Y3.09472
G01 X-37.30857 Y3.22649
G01 X-39.51618 Y5.43408
G01 X-39.58626 Y5.48996
G01 X-39.66127 Y5.53708
G01 X-39.73137 Y5.57208
G01 X-39.80696 Y5.59273
G01 X-39.87267 Y5.60388
G01 X-39.93975 Y5.60955
G01 X-40.28049 Y5.60955
G01 X-40.34768 Y5.61711
G01 X-40.43284 Y5.64688
G01 X-40.50927 Y5.69494
G01 X-40.57308 Y5.75872
G01 X-40.62108 Y5.83515
G01 X-40.65090 Y5.92037
G01 X-40.65847 Y5.98755
G01 X-40.65847 Y8.03250
G01 X-40.65090 Y8.09969
G01 X-40.62108 Y8.18490
G01 X-40.57308 Y8.26133
G01 X-40.50927 Y8.32511
G01 X-40.43284 Y8.37317
G01 X-40.34768 Y8.40296
G01 X-40.28049 Y8.41051
G01 X-39.79375 Y8.41051
G01 X-39.70470 Y8.42056
G01 X-39.61837 Y8.44027
G01 X-39.52037 Y8.47665
G01 X-39.50722 Y8.48361
G01 X-39.49424 Y8.49079
G01 X-39.48954 Y8.49349
G01 X-39.28964 Y8.57629
G01 X-39.08067 Y8.63230
G01 X-38.86617 Y8.66052
G01 X-38.64979 Y8.66052
G01 X-38.43529 Y8.63230
G01 X-38.22632 Y8.57629
G01 X-38.02642 Y8.49349
G01 X-38.02172 Y8.49079
G01 X-37.93963 Y8.45496
G01 X-37.85500 Y8.42884
G01 X-37.75210 Y8.41137
G01 X-37.73724 Y8.41081
G01 X-37.72223 Y8.41051
G01 X-37.23547 Y8.41051
G01 X-37.16826 Y8.40296
G01 X-37.08312 Y8.37317
G01 X-37.00666 Y8.32511
G01 X-36.94288 Y8.26133
G01 X-36.89485 Y8.18490
G01 X-36.86506 Y8.09971
G01 X-36.85749 Y8.03250
G01 X-36.85749 Y7.69179
G01 X-36.84743 Y7.60276
G01 X-36.82772 Y7.51643
G01 X-36.80288 Y7.44208
G01 X-36.76399 Y7.37401
G01 X-36.72541 Y7.31963
G01 X-36.68203 Y7.26824
G01 X-35.70976 Y6.29598
G01 X-35.63979 Y6.24015
G01 X-35.56478 Y6.19301
G01 X-35.49455 Y6.15798
G01 X-35.41883 Y6.13731
G01 X-35.35312 Y6.12616
G01 X-35.28622 Y6.12052
G01 X-34.33667 Y6.12052
G01 X-34.24761 Y6.13058
G01 X-34.16128 Y6.15029
G01 X-34.05683 Y6.19014
G01 X-34.03730 Y6.20093
G01 X-34.01805 Y6.21231
G01 X-33.98485 Y6.23314
G01 X-33.89968 Y6.26296
G01 X-33.83248 Y6.27050
G01 X-30.98747 Y6.27050
G01 X-30.92026 Y6.26296
G01 X-30.83507 Y6.23314
G01 X-30.80198 Y6.21234
G01 X-30.72131 Y6.17350
G01 X-30.63772 Y6.14424
G01 X-30.52789 Y6.12240
G01 X-30.50561 Y6.12115
G01 X-30.48331 Y6.12052
G01 X-30.03975 Y6.12052
G01 X-29.95070 Y6.13058
G01 X-29.86436 Y6.15029
G01 X-29.78999 Y6.17515
G01 X-29.72187 Y6.21407
G01 X-29.66751 Y6.25265
G01 X-29.61623 Y6.29596
G01 X-29.51595 Y6.39621
G01 X-29.46004 Y6.46631
G01 X-29.41293 Y6.54132
G01 X-29.37795 Y6.61142
G01 X-29.35730 Y6.68701
G01 X-29.34612 Y6.75272
G01 X-29.34046 Y6.81978
G01 X-29.34046 Y9.02331
G01 X-29.31224 Y9.23771
G01 X-29.25623 Y9.44667
G01 X-29.17343 Y9.64660
G01 X-29.07071 Y9.82455
G01 X-29.06528 Y9.83395
G01 X-28.93355 Y10.00563
G01 X-28.78232 Y10.15686
G01 X-28.72649 Y10.22688
G01 X-28.67938 Y10.30187
G01 X-28.64051 Y10.38254
G01 X-28.62057 Y10.46984
G01 X-28.61064 Y10.55785
G01 X-28.61052 Y10.64637
G01 X-28.62987 Y10.73278
G01 X-28.65796 Y10.81446
G01 X-28.69510 Y10.89330
G01 X-28.71824 Y10.93107
G01 X-28.78755 Y11.09841
G01 X-28.82982 Y11.27451
G01 X-28.84404 Y11.45503
G01 X-28.82982 Y11.63559
G01 X-28.81481 Y11.69818
G01 X-28.78755 Y11.81159
G01 X-28.71826 Y11.97895
G01 X-28.69515 Y12.01664
G01 X-28.65715 Y12.09787
G01 X-28.62885 Y12.18180
G01 X-28.60993 Y12.26930
G01 X-28.61092 Y12.35881
G01 X-28.62182 Y12.44669
G01 X-28.64237 Y12.53280
G01 X-28.68133 Y12.61225
G01 X-28.72771 Y12.68512
G01 X-28.78232 Y12.75319
G01 X-28.93355 Y12.90443
G01 X-29.06525 Y13.07608
G01 X-29.17343 Y13.26348
G01 X-29.25623 Y13.46338
G01 X-29.31224 Y13.67232
G01 X-29.34046 Y13.88682
G01 X-29.34046 Y14.10320
G01 X-29.31826 Y14.27186
G01 X-29.31224 Y14.31776
G01 X-29.25623 Y14.52667
G01 X-29.17343 Y14.72657
G01 X-29.06525 Y14.91397
G01 X-28.93353 Y15.08563
G01 X-27.68636 Y16.33279
G01 X-27.68174 Y16.33744
G01 X-27.51057 Y16.50861
G01 X-27.35344 Y16.62916
G01 X-27.33889 Y16.64033
G01 X-27.15151 Y16.74849
G01 X-26.95167 Y16.83129
G01 X-26.74265 Y16.88730
G01 X-26.52817 Y16.91552
G01 X-23.81675 Y16.91552
G01 X-23.72770 Y16.92558
G01 X-23.64136 Y16.94529
G01 X-23.56699 Y16.97015
G01 X-23.49887 Y17.00907
G01 X-23.44451 Y17.04765
G01 X-23.39320 Y17.09098
G01 X-21.56593 Y18.91823
G01 X-21.51005 Y18.98831
G01 X-21.46293 Y19.06332
G01 X-21.42795 Y19.13342
G01 X-21.40730 Y19.20901
G01 X-21.39613 Y19.27472
G01 X-21.39046 Y19.34178
G01 X-21.39046 Y21.13601
G01 X-21.40052 Y21.22506
G01 X-21.42023 Y21.31139
G01 X-21.44980 Y21.39592
G01 X-21.49745 Y21.47174
G01 X-21.55267 Y21.54098
G01 X-21.61599 Y21.60431
G01 X-21.69181 Y21.65196
G01 X-21.74223 Y21.67624
G01 X-21.77159 Y21.69039
G01 X-21.85615 Y21.72000
G01 X-21.94520 Y21.73004
G01 X-22.03377 Y21.73004
G01 X-22.12280 Y21.72000
G01 X-22.20735 Y21.69039
G01 X-22.28713 Y21.65196
G01 X-22.37977 Y21.59013
G01 X-22.39643 Y21.57527
G01 X-22.41309 Y21.55953
G01 X-22.46270 Y21.50992
G01 X-22.53910 Y21.46191
G01 X-22.62432 Y21.43209
G01 X-22.70324 Y21.42318
G01 X-22.70547 Y21.42303
G01 X-22.73923 Y21.41896
G01 X-22.79679 Y21.40954
G01 X-22.85582 Y21.39519
G01 X-22.92810 Y21.37169
G01 X-23.06808 Y21.34954
G01 X-26.02922 Y21.34954
G01 X-26.11824 Y21.33949
G01 X-26.20458 Y21.31978
G01 X-26.27892 Y21.29493
G01 X-26.34699 Y21.25605
G01 X-26.40138 Y21.21746
G01 X-26.45276 Y21.17408
G01 X-27.71885 Y19.90799
G01 X-27.89037 Y19.73644
G01 X-28.02098 Y19.63624
G01 X-28.06205 Y19.60472
G01 X-28.24943 Y19.49656
G01 X-28.44933 Y19.41376
G01 X-28.65827 Y19.35775
G01 X-28.87282 Y19.32953
G01 X-30.48331 Y19.32953
G01 X-30.57234 Y19.31947
G01 X-30.65867 Y19.29976
G01 X-30.76311 Y19.25991
G01 X-30.78265 Y19.24912
G01 X-30.80193 Y19.23774
G01 X-30.86921 Y19.19547
G01 X-30.93929 Y19.13959
G01 X-31.00193 Y19.07696
G01 X-31.05778 Y19.00690
G01 X-31.09667 Y18.92616
G01 X-31.12504 Y18.84505
G01 X-31.12590 Y18.84256
G01 X-31.14582 Y18.75529
G01 X-31.14582 Y18.66578
G01 X-31.13591 Y18.57779
G01 X-31.11811 Y18.49669
G01 X-31.08394 Y18.42103
G01 X-31.04574 Y18.35552
G01 X-31.00083 Y18.29316
G01 X-30.97884 Y18.26809
G01 X-30.84780 Y18.07198
G01 X-30.77287 Y17.92004
G01 X-30.77752 Y17.92004
G01 X-30.89316 Y18.13637
G01 X-30.93672 Y18.20157
G01 X-31.11084 Y18.41371
G01 X-31.16629 Y18.46916
G01 X-31.37843 Y18.64328
G01 X-31.44363 Y18.68684
G01 X-31.68567 Y18.81622
G01 X-31.75811 Y18.84622
G01 X-32.02075 Y18.92588
G01 X-32.09766 Y18.94119
G01 X-32.37078 Y18.96809
G01 X-32.44919 Y18.96809
G01 X-32.72232 Y18.94119
G01 X-32.79923 Y18.92588
G01 X-33.06187 Y18.84622
G01 X-33.13431 Y18.81622
G01 X-33.17987 Y18.79184
G01 X-33.37634 Y18.68684
G01 X-33.44154 Y18.64328
G01 X-33.65369 Y18.46916
G01 X-33.70913 Y18.41371
G01 X-33.88325 Y18.20157
G01 X-33.92681 Y18.13637
G01 X-34.04246 Y17.92004
G01 X-34.04708 Y17.92004
G01 X-33.97215 Y18.07198
G01 X-33.84111 Y18.26809
G01 X-33.81912 Y18.29316
G01 X-33.76783 Y18.36685
G01 X-33.72572 Y18.44478
G01 X-33.69222 Y18.52788
G01 X-33.67804 Y18.61638
G01 X-33.67393 Y18.70485
G01 X-33.67982 Y18.79415
G01 X-33.70540 Y18.87993
G01 X-33.74005 Y18.96141
G01 X-33.78028 Y19.03403
G01 X-33.83464 Y19.09679
G01 X-33.88996 Y19.14863
G01 X-33.95076 Y19.19550
G01 X-34.01807 Y19.23776
G01 X-34.09864 Y19.27655
G01 X-34.18223 Y19.30581
G01 X-34.29206 Y19.32765
G01 X-34.31434 Y19.32890
G01 X-34.33667 Y19.32953
G01 X-36.32818 Y19.32953
G01 X-36.54268 Y19.35775
G01 X-36.75162 Y19.41376
G01 X-36.95155 Y19.49656
G01 X-37.03978 Y19.54749
G01 X-37.13892 Y19.60474
G01 X-37.18271 Y19.63832
G01 X-37.31057 Y19.73644
G01 X-37.48185 Y19.90771
G01 X-37.48850 Y19.91439
G01 X-39.51819 Y21.94408
G01 X-39.58822 Y21.99991
G01 X-39.66320 Y22.04703
G01 X-39.73333 Y22.08206
G01 X-39.80897 Y22.10271
G01 X-39.87470 Y22.11388
G01 X-39.94176 Y22.11955
G01 X-40.28248 Y22.11955
G01 X-40.34968 Y22.12709
G01 X-40.43483 Y22.15688
G01 X-40.51128 Y22.20494
G01 X-40.57508 Y22.26872
G01 X-40.62309 Y22.34515
G01 X-40.65291 Y22.43031
G01 X-40.66045 Y22.49752
G01 X-40.66045 Y24.54253
G01 X-40.65291 Y24.60974
G01 X-40.62312 Y24.69488
G01 X-40.57506 Y24.77133
G01 X-40.51128 Y24.83511
G01 X-40.43483 Y24.88317
G01 X-40.34968 Y24.91296
G01 X-40.28248 Y24.92051
G01 X-39.79576 Y24.92051
G01 X-39.70673 Y24.93054
G01 X-39.62037 Y24.95025
G01 X-39.52236 Y24.98665
G01 X-39.50920 Y24.99361
G01 X-39.49622 Y25.00079
G01 X-39.49152 Y25.00349
G01 X-39.29162 Y25.08629
G01 X-39.08268 Y25.14230
G01 X-38.86818 Y25.17052
G01 X-38.65177 Y25.17052
G01 X-38.43727 Y25.14230
G01 X-38.22830 Y25.08629
G01 X-38.02848 Y25.00354
G01 X-38.02386 Y25.00087
G01 X-37.94164 Y24.96496
G01 X-37.85700 Y24.93884
G01 X-37.75408 Y24.92137
G01 X-37.73920 Y24.92081
G01 X-37.72421 Y24.92051
G01 X-37.23747 Y24.92051
G01 X-37.17026 Y24.91296
G01 X-37.08512 Y24.88317
G01 X-37.00867 Y24.83511
G01 X-36.94489 Y24.77133
G01 X-36.89683 Y24.69488
G01 X-36.86704 Y24.60974
G01 X-36.85950 Y24.54253
G01 X-36.85950 Y24.20179
G01 X-36.84944 Y24.11276
G01 X-36.82973 Y24.02643
G01 X-36.80489 Y23.95208
G01 X-36.76600 Y23.88401
G01 X-36.72742 Y23.82963
G01 X-36.68403 Y23.77824
G01 X-35.71175 Y22.80598
G01 X-35.64182 Y22.75020
G01 X-35.56684 Y22.70306
G01 X-35.49658 Y22.66798
G01 X-35.42084 Y22.64731
G01 X-35.35513 Y22.63616
G01 X-35.28823 Y22.63052
G01 X-34.33667 Y22.63052
G01 X-34.24761 Y22.64058
G01 X-34.16128 Y22.66029
G01 X-34.05683 Y22.70014
G01 X-34.03730 Y22.71093
G01 X-34.01805 Y22.72231
G01 X-33.98485 Y22.74314
G01 X-33.89968 Y22.77296
G01 X-33.83248 Y22.78050
G01 X-30.98747 Y22.78050
G01 X-30.92026 Y22.77296
G01 X-30.83507 Y22.74314
G01 X-30.80198 Y22.72234
G01 X-30.72131 Y22.68350
G01 X-30.63772 Y22.65424
G01 X-30.52789 Y22.63240
G01 X-30.50561 Y22.63115
G01 X-30.48331 Y22.63052
G01 X-29.93949 Y22.63052
G01 X-29.85047 Y22.64055
G01 X-29.76411 Y22.66026
G01 X-29.67958 Y22.68985
G01 X-29.60373 Y22.73750
G01 X-29.53449 Y22.79272
G01 X-29.47117 Y22.85604
G01 X-29.42352 Y22.93186
G01 X-29.38509 Y23.01164
G01 X-29.36109 Y23.07453
G01 X-29.34795 Y23.14055
G01 X-29.34298 Y23.18482
G01 X-29.34046 Y23.22950
G01 X-29.34046 Y25.53331
G01 X-29.31224 Y25.74771
G01 X-29.25623 Y25.95667
G01 X-29.17343 Y26.15660
G01 X-29.07071 Y26.33455
G01 X-29.06528 Y26.34392
G01 X-29.01905 Y26.40420
G01 X-28.93353 Y26.51563
G01 X-28.78232 Y26.66686
G01 X-28.72649 Y26.73688
G01 X-28.67938 Y26.81187
G01 X-28.64051 Y26.89254
G01 X-28.62057 Y26.97984
G01 X-28.61064 Y27.06785
G01 X-28.61052 Y27.15637
G01 X-28.62987 Y27.24278
G01 X-28.65796 Y27.32446
G01 X-28.69510 Y27.40330
G01 X-28.71824 Y27.44107
G01 X-28.78755 Y27.60841
G01 X-28.82982 Y27.78451
G01 X-28.84404 Y27.96503
G01 X-28.82982 Y28.14559
G01 X-28.81481 Y28.20818
G01 X-28.78755 Y28.32159
G01 X-28.71826 Y28.48895
G01 X-28.69515 Y28.52664
G01 X-28.65715 Y28.60787
G01 X-28.62885 Y28.69180
G01 X-28.60993 Y28.77930
G01 X-28.61092 Y28.86881
G01 X-28.62182 Y28.95669
G01 X-28.64237 Y29.04280
G01 X-28.68133 Y29.12225
G01 X-28.72771 Y29.19512
G01 X-28.78232 Y29.26319
G01 X-28.93355 Y29.41443
G01 X-29.06525 Y29.58608
G01 X-29.17343 Y29.77348
G01 X-29.25623 Y29.97338
G01 X-29.31224 Y30.18232
G01 X-29.34046 Y30.39682
G01 X-29.34046 Y30.61320
G01 X-29.31826 Y30.78186
G01 X-29.31224 Y30.82776
G01 X-29.25623 Y31.03667
G01 X-29.17343 Y31.23657
G01 X-29.06525 Y31.42397
G01 X-28.93353 Y31.59563
G01 X-27.68636 Y32.84279
G01 X-27.68174 Y32.84744
G01 X-27.51057 Y33.01861
G01 X-27.33892 Y33.15031
G01 X-27.15151 Y33.25849
G01 X-26.95167 Y33.34129
G01 X-26.74265 Y33.39730
G01 X-26.52817 Y33.42552
G01 X-21.98950 Y33.42552
G01 X-21.90047 Y33.43555
G01 X-21.81411 Y33.45526
G01 X-21.72958 Y33.48485
G01 X-21.65374 Y33.53250
G01 X-21.58449 Y33.58772
G01 X-21.52117 Y33.65104
G01 X-21.47352 Y33.72686
G01 X-21.43509 Y33.80664
G01 X-21.41109 Y33.86953
G01 X-21.39796 Y33.93555
G01 X-21.39298 Y33.97982
G01 X-21.39046 Y34.02450
G01 X-21.39046 Y38.06551
G01 X-21.40050 Y38.15454
G01 X-21.42021 Y38.24090
G01 X-21.44980 Y38.32543
G01 X-21.49745 Y38.40128
G01 X-21.55267 Y38.47052
G01 X-21.61599 Y38.53384
G01 X-21.69181 Y38.58149
G01 X-21.74223 Y38.60577
G01 X-21.77159 Y38.61992
G01 X-21.85615 Y38.64954
G01 X-21.94520 Y38.65957
G01 X-22.03377 Y38.65957
G01 X-22.12280 Y38.64954
G01 X-22.20735 Y38.61992
G01 X-22.28713 Y38.58149
G01 X-22.35406 Y38.54072
G01 X-22.41180 Y38.48769
G01 X-22.45622 Y38.43798
G01 X-22.49666 Y38.38421
G01 X-22.52587 Y38.33772
G01 X-22.58967 Y38.27392
G01 X-22.66610 Y38.22591
G01 X-22.75132 Y38.19609
G01 X-22.83024 Y38.18718
G01 X-22.83247 Y38.18703
G01 X-22.86623 Y38.18296
G01 X-22.92379 Y38.17354
G01 X-22.98282 Y38.15919
G01 X-23.05510 Y38.13569
G01 X-23.19508 Y38.11354
G01 X-26.02922 Y38.11354
G01 X-26.11824 Y38.10349
G01 X-26.20458 Y38.08378
G01 X-26.27892 Y38.05893
G01 X-26.34699 Y38.02005
G01 X-26.40138 Y37.98146
G01 X-26.45276 Y37.93808
G01 X-28.09167 Y36.29917
G01 X-28.14437 Y36.24644
G01 X-28.21379 Y36.19320
G01 X-28.31605 Y36.11472
G01 X-28.50338 Y36.00656
G01 X-28.70333 Y35.92376
G01 X-28.91227 Y35.86775
G01 X-29.12682 Y35.83953
G01 X-30.48331 Y35.83953
G01 X-30.57234 Y35.82947
G01 X-30.65867 Y35.80976
G01 X-30.76311 Y35.76991
G01 X-30.78265 Y35.75912
G01 X-30.80193 Y35.74774
G01 X-30.86921 Y35.70547
G01 X-30.93929 Y35.64959
G01 X-31.00193 Y35.58696
G01 X-31.05778 Y35.51690
G01 X-31.09667 Y35.43616
G01 X-31.12504 Y35.35505
G01 X-31.12590 Y35.35256
G01 X-31.14582 Y35.26529
G01 X-31.14582 Y35.17578
G01 X-31.13591 Y35.08779
G01 X-31.11811 Y35.00669
G01 X-31.08394 Y34.93103
G01 X-31.04574 Y34.86552
G01 X-31.00083 Y34.80316
G01 X-30.97884 Y34.77809
G01 X-30.84780 Y34.58198
G01 X-30.77287 Y34.43004
G01 X-30.77752 Y34.43004
G01 X-30.89316 Y34.64637
G01 X-30.93672 Y34.71157
G01 X-31.11084 Y34.92371
G01 X-31.16629 Y34.97916
G01 X-31.37843 Y35.15328
G01 X-31.44363 Y35.19684
G01 X-31.68567 Y35.32622
G01 X-31.75811 Y35.35622
G01 X-32.02075 Y35.43588
G01 X-32.09766 Y35.45119
G01 X-32.37078 Y35.47809
G01 X-32.44919 Y35.47809
G01 X-32.72232 Y35.45119
G01 X-32.79923 Y35.43588
G01 X-33.06187 Y35.35622
G01 X-33.13431 Y35.32622
G01 X-33.17987 Y35.30184
G01 X-33.37634 Y35.19684
G01 X-33.44154 Y35.15328
G01 X-33.65369 Y34.97916
G01 X-33.70913 Y34.92371
G01 X-33.88325 Y34.71157
G01 X-33.92681 Y34.64637
G01 X-34.04246 Y34.43004
G01 X-34.04708 Y34.43004
G01 X-33.97215 Y34.58198
G01 X-33.84111 Y34.77809
G01 X-33.81912 Y34.80316
G01 X-33.76783 Y34.87685
G01 X-33.72572 Y34.95478
G01 X-33.69222 Y35.03788
G01 X-33.67804 Y35.12638
G01 X-33.67393 Y35.21485
G01 X-33.67982 Y35.30415
G01 X-33.70540 Y35.38993
G01 X-33.74005 Y35.47141
G01 X-33.78028 Y35.54403
G01 X-33.83464 Y35.60679
G01 X-33.88996 Y35.65863
G01 X-33.95071 Y35.70547
G01 X-34.06128 Y35.77494
G01 X-34.12508 Y35.83872
G01 X-34.17309 Y35.91515
G01 X-34.20291 Y36.00032
G01 X-34.21045 Y36.06752
G01 X-34.21045 Y36.70824
G01 X-34.22051 Y36.79729
G01 X-34.24022 Y36.88363
G01 X-34.26506 Y36.95797
G01 X-34.30395 Y37.02604
G01 X-34.34253 Y37.08042
G01 X-34.38592 Y37.13181
G01 X-35.45820 Y38.20407
G01 X-35.52813 Y38.25985
G01 X-35.60311 Y38.30699
G01 X-35.67337 Y38.34207
G01 X-35.74911 Y38.36274
G01 X-35.81482 Y38.37389
G01 X-35.88175 Y38.37953
G01 X-38.86617 Y38.37953
G01 X-39.08067 Y38.40775
G01 X-39.28964 Y38.46376
G01 X-39.48949 Y38.54654
G01 X-39.49462 Y38.54948
G01 X-39.57631 Y38.58507
G01 X-39.66091 Y38.61118
G01 X-39.76386 Y38.62868
G01 X-39.77874 Y38.62924
G01 X-39.79375 Y38.62955
G01 X-40.28049 Y38.62955
G01 X-40.34768 Y38.63709
G01 X-40.43284 Y38.66688
G01 X-40.50927 Y38.71494
G01 X-40.57308 Y38.77872
G01 X-40.62108 Y38.85515
G01 X-40.65090 Y38.94037
G01 X-40.65847 Y39.00755
G01 X-40.65847 Y41.05250
G01 X-40.65090 Y41.11969
G01 X-40.62108 Y41.20490
G01 X-40.57308 Y41.28133
G01 X-40.50927 Y41.34511
G01 X-40.43284 Y41.39317
G01 X-40.34768 Y41.42296
G01 X-40.28049 Y41.43051
G01 X-39.79375 Y41.43051
G01 X-39.70470 Y41.44056
G01 X-39.61837 Y41.46027
G01 X-39.52037 Y41.49665
G01 X-39.50722 Y41.50361
G01 X-39.49424 Y41.51079
G01 X-39.48954 Y41.51349
G01 X-39.28964 Y41.59629
G01 X-39.08067 Y41.65230
G01 X-38.86617 Y41.68052
G01 X-34.84177 Y41.68052
G01 X-34.62727 Y41.65230
G01 X-34.41833 Y41.59629
G01 X-34.21843 Y41.51349
G01 X-34.03103 Y41.40531
G01 X-33.88818 Y41.29568
G01 X-33.85937 Y41.27358
G01 X-32.05176 Y39.46597
G01 X-31.98173 Y39.41014
G01 X-31.90675 Y39.36302
G01 X-31.83662 Y39.32799
G01 X-31.76098 Y39.30734
G01 X-31.69524 Y39.29617
G01 X-31.62821 Y39.29050
G01 X-30.98747 Y39.29050
G01 X-30.92026 Y39.28296
G01 X-30.83507 Y39.25314
G01 X-30.80198 Y39.23234
G01 X-30.72131 Y39.19350
G01 X-30.63772 Y39.16424
G01 X-30.52789 Y39.14240
G01 X-30.50561 Y39.14115
G01 X-30.48331 Y39.14052
G01 X-30.16675 Y39.14052
G01 X-30.07770 Y39.15058
G01 X-29.99136 Y39.17029
G01 X-29.91699 Y39.19515
G01 X-29.84887 Y39.23407
G01 X-29.79451 Y39.27265
G01 X-29.74323 Y39.31596
G01 X-29.51595 Y39.54321
G01 X-29.46004 Y39.61331
G01 X-29.41293 Y39.68832
G01 X-29.37795 Y39.75842
G01 X-29.35730 Y39.83401
G01 X-29.34612 Y39.89972
G01 X-29.34046 Y39.96678
G01 X-29.34046 Y42.04331
G01 X-29.31224 Y42.25771
G01 X-29.25623 Y42.46667
G01 X-29.17343 Y42.66660
G01 X-29.07071 Y42.84455
G01 X-29.06528 Y42.85395
G01 X-28.93355 Y43.02563
G01 X-28.78232 Y43.17686
G01 X-28.72649 Y43.24688
G01 X-28.67938 Y43.32187
G01 X-28.64051 Y43.40254
G01 X-28.62057 Y43.48984
G01 X-28.61064 Y43.57785
G01 X-28.61052 Y43.66637
G01 X-28.62987 Y43.75278
G01 X-28.65796 Y43.83446
G01 X-28.69515 Y43.91336
G01 X-28.71824 Y43.95107
G01 X-28.78755 Y44.11838
G01 X-28.82982 Y44.29451
G01 X-28.84404 Y44.47503
G01 X-28.82982 Y44.65557
G01 X-28.78758 Y44.83157
G01 X-28.71826 Y44.99895
G01 X-28.69515 Y45.03664
G01 X-28.65715 Y45.11787
G01 X-28.62885 Y45.20180
G01 X-28.60993 Y45.28930
G01 X-28.61092 Y45.37881
G01 X-28.62182 Y45.46669
G01 X-28.64237 Y45.55280
G01 X-28.68133 Y45.63225
G01 X-28.72771 Y45.70512
G01 X-28.78232 Y45.77319
G01 X-28.93355 Y45.92443
G01 X-29.06525 Y46.09608
G01 X-29.14267 Y46.23017
G01 X-29.17343 Y46.28345
G01 X-29.25623 Y46.48338
G01 X-29.31224 Y46.69232
G01 X-29.34046 Y46.90682
G01 X-29.34046 Y47.12323
G01 X-29.31224 Y47.33773
G01 X-29.25623 Y47.54667
G01 X-29.17343 Y47.74657
G01 X-29.06525 Y47.93397
G01 X-28.93355 Y48.10563
G01 X-27.94107 Y49.09808
G01 X-27.93574 Y49.10344
G01 X-27.76457 Y49.27461
G01 X-27.63671 Y49.37270
G01 X-27.59289 Y49.40633
G01 X-27.40551 Y49.51449
G01 X-27.20567 Y49.59729
G01 X-27.13599 Y49.61593
G01 X-26.99665 Y49.65330
G01 X-26.78217 Y49.68152
G01 X-21.98950 Y49.68152
G01 X-21.90047 Y49.69155
G01 X-21.81411 Y49.71126
G01 X-21.72958 Y49.74085
G01 X-21.65374 Y49.78850
G01 X-21.58449 Y49.84372
G01 X-21.52117 Y49.90704
G01 X-21.47352 Y49.98286
G01 X-21.43509 Y50.06264
G01 X-21.41109 Y50.12553
G01 X-21.39796 Y50.19155
G01 X-21.39298 Y50.23582
G01 X-21.39046 Y50.28050
G01 X-21.39046 Y54.53703
G01 X-21.40052 Y54.62606
G01 X-21.42023 Y54.71239
G01 X-21.44980 Y54.79692
G01 X-21.49745 Y54.87274
G01 X-21.55267 Y54.94198
G01 X-21.61599 Y55.00533
G01 X-21.69181 Y55.05296
G01 X-21.74220 Y55.07724
G01 X-21.77159 Y55.09139
G01 X-21.85615 Y55.12100
G01 X-21.94520 Y55.13106
G01 X-22.03377 Y55.13106
G01 X-22.12280 Y55.12100
G01 X-22.20735 Y55.09139
G01 X-22.28713 Y55.05296
G01 X-22.37977 Y54.99113
G01 X-22.39643 Y54.97627
G01 X-22.41309 Y54.96055
G01 X-22.46270 Y54.91092
G01 X-22.53910 Y54.86291
G01 X-22.62432 Y54.83312
G01 X-22.70324 Y54.82418
G01 X-22.70547 Y54.82403
G01 X-22.73923 Y54.81996
G01 X-22.79679 Y54.81054
G01 X-22.85582 Y54.79619
G01 X-22.92810 Y54.77269
G01 X-23.06808 Y54.75057
G01 X-26.02922 Y54.75057
G01 X-26.11824 Y54.74049
G01 X-26.20458 Y54.72078
G01 X-26.27892 Y54.69593
G01 X-26.34699 Y54.65705
G01 X-26.40138 Y54.61846
G01 X-26.45276 Y54.57508
G01 X-28.09985 Y52.92799
G01 X-28.27137 Y52.75644
G01 X-28.39924 Y52.65835
G01 X-28.44305 Y52.62474
G01 X-28.63043 Y52.51656
G01 X-28.83033 Y52.43376
G01 X-29.03927 Y52.37775
G01 X-29.14648 Y52.36366
G01 X-29.21318 Y52.35487
G01 X-29.25377 Y52.34953
G01 X-30.48331 Y52.34953
G01 X-30.57234 Y52.33947
G01 X-30.65867 Y52.31976
G01 X-30.76311 Y52.27991
G01 X-30.78265 Y52.26912
G01 X-30.80193 Y52.25774
G01 X-30.86921 Y52.21547
G01 X-30.93929 Y52.15959
G01 X-31.00193 Y52.09696
G01 X-31.05778 Y52.02690
G01 X-31.09667 Y51.94616
G01 X-31.12504 Y51.86505
G01 X-31.12590 Y51.86256
G01 X-31.14582 Y51.77529
G01 X-31.14582 Y51.68578
G01 X-31.13591 Y51.59779
G01 X-31.11811 Y51.51669
G01 X-31.08394 Y51.44103
G01 X-31.04574 Y51.37552
G01 X-31.00083 Y51.31316
G01 X-30.97884 Y51.28809
G01 X-30.84780 Y51.09198
G01 X-30.77287 Y50.94004
G01 X-30.77752 Y50.94004
G01 X-30.89316 Y51.15637
G01 X-30.93672 Y51.22157
G01 X-31.11084 Y51.43371
G01 X-31.16629 Y51.48916
G01 X-31.37843 Y51.66328
G01 X-31.44363 Y51.70684
G01 X-31.68567 Y51.83622
G01 X-31.75811 Y51.86622
G01 X-32.02075 Y51.94588
G01 X-32.09766 Y51.96119
G01 X-32.37078 Y51.98809
G01 X-32.44919 Y51.98809
G01 X-32.72232 Y51.96119
G01 X-32.79923 Y51.94588
G01 X-33.06187 Y51.86622
G01 X-33.13431 Y51.83622
G01 X-33.17987 Y51.81184
G01 X-33.37634 Y51.70684
G01 X-33.44154 Y51.66328
G01 X-33.65369 Y51.48916
G01 X-33.70913 Y51.43371
G01 X-33.88325 Y51.22157
G01 X-33.92681 Y51.15637
G01 X-34.04246 Y50.94004
G01 X-34.04708 Y50.94004
G01 X-33.97215 Y51.09198
G01 X-33.84111 Y51.28809
G01 X-33.81912 Y51.31316
G01 X-33.76783 Y51.38685
G01 X-33.72572 Y51.46478
G01 X-33.69222 Y51.54788
G01 X-33.67804 Y51.63638
G01 X-33.67393 Y51.72485
G01 X-33.67982 Y51.81415
G01 X-33.70540 Y51.89993
G01 X-33.74005 Y51.98141
G01 X-33.78028 Y52.05403
G01 X-33.83464 Y52.11679
G01 X-33.88996 Y52.16863
G01 X-33.95071 Y52.21547
G01 X-34.06128 Y52.28494
G01 X-34.12508 Y52.34872
G01 X-34.17309 Y52.42515
G01 X-34.20291 Y52.51032
G01 X-34.21045 Y52.57752
G01 X-34.21045 Y53.21824
G01 X-34.22051 Y53.30729
G01 X-34.24022 Y53.39363
G01 X-34.26506 Y53.46797
G01 X-34.30395 Y53.53604
G01 X-34.34253 Y53.59042
G01 X-34.38592 Y53.64181
G01 X-35.45820 Y54.71410
G01 X-35.52813 Y54.76985
G01 X-35.60311 Y54.81699
G01 X-35.67337 Y54.85209
G01 X-35.74911 Y54.87274
G01 X-35.81482 Y54.88389
G01 X-35.88175 Y54.88953
G01 X-38.86818 Y54.88953
G01 X-39.08268 Y54.91778
G01 X-39.29162 Y54.97379
G01 X-39.49152 Y55.05656
G01 X-39.49622 Y55.05926
G01 X-39.57831 Y55.09510
G01 X-39.66294 Y55.12121
G01 X-39.76587 Y55.13868
G01 X-39.78075 Y55.13924
G01 X-39.79576 Y55.13955
G01 X-40.28248 Y55.13955
G01 X-40.34968 Y55.14711
G01 X-40.43483 Y55.17688
G01 X-40.51128 Y55.22494
G01 X-40.57508 Y55.28875
G01 X-40.62309 Y55.36517
G01 X-40.65291 Y55.45031
G01 X-40.66045 Y55.51752
G01 X-40.66045 Y57.56253
G01 X-40.65291 Y57.62974
G01 X-40.62312 Y57.71488
G01 X-40.57506 Y57.79133
G01 X-40.51128 Y57.85511
G01 X-40.43483 Y57.90317
G01 X-40.34968 Y57.93296
G01 X-40.28248 Y57.94051
G01 X-39.79576 Y57.94051
G01 X-39.70673 Y57.95054
G01 X-39.62037 Y57.97025
G01 X-39.52236 Y58.00665
G01 X-39.50920 Y58.01361
G01 X-39.49622 Y58.02079
G01 X-39.49152 Y58.02349
G01 X-39.29162 Y58.10629
G01 X-39.08268 Y58.16230
G01 X-38.86818 Y58.19052
G01 X-34.84177 Y58.19052
G01 X-34.62727 Y58.16230
G01 X-34.41833 Y58.10629
G01 X-34.21843 Y58.02349
G01 X-34.03103 Y57.91531
G01 X-33.88818 Y57.80568
G01 X-33.85937 Y57.78358
G01 X-32.05176 Y55.97597
G01 X-31.98173 Y55.92014
G01 X-31.90675 Y55.87302
G01 X-31.83662 Y55.83799
G01 X-31.76098 Y55.81734
G01 X-31.69524 Y55.80619
G01 X-31.62821 Y55.80053
G01 X-30.98747 Y55.80053
G01 X-30.92026 Y55.79296
G01 X-30.83507 Y55.76317
G01 X-30.80198 Y55.74234
G01 X-30.72131 Y55.70353
G01 X-30.63772 Y55.67424
G01 X-30.52789 Y55.65240
G01 X-30.50561 Y55.65115
G01 X-30.48331 Y55.65052
G01 X-30.29375 Y55.65052
G01 X-30.20470 Y55.66060
G01 X-30.11836 Y55.68029
G01 X-30.04399 Y55.70515
G01 X-29.97587 Y55.74407
G01 X-29.92151 Y55.78265
G01 X-29.87020 Y55.82598
G01 X-29.51592 Y56.18023
G01 X-29.46004 Y56.25031
G01 X-29.41293 Y56.32532
G01 X-29.37795 Y56.39545
G01 X-29.35730 Y56.47101
G01 X-29.34612 Y56.53675
G01 X-29.34046 Y56.60378
G01 X-29.34046 Y58.55331
G01 X-29.31224 Y58.76771
G01 X-29.25623 Y58.97667
G01 X-29.17343 Y59.17660
G01 X-29.07071 Y59.35455
G01 X-29.06528 Y59.36395
G01 X-28.93355 Y59.53563
G01 X-28.78232 Y59.68686
G01 X-28.72649 Y59.75688
G01 X-28.67938 Y59.83187
G01 X-28.64051 Y59.91254
G01 X-28.62057 Y59.99984
G01 X-28.61064 Y60.08785
G01 X-28.61052 Y60.17637
G01 X-28.62987 Y60.26278
G01 X-28.65796 Y60.34446
G01 X-28.69510 Y60.42330
G01 X-28.71824 Y60.46107
G01 X-28.78755 Y60.62841
G01 X-28.82982 Y60.80451
G01 X-28.84404 Y60.98503
G01 X-28.82982 Y61.16559
G01 X-28.81481 Y61.22818
G01 X-28.78755 Y61.34159
G01 X-28.71826 Y61.50895
G01 X-28.69515 Y61.54664
G01 X-28.65715 Y61.62787
G01 X-28.62885 Y61.71180
G01 X-28.60993 Y61.79930
G01 X-28.61092 Y61.88881
G01 X-28.62182 Y61.97669
G01 X-28.64237 Y62.06280
G01 X-28.68133 Y62.14225
G01 X-28.72771 Y62.21512
G01 X-28.78232 Y62.28319
G01 X-28.93355 Y62.43443
G01 X-29.06525 Y62.60608
G01 X-29.17343 Y62.79348
G01 X-29.25623 Y62.99338
G01 X-29.31224 Y63.20232
G01 X-29.34046 Y63.41682
G01 X-29.34046 Y63.63320
G01 X-29.31826 Y63.80186
G01 X-29.31224 Y63.84776
G01 X-29.25623 Y64.05667
G01 X-29.17343 Y64.25657
G01 X-29.06525 Y64.44397
G01 X-28.93353 Y64.61563
G01 X-27.68636 Y65.86279
G01 X-27.68174 Y65.86744
G01 X-27.51057 Y66.03861
G01 X-27.38271 Y66.13670
G01 X-27.33889 Y66.17033
G01 X-27.15151 Y66.27849
G01 X-26.95167 Y66.36129
G01 X-26.74265 Y66.41730
G01 X-26.52817 Y66.44552
G01 X-21.98950 Y66.44552
G01 X-21.90047 Y66.45555
G01 X-21.81411 Y66.47526
G01 X-21.72958 Y66.50485
G01 X-21.65374 Y66.55250
G01 X-21.58449 Y66.60772
G01 X-21.52117 Y66.67104
G01 X-21.47352 Y66.74686
G01 X-21.43509 Y66.82664
G01 X-21.41109 Y66.88953
G01 X-21.39796 Y66.95555
G01 X-21.39298 Y66.99982
G01 X-21.39046 Y67.04450
G01 X-21.39046 Y68.08425
G01 X-21.40052 Y68.17330
G01 X-21.42023 Y68.25964
G01 X-21.44507 Y68.33398
G01 X-21.48396 Y68.40205
G01 X-21.52254 Y68.45644
G01 X-21.56593 Y68.50782
G01 X-21.79011 Y68.73200
G01 X-22.11495 Y69.05682
G01 X-22.12610 Y69.06802
G01 X-22.12643 Y69.06832
G01 X-22.90049 Y69.84239
G01 X-22.97052 Y69.89822
G01 X-23.04550 Y69.94533
G01 X-23.12978 Y69.98544
G01 X-23.23283 Y70.02041
G01 X-23.45625 Y70.13063
G01 X-23.66341 Y70.26903
G01 X-23.85071 Y70.43329
G01 X-24.01497 Y70.62059
G01 X-24.15337 Y70.82775
G01 X-24.26358 Y71.05117
G01 X-24.34365 Y71.28709
G01 X-24.39226 Y71.53144
G01 X-24.40857 Y71.78003
G01 X-24.39226 Y72.02862
G01 X-24.34365 Y72.27296
G01 X-24.26358 Y72.50888
G01 X-24.15337 Y72.73230
G01 X-24.01497 Y72.93946
G01 X-23.90829 Y73.06113
G01 X-23.89993 Y73.07060
G01 X-23.85071 Y73.12676
G01 X-23.66341 Y73.29102
G01 X-23.45625 Y73.42943
G01 X-23.23283 Y73.53964
G01 X-22.99691 Y73.61970
G01 X-22.75256 Y73.66831
G01 X-22.50397 Y73.68462
G01 X-22.25538 Y73.66831
G01 X-22.01104 Y73.61970
G01 X-21.77512 Y73.53964
G01 X-21.55170 Y73.42943
G01 X-21.34454 Y73.29102
G01 X-21.15724 Y73.12676
G01 X-20.99298 Y72.93946
G01 X-20.85457 Y72.73232
G01 X-20.78455 Y72.59034
G01 X-20.73613 Y72.51487
G01 X-20.68025 Y72.44617
G01 X-20.61637 Y72.38350
G01 X-20.54017 Y72.33659
G01 X-20.46004 Y72.29890
G01 X-20.37518 Y72.27007
G01 X-20.28600 Y72.26087
G01 X-20.19743 Y72.26171
G01 X-20.10855 Y72.27258
G01 X-20.02432 Y72.30294
G01 X-19.94490 Y72.34210
G01 X-19.85371 Y72.40400
G01 X-19.83852 Y72.41772
G01 X-19.82377 Y72.43174
G01 X-19.53461 Y72.72089
G01 X-19.41996 Y72.80418
G01 X-19.31729 Y72.85648
G01 X-19.29362 Y72.86854
G01 X-19.22628 Y72.89044
G01 X-19.15885 Y72.91236
G01 X-19.01884 Y72.93451
G01 X-16.71806 Y72.93451
G01 X-16.68814 Y72.92978
G01 X-16.57813 Y72.91236
G01 X-16.50582 Y72.88886
G01 X-16.44473 Y72.87418
G01 X-16.38715 Y72.86506
G01 X-16.38697 Y72.86613
G01 X-16.36850 Y72.86227
G01 X-16.27389 Y72.85180
G01 X-16.18910 Y72.82214
G01 X-16.11267 Y72.77413
G01 X-16.04887 Y72.71033
G01 X-16.00086 Y72.63390
G01 X-15.97104 Y72.54868
G01 X-15.96210 Y72.46928
G01 X-15.96198 Y72.46753
G01 X-15.95791 Y72.43377
G01 X-15.94849 Y72.37621
G01 X-15.93414 Y72.31718
G01 X-15.91064 Y72.24490
G01 X-15.88849 Y72.10492
G01 X-15.88849 Y71.96311
G04 P0 ( dwell for no time -- G64 should not smooth over this point )
G00 Z3.50000 ( retract )

G00 X-27.11966 Y59.98998 ( rapid move to begin. )
G01 F200.00000
( Mill infeed pass 1/1 )
G01 Z-0.20000
G04 P0 ( dwell for no time -- G64 should not smooth over this point )
G01 F400.00000
G01 X-27.11966 Y59.98998
G01 X-27.09551 Y59.98264
G01 X-27.02307 Y59.95264
G01 X-26.80696 Y59.83712
G01 X-26.74176 Y59.79356
G01 X-26.55233 Y59.63809
G01 X-26.49691 Y59.58267
G01 X-26.34143 Y59.39323
G01 X-26.29787 Y59.32803
G01 X-26.18235 Y59.11193
G01 X-26.15235 Y59.03949
G01 X-26.08123 Y58.80499
G01 X-26.06592 Y58.72808
G01 X-26.04192 Y58.48422
G01 X-26.03998 Y58.44500
G01 X-26.03998 Y56.55102
G01 X-23.13900 Y56.55102
G01 X-23.09978 Y56.54909
G01 X-23.00225 Y56.53949
G01 X-22.92534 Y56.52418
G01 X-22.83153 Y56.49575
G01 X-22.78393 Y56.47602
G01 X-22.71398 Y56.47602
G01 X-22.63595 Y56.46832
G01 X-22.56092 Y56.44556
G01 X-22.49176 Y56.40861
G01 X-22.43115 Y56.35885
G01 X-22.38139 Y56.29824
G01 X-22.34444 Y56.22908
G01 X-22.32168 Y56.15407
G01 X-22.31398 Y56.07604
G01 X-22.31398 Y56.00607
G01 X-22.29427 Y55.95847
G01 X-22.26582 Y55.86469
G01 X-22.25053 Y55.78778
G01 X-22.24091 Y55.69022
G01 X-22.24091 Y55.61181
G01 X-22.25053 Y55.51430
G01 X-22.26488 Y55.44206
G01 X-22.26582 Y55.43739
G01 X-22.29427 Y55.34356
G01 X-22.31398 Y55.29596
G01 X-22.31398 Y55.22601
G01 X-22.32168 Y55.14800
G01 X-22.34444 Y55.07295
G01 X-22.38139 Y55.00381
G01 X-22.42854 Y54.94633
G01 X-22.43522 Y54.93983
G01 X-22.48652 Y54.89776
G01 X-22.50253 Y54.88768
G01 X-22.55869 Y54.85766
G01 X-22.56976 Y54.85377
G01 X-22.63595 Y54.83370
G01 X-22.71398 Y54.82601
G01 X-22.78393 Y54.82601
G01 X-22.83153 Y54.80632
G01 X-22.92534 Y54.77785
G01 X-23.00225 Y54.76258
G01 X-23.09978 Y54.75293
G01 X-23.13900 Y54.75100
G01 X-26.32325 Y54.75100
G01 X-26.34143 Y54.72380
G01 X-26.49691 Y54.53437
G01 X-26.52325 Y54.50528
G01 X-28.19525 Y52.83328
G01 X-28.22433 Y52.80694
G01 X-28.41377 Y52.65146
G01 X-28.47897 Y52.60790
G01 X-28.69507 Y52.49238
G01 X-28.76751 Y52.46239
G01 X-29.00201 Y52.39127
G01 X-29.07892 Y52.37595
G01 X-29.32278 Y52.35195
G01 X-29.36200 Y52.35002
G01 X-30.70020 Y52.35002
G01 X-30.72715 Y52.31717
G01 X-30.78775 Y52.26742
G01 X-30.85692 Y52.23046
G01 X-30.93195 Y52.20770
G01 X-31.00998 Y52.20000
G01 X-33.81000 Y52.20000
G01 X-33.88803 Y52.20770
G01 X-33.96306 Y52.23046
G01 X-33.99836 Y52.24933
G01 X-34.04101 Y52.27465
G01 X-34.08483 Y52.31060
G01 X-34.09940 Y52.32517
G01 X-34.13822 Y52.37249
G01 X-34.14838 Y52.38865
G01 X-34.17835 Y52.44468
G01 X-34.18223 Y52.45583
G01 X-34.20230 Y52.52197
G01 X-34.21000 Y52.60000
G01 X-34.21000 Y53.46655
G01 X-35.63344 Y54.89002
G01 X-38.76000 Y54.89002
G01 X-38.79919 Y54.89195
G01 X-39.04306 Y54.91595
G01 X-39.11997 Y54.93127
G01 X-39.35446 Y55.00239
G01 X-39.42690 Y55.03238
G01 X-39.62825 Y55.14003
G01 X-40.26000 Y55.14003
G01 X-40.33803 Y55.14770
G01 X-40.40402 Y55.16771
G01 X-40.41534 Y55.17168
G01 X-40.47120 Y55.20155
G01 X-40.48758 Y55.21183
G01 X-40.53475 Y55.25057
G01 X-40.54946 Y55.26525
G01 X-40.58822 Y55.31247
G01 X-40.59840 Y55.32870
G01 X-40.62835 Y55.38471
G01 X-40.63223 Y55.39583
G01 X-40.65230 Y55.46200
G01 X-40.66000 Y55.54000
G01 X-40.66000 Y57.54002
G01 X-40.65230 Y57.61805
G01 X-40.63218 Y57.68440
G01 X-40.62837 Y57.69527
G01 X-40.59833 Y57.75148
G01 X-40.58827 Y57.76751
G01 X-40.54935 Y57.81493
G01 X-40.53490 Y57.82938
G01 X-40.48743 Y57.86832
G01 X-40.47155 Y57.87830
G01 X-40.41517 Y57.90845
G01 X-40.40475 Y57.91208
G01 X-40.33803 Y57.93233
G01 X-40.26000 Y57.94002
G01 X-39.62825 Y57.94002
G01 X-39.42690 Y58.04764
G01 X-39.35446 Y58.07764
G01 X-39.11997 Y58.14876
G01 X-39.04306 Y58.16408
G01 X-38.79919 Y58.18808
G01 X-38.76000 Y58.19001
G01 X-34.95000 Y58.19001
G01 X-34.91078 Y58.18808
G01 X-34.66692 Y58.16408
G01 X-34.59001 Y58.14876
G01 X-34.35551 Y58.07764
G01 X-34.28307 Y58.04764
G01 X-34.06697 Y57.93212
G01 X-34.00177 Y57.88856
G01 X-33.81233 Y57.73309
G01 X-33.78325 Y57.70675
G01 X-31.87652 Y55.80005
G01 X-31.00998 Y55.80005
G01 X-30.93195 Y55.79233
G01 X-30.86487 Y55.77198
G01 X-30.85491 Y55.76850
G01 X-30.78775 Y55.73261
G01 X-30.72715 Y55.68288
G01 X-30.70020 Y55.65003
G01 X-30.04544 Y55.65003
G01 X-29.33998 Y56.35549
G01 X-29.33998 Y58.44500
G01 X-29.33805 Y58.48422
G01 X-29.31404 Y58.72808
G01 X-29.29873 Y58.80499
G01 X-29.22761 Y59.03949
G01 X-29.19761 Y59.11193
G01 X-29.08209 Y59.32803
G01 X-29.03853 Y59.39323
G01 X-28.88306 Y59.58267
G01 X-28.82763 Y59.63809
G01 X-28.63820 Y59.79356
G01 X-28.57300 Y59.83712
G01 X-28.35690 Y59.95264
G01 X-28.28446 Y59.98264
G01 X-28.26025 Y59.98998
G04 P0 ( dwell for no time -- G64 should not smooth over this point )
G00 Z3.50000 ( retract )

G00 X-28.26025 Y61.98007 ( rapid move to begin. )
G01 F200.00000
( Mill infeed pass 1/1 )
G01 Z-0.20000
G04 P0 ( dwell for no time -- G64 should not smooth over this point )
G01 F400.00000
G01 X-28.26025 Y61.98007
G01 X-28.29523 Y61.96138
G01 X-28.36043 Y61.91781
G01 X-28.47407 Y61.82455
G01 X-28.52951 Y61.76910
G01 X-28.62278 Y61.65546
G01 X-28.66637 Y61.59026
G01 X-28.73566 Y61.46059
G01 X-28.76568 Y61.38815
G01 X-28.80836 Y61.24743
G01 X-28.82365 Y61.17055
G01 X-28.83805 Y61.02422
G01 X-28.83805 Y60.94581
G01 X-28.82365 Y60.79948
G01 X-28.80836 Y60.72259
G01 X-28.76568 Y60.58188
G01 X-28.73566 Y60.50944
G01 X-28.66637 Y60.37977
G01 X-28.62278 Y60.31457
G01 X-28.52951 Y60.20093
G01 X-28.47407 Y60.14548
G01 X-28.36043 Y60.05221
G01 X-28.29523 Y60.00865
G01 X-28.26025 Y59.98998
G01 X-28.14453 Y59.97858
G01 X-28.07320 Y59.97502
G01 X-28.02604 Y59.97502
G01 X-27.96348 Y59.97197
G01 X-27.92174 Y59.96786
G01 X-27.86429 Y59.96501
G01 X-27.51565 Y59.96501
G01 X-27.45819 Y59.96786
G01 X-27.41646 Y59.97197
G01 X-27.35390 Y59.97502
G01 X-27.30673 Y59.97502
G01 X-27.23541 Y59.97858
G01 X-27.11966 Y59.98998
G01 X-27.08476 Y60.00865
G01 X-27.01956 Y60.05221
G01 X-26.97958 Y60.08500
G01 X-23.31383 Y60.08500
G01 X-23.22320 Y60.01063
G01 X-23.15800 Y59.96707
G01 X-23.01970 Y59.89313
G01 X-22.94726 Y59.86313
G01 X-22.79717 Y59.81762
G01 X-22.72026 Y59.80230
G01 X-22.56420 Y59.78693
G01 X-22.48579 Y59.78693
G01 X-22.32971 Y59.80230
G01 X-22.25279 Y59.81762
G01 X-22.10273 Y59.86313
G01 X-22.03029 Y59.89313
G01 X-21.89196 Y59.96707
G01 X-21.82679 Y60.01063
G01 X-21.70555 Y60.11012
G01 X-21.65010 Y60.16557
G01 X-21.55061 Y60.28680
G01 X-21.50705 Y60.35201
G01 X-21.43311 Y60.49031
G01 X-21.40311 Y60.56275
G01 X-21.38996 Y60.60608
G01 X-21.38998 Y49.68101
G01 X-26.67399 Y49.68101
G01 X-26.71319 Y49.67908
G01 X-26.95705 Y49.65508
G01 X-27.03396 Y49.63976
G01 X-27.26846 Y49.56864
G01 X-27.34090 Y49.53864
G01 X-27.55700 Y49.42312
G01 X-27.62220 Y49.37956
G01 X-27.81163 Y49.22409
G01 X-27.84072 Y49.19775
G01 X-28.85672 Y48.18175
G01 X-28.88306 Y48.15267
G01 X-29.03853 Y47.96323
G01 X-29.08209 Y47.89803
G01 X-29.19761 Y47.68193
G01 X-29.22761 Y47.60949
G01 X-29.29873 Y47.37499
G01 X-29.31404 Y47.29808
G01 X-29.33805 Y47.05422
G01 X-29.33805 Y46.97581
G01 X-29.31404 Y46.73194
G01 X-29.29873 Y46.65503
G01 X-29.22761 Y46.42054
G01 X-29.19761 Y46.34810
G01 X-29.08209 Y46.13199
G01 X-29.03853 Y46.06679
G01 X-28.88306 Y45.87736
G01 X-28.82763 Y45.82194
G01 X-28.63820 Y45.66646
G01 X-28.57300 Y45.62290
G01 X-28.35690 Y45.50738
G01 X-28.28446 Y45.47739
G01 X-28.26025 Y45.47007
G01 X-28.14453 Y45.48147
G01 X-28.07320 Y45.48503
G01 X-28.02604 Y45.48503
G01 X-27.96348 Y45.48808
G01 X-27.92174 Y45.49219
G01 X-27.86429 Y45.49504
G01 X-27.51565 Y45.49504
G01 X-27.45819 Y45.49219
G01 X-27.41646 Y45.48808
G01 X-27.35390 Y45.48503
G01 X-27.30673 Y45.48503
G01 X-27.23541 Y45.48147
G01 X-27.11964 Y45.47007
G01 X-27.09551 Y45.47739
G01 X-27.02307 Y45.50738
G01 X-26.80696 Y45.62290
G01 X-26.74176 Y45.66646
G01 X-26.63795 Y45.75165
G01 X-26.55233 Y45.82194
G01 X-26.52325 Y45.84828
G01 X-25.99053 Y46.38102
G01 X-21.38998 Y46.38102
G01 X-21.38998 Y33.42501
G01 X-26.41999 Y33.42501
G01 X-26.45919 Y33.42308
G01 X-26.70305 Y33.39908
G01 X-26.77996 Y33.38376
G01 X-27.01446 Y33.31264
G01 X-27.08690 Y33.28264
G01 X-27.30300 Y33.16712
G01 X-27.36820 Y33.12356
G01 X-27.55763 Y32.96809
G01 X-27.58672 Y32.94175
G01 X-28.85672 Y31.67175
G01 X-28.88306 Y31.64267
G01 X-29.03853 Y31.45323
G01 X-29.08209 Y31.38803
G01 X-29.19761 Y31.17193
G01 X-29.22761 Y31.09949
G01 X-29.29873 Y30.86499
G01 X-29.31404 Y30.78808
G01 X-29.33805 Y30.54422
G01 X-29.33805 Y30.46581
G01 X-29.31404 Y30.22194
G01 X-29.29873 Y30.14503
G01 X-29.22761 Y29.91054
G01 X-29.19761 Y29.83810
G01 X-29.08209 Y29.62199
G01 X-29.03853 Y29.55679
G01 X-28.88306 Y29.36736
G01 X-28.82763 Y29.31194
G01 X-28.63820 Y29.15646
G01 X-28.57300 Y29.11290
G01 X-28.35690 Y28.99738
G01 X-28.28446 Y28.96739
G01 X-28.26025 Y28.96007
G01 X-28.14453 Y28.97147
G01 X-28.07320 Y28.97503
G01 X-28.02604 Y28.97503
G01 X-27.96348 Y28.97808
G01 X-27.92174 Y28.98219
G01 X-27.86429 Y28.98504
G01 X-27.51565 Y28.98504
G01 X-27.45819 Y28.98219
G01 X-27.41646 Y28.97808
G01 X-27.35390 Y28.97503
G01 X-27.30673 Y28.97503
G01 X-27.23541 Y28.97147
G01 X-27.11964 Y28.96007
G01 X-27.09551 Y28.96739
G01 X-27.02307 Y28.99738
G01 X-26.80696 Y29.11290
G01 X-26.74176 Y29.15646
G01 X-26.63795 Y29.24165
G01 X-26.55233 Y29.31194
G01 X-26.52325 Y29.33828
G01 X-25.73653 Y30.12502
G01 X-21.38998 Y30.12502
G01 X-21.38998 Y19.09347
G01 X-23.56844 Y16.91501
G01 X-26.41999 Y16.91501
G01 X-26.45919 Y16.91308
G01 X-26.70305 Y16.88908
G01 X-26.77996 Y16.87376
G01 X-27.01446 Y16.80264
G01 X-27.08690 Y16.77264
G01 X-27.30300 Y16.65712
G01 X-27.36820 Y16.61356
G01 X-27.55763 Y16.45809
G01 X-27.58672 Y16.43175
G01 X-28.85672 Y15.16175
G01 X-28.88306 Y15.13267
G01 X-29.03853 Y14.94323
G01 X-29.08209 Y14.87803
G01 X-29.19761 Y14.66193
G01 X-29.22761 Y14.58949
G01 X-29.29873 Y14.35499
G01 X-29.31404 Y14.27808
G01 X-29.33805 Y14.03422
G01 X-29.33805 Y13.95581
G01 X-29.31404 Y13.71194
G01 X-29.29873 Y13.63503
G01 X-29.22761 Y13.40054
G01 X-29.19761 Y13.32810
G01 X-29.08209 Y13.11199
G01 X-29.03853 Y13.04679
G01 X-28.88306 Y12.85736
G01 X-28.82763 Y12.80194
G01 X-28.63820 Y12.64646
G01 X-28.57300 Y12.60290
G01 X-28.35690 Y12.48738
G01 X-28.28446 Y12.45739
G01 X-28.26025 Y12.45007
G01 X-28.14453 Y12.46147
G01 X-28.07320 Y12.46503
G01 X-28.02604 Y12.46503
G01 X-27.96348 Y12.46808
G01 X-27.92174 Y12.47219
G01 X-27.86429 Y12.47504
G01 X-27.71656 Y12.47501
G01 X-27.66338 Y12.47504
G01 X-27.51565 Y12.47504
G01 X-27.45819 Y12.47219
G01 X-27.41646 Y12.46808
G01 X-27.35390 Y12.46503
G01 X-27.30673 Y12.46503
G01 X-27.23541 Y12.46147
G01 X-27.11964 Y12.45007
G01 X-27.09551 Y12.45739
G01 X-27.02307 Y12.48738
G01 X-26.80696 Y12.60290
G01 X-26.74176 Y12.64646
G01 X-26.63795 Y12.73165
G01 X-26.55233 Y12.80194
G01 X-26.52325 Y12.82828
G01 X-25.73653 Y13.61502
G01 X-22.88500 Y13.61502
G01 X-22.84578 Y13.61695
G01 X-22.60192 Y13.64095
G01 X-22.52501 Y13.65627
G01 X-22.29051 Y13.72739
G01 X-22.21807 Y13.75738
G01 X-22.00197 Y13.87290
G01 X-21.93677 Y13.91646
G01 X-21.74733 Y14.07194
G01 X-21.71825 Y14.09828
G01 X-18.57325 Y17.24328
G01 X-18.54691 Y17.27236
G01 X-18.39144 Y17.46180
G01 X-18.34787 Y17.52700
G01 X-18.23235 Y17.74310
G01 X-18.20236 Y17.81554
G01 X-18.13124 Y18.05003
G01 X-18.11592 Y18.12694
G01 X-18.09192 Y18.37081
G01 X-18.08999 Y18.41000
G01 X-18.08999 Y69.01602
G01 X-18.09192 Y69.05524
G01 X-18.11592 Y69.29911
G01 X-18.13124 Y69.37602
G01 X-18.20236 Y69.61051
G01 X-18.23238 Y69.68295
G01 X-18.34787 Y69.89908
G01 X-18.39146 Y69.96426
G01 X-18.54691 Y70.15369
G01 X-18.57327 Y70.18277
G01 X-19.02217 Y70.63164
G01 X-19.04985 Y70.65935
G01 X-18.57520 Y71.13400
G01 X-16.78900 Y71.13400
G01 X-16.74978 Y71.13593
G01 X-16.65225 Y71.14556
G01 X-16.57534 Y71.16085
G01 X-16.48153 Y71.18930
G01 X-16.43393 Y71.20901
G01 X-16.36398 Y71.20901
G01 X-16.28595 Y71.21670
G01 X-16.21976 Y71.23677
G01 X-16.20869 Y71.24066
G01 X-16.15253 Y71.27065
G01 X-16.13650 Y71.28074
G01 X-16.08905 Y71.31968
G01 X-16.07465 Y71.33408
G01 X-16.03566 Y71.38158
G01 X-16.02570 Y71.39745
G01 X-15.99558 Y71.45379
G01 X-15.99185 Y71.46443
G01 X-15.97168 Y71.53098
G01 X-15.96398 Y71.60901
G01 X-15.96398 Y71.67896
G01 X-15.94427 Y71.72656
G01 X-15.91582 Y71.82036
G01 X-15.90053 Y71.89727
G01 X-15.89091 Y71.99481
G01 X-15.89091 Y72.07322
G01 X-15.90053 Y72.17075
G01 X-15.91582 Y72.24766
G01 X-15.94427 Y72.34147
G01 X-15.96398 Y72.38907
G01 X-15.96398 Y72.45902
G01 X-15.97168 Y72.53705
G01 X-15.99190 Y72.60372
G01 X-15.99555 Y72.61419
G01 X-16.02578 Y72.67073
G01 X-16.03561 Y72.68635
G01 X-16.07478 Y72.73407
G01 X-16.08893 Y72.74822
G01 X-16.13663 Y72.78739
G01 X-16.15227 Y72.79722
G01 X-16.20881 Y72.82745
G01 X-16.21923 Y72.83108
G01 X-16.28595 Y72.85132
G01 X-16.36398 Y72.85902
G01 X-16.43393 Y72.85902
G01 X-16.48153 Y72.87873
G01 X-16.57534 Y72.90718
G01 X-16.65225 Y72.92247
G01 X-16.74978 Y72.93209
G01 X-16.78900 Y72.93402
G01 X-18.94800 Y72.93402
G01 X-18.98719 Y72.93209
G01 X-19.08473 Y72.92247
G01 X-19.16164 Y72.90718
G01 X-19.25544 Y72.87873
G01 X-19.32788 Y72.84873
G01 X-19.41432 Y72.80253
G01 X-19.47952 Y72.75894
G01 X-19.55529 Y72.69676
G01 X-19.58437 Y72.67040
G01 X-20.32265 Y71.93215
G01 X-20.68084 Y72.29031
G01 X-20.73540 Y72.47014
G01 X-20.76540 Y72.54258
G01 X-20.90400 Y72.80192
G01 X-20.94759 Y72.86712
G01 X-21.13413 Y73.09442
G01 X-21.18958 Y73.14987
G01 X-21.41688 Y73.33641
G01 X-21.48208 Y73.38000
G01 X-21.74142 Y73.51860
G01 X-21.81386 Y73.54860
G01 X-22.09524 Y73.63397
G01 X-22.17215 Y73.64926
G01 X-22.46478 Y73.67809
G01 X-22.54319 Y73.67809
G01 X-22.83583 Y73.64926
G01 X-22.91274 Y73.63397
G01 X-23.19412 Y73.54860
G01 X-23.26656 Y73.51860
G01 X-23.52589 Y73.38000
G01 X-23.59109 Y73.33641
G01 X-23.81840 Y73.14987
G01 X-23.87385 Y73.09442
G01 X-24.06038 Y72.86712
G01 X-24.10397 Y72.80192
G01 X-24.24258 Y72.54258
G01 X-24.27258 Y72.47014
G01 X-24.35795 Y72.18876
G01 X-24.37324 Y72.11185
G01 X-24.40207 Y71.81922
G01 X-24.40207 Y71.74081
G01 X-24.37324 Y71.44817
G01 X-24.35795 Y71.37126
G01 X-24.27258 Y71.08988
G01 X-24.24258 Y71.01744
G01 X-24.10397 Y70.75811
G01 X-24.06038 Y70.69291
G01 X-23.87385 Y70.46560
G01 X-23.81840 Y70.41015
G01 X-23.59109 Y70.22361
G01 X-23.52589 Y70.18003
G01 X-23.26656 Y70.04142
G01 X-23.19412 Y70.01142
G01 X-23.01429 Y69.95686
G01 X-22.01972 Y68.96228
G01 X-21.38998 Y68.33256
G01 X-21.38998 Y66.44501
G01 X-26.41999 Y66.44501
G01 X-26.45919 Y66.44308
G01 X-26.70305 Y66.41908
G01 X-26.77996 Y66.40376
G01 X-27.01446 Y66.33264
G01 X-27.08690 Y66.30264
G01 X-27.30300 Y66.18712
G01 X-27.36820 Y66.14356
G01 X-27.55763 Y65.98809
G01 X-27.58672 Y65.96175
G01 X-28.85672 Y64.69175
G01 X-28.88306 Y64.66267
G01 X-29.03853 Y64.47323
G01 X-29.08209 Y64.40803
G01 X-29.19761 Y64.19193
G01 X-29.22761 Y64.11949
G01 X-29.29873 Y63.88499
G01 X-29.31404 Y63.80808
G01 X-29.33805 Y63.56422
G01 X-29.33805 Y63.48581
G01 X-29.31404 Y63.24194
G01 X-29.29873 Y63.16503
G01 X-29.22761 Y62.93054
G01 X-29.19761 Y62.85810
G01 X-29.08209 Y62.64199
G01 X-29.03853 Y62.57679
G01 X-28.88306 Y62.38736
G01 X-28.82763 Y62.33194
G01 X-28.63820 Y62.17646
G01 X-28.57300 Y62.13290
G01 X-28.35690 Y62.01738
G01 X-28.28446 Y61.98739
G01 X-28.26025 Y61.98007
G01 X-28.14453 Y61.99147
G01 X-28.07320 Y61.99503
G01 X-28.02604 Y61.99503
G01 X-27.96348 Y61.99808
G01 X-27.92174 Y62.00219
G01 X-27.86429 Y62.00504
G01 X-27.51565 Y62.00504
G01 X-27.45819 Y62.00219
G01 X-27.41646 Y61.99808
G01 X-27.35390 Y61.99503
G01 X-27.30673 Y61.99503
G01 X-27.23541 Y61.99147
G01 X-27.11964 Y61.98007
G01 X-27.09551 Y61.98739
G01 X-27.02307 Y62.01738
G01 X-26.80696 Y62.13290
G01 X-26.74176 Y62.17646
G01 X-26.63795 Y62.26165
G01 X-26.55233 Y62.33194
G01 X-26.52325 Y62.35828
G01 X-25.73653 Y63.14502
G01 X-21.38998 Y63.14502
G01 X-21.38996 Y61.36392
G01 X-21.37342 Y61.25244
G01 X-21.36605 Y61.17794
G01 X-21.35836 Y61.02112
G01 X-21.35836 Y60.94891
G01 X-21.36605 Y60.79211
G01 X-21.37342 Y60.71761
G01 X-21.38996 Y60.60608
G04 P0 ( dwell for no time -- G64 should not smooth over this point )
G00 Z3.50000 ( retract )

G00 X-21.38996 Y61.36392 ( rapid move to begin. )
G01 F200.00000
( Mill infeed pass 1/1 )
G01 Z-0.20000
G04 P0 ( dwell for no time -- G64 should not smooth over this point )
G01 F400.00000
G01 X-21.38996 Y61.36392
G01 X-21.40311 Y61.40727
G01 X-21.43311 Y61.47972
G01 X-21.50705 Y61.61802
G01 X-21.55061 Y61.68322
G01 X-21.65010 Y61.80445
G01 X-21.70555 Y61.85990
G01 X-21.75419 Y61.89983
G01 X-21.82679 Y61.95939
G01 X-21.89196 Y62.00296
G01 X-22.03029 Y62.07690
G01 X-22.10273 Y62.10689
G01 X-22.25279 Y62.15241
G01 X-22.32971 Y62.16773
G01 X-22.48579 Y62.18309
G01 X-22.56420 Y62.18309
G01 X-22.72026 Y62.16773
G01 X-22.79717 Y62.15241
G01 X-22.94726 Y62.10689
G01 X-23.01970 Y62.07690
G01 X-23.15800 Y62.00296
G01 X-23.22320 Y61.95939
G01 X-23.31383 Y61.88502
G01 X-26.97958 Y61.88502
G01 X-27.01956 Y61.91781
G01 X-27.08476 Y61.96138
G01 X-27.11964 Y61.98007
G04 P0 ( dwell for no time -- G64 should not smooth over this point )
G00 Z3.50000 ( retract )

G00 X-30.77287 Y65.95001 ( rapid move to begin. )
G01 F200.00000
( Mill infeed pass 1/1 )
G01 Z-0.20000
G04 P0 ( dwell for no time -- G64 should not smooth over this point )
G01 F400.00000
G01 X-30.77287 Y65.95001
G01 X-30.77752 Y65.95001
G01 X-30.89316 Y65.73366
G01 X-30.93672 Y65.66846
G01 X-31.11084 Y65.45631
G01 X-31.16629 Y65.40087
G01 X-31.37843 Y65.22675
G01 X-31.44363 Y65.18319
G01 X-31.65996 Y65.06754
G01 X-31.65996 Y65.06292
G01 X-31.50802 Y65.13785
G01 X-31.31186 Y65.26891
G01 X-31.13446 Y65.42451
G01 X-30.97886 Y65.60191
G01 X-30.84780 Y65.79807
G01 X-30.77287 Y65.95001
G04 P0 ( dwell for no time -- G64 should not smooth over this point )
G00 Z3.50000 ( retract )

G00 X-30.77287 Y67.45004 ( rapid move to begin. )
G01 F200.00000
( Mill infeed pass 1/1 )
G01 Z-0.20000
G04 P0 ( dwell for no time -- G64 should not smooth over this point )
G01 F400.00000
G01 X-30.77287 Y67.45004
G01 X-30.77752 Y67.45004
G01 X-30.89316 Y67.66637
G01 X-30.93672 Y67.73157
G01 X-31.11084 Y67.94371
G01 X-31.16629 Y67.99916
G01 X-31.37843 Y68.17328
G01 X-31.44363 Y68.21684
G01 X-31.65996 Y68.33248
G01 X-31.65996 Y68.33713
G01 X-31.50802 Y68.26220
G01 X-31.31186 Y68.13114
G01 X-31.13446 Y67.97554
G01 X-30.97886 Y67.79814
G01 X-30.84780 Y67.60198
G01 X-30.77287 Y67.45004
G04 P0 ( dwell for no time -- G64 should not smooth over this point )
G00 Z3.50000 ( retract )

G00 X-25.68398 Y70.28000 ( rapid move to begin. )
G01 F200.00000
( Mill infeed pass 1/1 )
G01 Z-0.20000
G04 P0 ( dwell for no time -- G64 should not smooth over this point )
G01 F400.00000
G01 X-25.68398 Y70.28000
G01 X-25.68398 Y70.25760
G01 X-25.69155 Y70.19047
G01 X-25.72132 Y70.10538
G01 X-25.76927 Y70.02905
G01 X-25.83300 Y69.96532
G01 X-25.90930 Y69.91737
G01 X-25.99442 Y69.88760
G01 X-26.06155 Y69.88003
G01 X-26.08395 Y69.88003
G01 X-26.00595 Y69.88770
G01 X-25.93092 Y69.91046
G01 X-25.86175 Y69.94742
G01 X-25.80115 Y69.99717
G01 X-25.75139 Y70.05778
G01 X-25.71443 Y70.12694
G01 X-25.69167 Y70.20197
G01 X-25.68398 Y70.28000
G01 X-25.68398 Y71.03001
G04 P0 ( dwell for no time -- G64 should not smooth over this point )
G00 Z3.50000 ( retract )

G00 X-25.68398 Y72.53004 ( rapid move to begin. )
G01 F200.00000
( Mill infeed pass 1/1 )
G01 Z-0.20000
G04 P0 ( dwell for no time -- G64 should not smooth over this point )
G01 F400.00000
G01 X-25.68398 Y72.53004
G01 X-25.68398 Y73.30245
G01 X-25.69155 Y73.36958
G01 X-25.72132 Y73.45467
G01 X-25.76927 Y73.53100
G01 X-25.83300 Y73.59473
G01 X-25.90930 Y73.64268
G01 X-25.99442 Y73.67245
G01 X-26.06155 Y73.68002
G01 X-26.83396 Y73.68002
G04 P0 ( dwell for no time -- G64 should not smooth over this point )
G00 Z3.50000 ( retract )

G00 X-25.68398 Y73.28002 ( rapid move to begin. )
G01 F200.00000
( Mill infeed pass 1/1 )
G01 Z-0.20000
G04 P0 ( dwell for no time -- G64 should not smooth over this point )
G01 F400.00000
G01 X-25.68398 Y73.28002
G01 X-25.69167 Y73.35805
G01 X-25.71443 Y73.43308
G01 X-25.75139 Y73.50225
G01 X-25.80115 Y73.56285
G01 X-25.86175 Y73.61261
G01 X-25.93092 Y73.64957
G01 X-26.00595 Y73.67233
G01 X-26.08398 Y73.68002
G04 P0 ( dwell for no time -- G64 should not smooth over this point )
G00 Z3.50000 ( retract )

G00 X-28.33399 Y73.68002 ( rapid move to begin. )
G01 F200.00000
( Mill infeed pass 1/1 )
G01 Z-0.20000
G04 P0 ( dwell for no time -- G64 should not smooth over this point )
G01 F400.00000
G01 X-28.33399 Y73.68002
G01 X-29.10640 Y73.68002
G01 X-29.17353 Y73.67245
G01 X-29.25862 Y73.64268
G01 X-29.33495 Y73.59473
G01 X-29.39868 Y73.53100
G01 X-29.44663 Y73.45470
G01 X-29.47640 Y73.36958
G01 X-29.48397 Y73.30245
G01 X-29.48397 Y73.28005
G01 X-29.47630 Y73.35805
G01 X-29.45354 Y73.43308
G01 X-29.41658 Y73.50225
G01 X-29.36683 Y73.56285
G01 X-29.30622 Y73.61261
G01 X-29.23706 Y73.64957
G01 X-29.16203 Y73.67233
G01 X-29.08400 Y73.68002
G04 P0 ( dwell for no time -- G64 should not smooth over this point )
G00 Z3.50000 ( retract )

G00 X-29.08402 Y69.88003 ( rapid move to begin. )
G01 F200.00000
( Mill infeed pass 1/1 )
G01 Z-0.20000
G04 P0 ( dwell for no time -- G64 should not smooth over this point )
G01 F400.00000
G01 X-29.08402 Y69.88003
G01 X-29.16203 Y69.88770
G01 X-29.23706 Y69.91046
G01 X-29.30622 Y69.94742
G01 X-29.36670 Y69.99707
G01 X-29.33495 Y69.96532
G01 X-29.25862 Y69.91737
G01 X-29.17353 Y69.88760
G01 X-29.10640 Y69.88003
G01 X-29.08402 Y69.88003
G04 P0 ( dwell for no time -- G64 should not smooth over this point )
G00 Z3.50000 ( retract )

G00 X-29.36693 Y69.99730 ( rapid move to begin. )
G01 F200.00000
( Mill infeed pass 1/1 )
G01 Z-0.20000
G04 P0 ( dwell for no time -- G64 should not smooth over this point )
G01 F400.00000
G01 X-29.36693 Y69.99730
G01 X-29.41658 Y70.05778
G01 X-29.45354 Y70.12694
G01 X-29.47630 Y70.20197
G01 X-29.48397 Y70.27998
G01 X-29.48397 Y70.25760
G01 X-29.47640 Y70.19047
G01 X-29.44663 Y70.10535
G01 X-29.39868 Y70.02905
G01 X-29.36693 Y69.99730
G04 P0 ( dwell for no time -- G64 should not smooth over this point )
G00 Z3.50000 ( retract )

G00 X-31.76799 Y71.00754 ( rapid move to begin. )
G01 F200.00000
( Mill infeed pass 1/1 )
G01 Z-0.20000
G04 P0 ( dwell for no time -- G64 should not smooth over this point )
G01 F400.00000
G01 X-31.76799 Y71.00754
G01 X-31.77553 Y70.94043
G01 X-31.80530 Y70.85539
G01 X-31.85326 Y70.77906
G01 X-31.88511 Y70.74721
G01 X-31.94576 Y70.69743
G01 X-32.01490 Y70.66047
G01 X-32.08996 Y70.63771
G01 X-32.16784 Y70.63004
G01 X-32.14548 Y70.63004
G01 X-32.07838 Y70.63758
G01 X-31.99334 Y70.66735
G01 X-31.91701 Y70.71531
G01 X-31.88511 Y70.74721
G01 X-31.83540 Y70.80779
G01 X-31.79844 Y70.87693
G01 X-31.77569 Y70.95199
G01 X-31.76799 Y71.03001
G01 X-31.76799 Y71.00754
G04 P0 ( dwell for no time -- G64 should not smooth over this point )
G00 Z3.50000 ( retract )

G00 X-31.76799 Y72.53004 ( rapid move to begin. )
G01 F200.00000
( Mill infeed pass 1/1 )
G01 Z-0.20000
G04 P0 ( dwell for no time -- G64 should not smooth over this point )
G01 F400.00000
G01 X-31.76799 Y72.53004
G01 X-31.77569 Y72.60804
G01 X-31.79844 Y72.68310
G01 X-31.83540 Y72.75224
G01 X-31.88513 Y72.81287
G01 X-31.94576 Y72.86260
G01 X-32.01490 Y72.89956
G01 X-32.08996 Y72.92231
G01 X-32.16796 Y72.93001
G01 X-32.14548 Y72.93001
G01 X-32.07838 Y72.92247
G01 X-31.99334 Y72.89270
G01 X-31.91701 Y72.84474
G01 X-31.88513 Y72.81287
G01 X-31.85326 Y72.78099
G01 X-31.80530 Y72.70466
G01 X-31.77553 Y72.61962
G01 X-31.76799 Y72.55252
G01 X-31.76799 Y72.53004
G04 P0 ( dwell for no time -- G64 should not smooth over this point )
G00 Z3.50000 ( retract )

G00 X-33.66799 Y72.93001 ( rapid move to begin. )
G01 F200.00000
( Mill infeed pass 1/1 )
G01 Z-0.20000
G04 P0 ( dwell for no time -- G64 should not smooth over this point )
G01 F400.00000
G01 X-33.66799 Y72.93001
G01 X-33.74601 Y72.92231
G01 X-33.82107 Y72.89956
G01 X-33.89021 Y72.86260
G01 X-33.95079 Y72.81289
G01 X-34.00057 Y72.75224
G01 X-34.03753 Y72.68310
G01 X-34.06029 Y72.60804
G01 X-34.06796 Y72.53016
G01 X-34.06796 Y72.55252
G01 X-34.06042 Y72.61962
G01 X-34.03065 Y72.70466
G01 X-33.98269 Y72.78099
G01 X-33.91894 Y72.84474
G01 X-33.84261 Y72.89270
G01 X-33.75757 Y72.92247
G01 X-33.69046 Y72.93001
G01 X-33.66799 Y72.93001
G04 P0 ( dwell for no time -- G64 should not smooth over this point )
G00 Z3.50000 ( retract )

G00 X-33.95097 Y70.74736 ( rapid move to begin. )
G01 F200.00000
( Mill infeed pass 1/1 )
G01 Z-0.20000
G04 P0 ( dwell for no time -- G64 should not smooth over this point )
G01 F400.00000
G01 X-33.95097 Y70.74736
G01 X-34.00057 Y70.80779
G01 X-34.03753 Y70.87693
G01 X-34.06029 Y70.95199
G01 X-34.06796 Y71.02986
G01 X-34.06796 Y71.00754
G01 X-34.06042 Y70.94043
G01 X-34.03065 Y70.85539
G01 X-33.98269 Y70.77906
G01 X-33.95097 Y70.74736
G04 P0 ( dwell for no time -- G64 should not smooth over this point )
G00 Z3.50000 ( retract )

G00 X-33.66814 Y70.63004 ( rapid move to begin. )
G01 F200.00000
( Mill infeed pass 1/1 )
G01 Z-0.20000
G04 P0 ( dwell for no time -- G64 should not smooth over this point )
G01 F400.00000
G01 X-33.66814 Y70.63004
G01 X-33.74601 Y70.63771
G01 X-33.82107 Y70.66047
G01 X-33.89021 Y70.69743
G01 X-33.95064 Y70.74703
G01 X-33.91894 Y70.71531
G01 X-33.84261 Y70.66735
G01 X-33.75757 Y70.63758
G01 X-33.69046 Y70.63004
G01 X-33.66814 Y70.63004
G04 P0 ( dwell for no time -- G64 should not smooth over this point )
G00 Z3.50000 ( retract )

G00 X-33.15999 Y68.33248 ( rapid move to begin. )
G01 F200.00000
( Mill infeed pass 1/1 )
G01 Z-0.20000
G04 P0 ( dwell for no time -- G64 should not smooth over this point )
G01 F400.00000
G01 X-33.15999 Y68.33248
G01 X-33.37634 Y68.21684
G01 X-33.44154 Y68.17328
G01 X-33.65369 Y67.99916
G01 X-33.70913 Y67.94371
G01 X-33.88325 Y67.73157
G01 X-33.92681 Y67.66637
G01 X-34.04246 Y67.45004
G01 X-34.04708 Y67.45004
G01 X-33.97215 Y67.60198
G01 X-33.84109 Y67.79814
G01 X-33.68549 Y67.97554
G01 X-33.50809 Y68.13114
G01 X-33.31193 Y68.26220
G01 X-33.15999 Y68.33713
G01 X-33.15999 Y68.33248
G04 P0 ( dwell for no time -- G64 should not smooth over this point )
G00 Z3.50000 ( retract )

G00 X-33.15999 Y65.06292 ( rapid move to begin. )
G01 F200.00000
( Mill infeed pass 1/1 )
G01 Z-0.20000
G04 P0 ( dwell for no time -- G64 should not smooth over this point )
G01 F400.00000
G01 X-33.15999 Y65.06292
G01 X-33.31193 Y65.13785
G01 X-33.50809 Y65.26891
G01 X-33.68549 Y65.42451
G01 X-33.84109 Y65.60191
G01 X-33.97215 Y65.79807
G01 X-34.04708 Y65.95001
G01 X-34.04246 Y65.95001
G01 X-33.92681 Y65.73366
G01 X-33.88325 Y65.66846
G01 X-33.70913 Y65.45631
G01 X-33.65369 Y65.40087
G01 X-33.44154 Y65.22675
G01 X-33.37634 Y65.18319
G01 X-33.15999 Y65.06754
G01 X-33.15999 Y65.06292
G04 P0 ( dwell for no time -- G64 should not smooth over this point )
G00 Z3.50000 ( retract )

