( pcb2gcode 2.5.0 )
( Software-independent Gcode )

( This file uses 3 drill bit sizes. )
( Bit sizes: [0.8mm] [1mm] [1.5mm] )

G94       (Millimeters per minute feed rate.)
G21       (Units == Millimeters.)
G90       (Absolute coordinates.)
G00 S20000     (RPM spindle speed.)

G00 Z30.00000 (Retract)
T1
M5      (Spindle stop.)
G04 P1.00000
(MSG, Change tool bit to drill size 0.8mm)
M6      (Tool change.)
M0      (Temporary machine stop.)
M3      (Spindle on clockwise.)
G0 Z3.50000
G04 P1.00000

G81 R3.50000 Z-1.75000 F200.00000 X-96.92600 Y29.87000
X-96.79900 Y39.14100
X-96.79900 Y56.41300
X-74.95500 Y71.78000
X-43.33200 Y71.78000
X-32.91800 Y71.78000
X-27.69000 Y63.52500
X-27.69000 Y60.98500
X-27.69000 Y58.44500
X-23.13900 Y55.65100
X-22.52500 Y60.98500
X-22.52500 Y64.79500
X-16.78900 Y72.03400
X-12.36500 Y64.79500
X-12.36500 Y60.98500
X-12.72500 Y48.03100
X-12.72500 Y44.47500
X-12.72500 Y31.77500
X-12.72500 Y27.96500
X-12.72500 Y15.26500
X-12.72500 Y11.45500
X-22.50400 Y5.86700
X-27.69000 Y8.91500
X-27.69000 Y11.45500
X-27.69000 Y13.99500
X-22.88500 Y11.45500
X-22.88500 Y15.26500
X-23.13900 Y22.25000
X-27.69000 Y25.42500
X-27.69000 Y27.96500
X-27.69000 Y30.50500
X-22.88500 Y27.96500
X-22.88500 Y31.77500
X-23.26600 Y39.01400
X-22.88500 Y44.47500
X-22.88500 Y48.03100
X-27.69000 Y47.01500
X-27.69000 Y44.47500
X-27.69000 Y41.93500
X-96.92600 Y13.10600
G80

G00 Z30.00000 (Retract)
T3
M5      (Spindle stop.)
G04 P1.00000
(MSG, Change tool bit to drill size 1mm)
M6      (Tool change.)
M0      (Temporary machine stop.)
M3      (Spindle on clockwise.)
G0 Z3.50000
G04 P1.00000

G81 R3.50000 Z-1.75000 F200.00000 X-68.30000 Y52.09500
X-59.08000 Y52.09500
X-59.08000 Y35.58500
X-68.30000 Y35.58500
X-68.30000 Y19.07500
X-59.08000 Y19.07500
X-10.18500 Y41.93500
X-10.18500 Y39.39500
X-10.18500 Y36.85500
X-10.18500 Y34.31500
X-3.93500 Y32.87500
X-3.93500 Y36.37500
X-3.93500 Y39.87500
X-3.93500 Y43.37500
G80

G00 Z30.00000 (Retract)
T6
M5      (Spindle stop.)
G04 P1.00000
(MSG, Change tool bit to drill size 1.5mm)
M6      (Tool change.)
M0      (Temporary machine stop.)
M3      (Spindle on clockwise.)
G0 Z3.50000
G04 P1.00000

G81 R3.50000 Z-1.75000 F200.00000 X-89.56000 Y60.98500
X-83.84500 Y66.06500
X-96.54500 Y50.19000
X-96.54500 Y45.11000
X-89.56000 Y40.66500
X-89.56000 Y35.58500
X-96.54500 Y24.15500
X-96.54500 Y19.07500
X-89.56000 Y15.26500
X-83.84500 Y10.18500
X-78.13000 Y15.26500
X-83.84500 Y30.50500
X-78.13000 Y35.58500
X-72.41500 Y30.50500
X-64.10000 Y31.02000
X-64.10000 Y23.52000
X-59.06000 Y23.52000
X-54.02000 Y23.52000
X-54.02000 Y31.02000
X-59.06000 Y31.02000
X-64.09800 Y40.03000
X-59.05800 Y40.03000
X-54.01800 Y40.03000
X-54.01800 Y47.53000
X-59.05800 Y47.53000
X-64.09800 Y47.53000
X-72.41500 Y45.74500
X-78.13000 Y40.66500
X-83.84500 Y45.74500
X-78.13000 Y60.98500
X-72.41500 Y66.06500
X-69.24000 Y71.78000
X-64.16000 Y71.78000
X-64.10000 Y64.04000
X-64.10000 Y56.54000
X-59.06000 Y56.54000
X-54.02000 Y56.54000
X-54.02000 Y64.04000
X-59.06000 Y64.04000
X-54.00000 Y71.78000
X-48.92000 Y71.78000
X-38.76000 Y64.04000
X-32.41000 Y66.70000
X-27.58400 Y71.78000
X-22.50400 Y71.78000
X-38.76000 Y56.54000
X-32.41000 Y54.00000
X-32.41000 Y50.19000
X-38.75800 Y47.53000
X-38.75800 Y40.03000
X-32.41000 Y37.49000
X-32.41000 Y33.68000
X-38.76000 Y31.02000
X-38.76000 Y23.52000
X-32.41000 Y20.98000
X-32.41000 Y17.17000
X-38.75800 Y14.51000
X-32.41000 Y4.47000
X-38.75800 Y7.01000
X-54.01800 Y14.51000
X-59.05800 Y14.51000
X-64.09800 Y14.51000
X-72.41500 Y10.18500
X-64.09800 Y7.01000
X-59.05800 Y7.01000
X-54.01800 Y7.01000
G80

G00 Z30.000 ( All done -- retract )

M5      (Spindle off.)
G04 P1.000000
M9      (Coolant off.)
M2      (Program end.)

