( pcb2gcode 2.5.0 )
( Software-independent Gcode )

G94 ( Millimeters per minute feed rate. )
G21 ( Units == Millimeters. )

G90 ( Absolute coordinates. )
G00 S20000 ( RPM spindle speed. )
G64 P0.05000 ( set maximum deviation from commanded toolpath )
G01 F400.00000 ( Feedrate. )


G00 Z30.00000 (Retract to tool change height)
T1
M5      (Spindle stop.)
G04 P1.00000 (Wait for spindle to stop)
(MSG, Change tool bit to mill diameter 0.80000mm)
M6      (Tool change.)
M0      (Temporary machine stop.)
M3 ( Spindle on clockwise. )
G04 P1.00000 (Wait for spindle to get up to speed)
G04 P0 ( dwell for no time -- G64 should not smooth over this point )
G00 Z3.50000 ( retract )

G00 X2.33498 Y42.17500 ( rapid move to begin. )
G01 F200.00000
( Mill infeed pass 1/1 )
G01 Z-0.20000
G04 P0 ( dwell for no time -- G64 should not smooth over this point )
G01 F400.00000
G01 X2.33498 Y42.17500
G01 X2.33498 Y44.57503
G01 X2.34267 Y44.65305
G01 X2.36543 Y44.72809
G01 X2.40239 Y44.79725
G01 X2.45215 Y44.85785
G01 X2.51275 Y44.90761
G01 X2.58192 Y44.94457
G01 X2.65695 Y44.96733
G01 X2.73498 Y44.97502
G01 X5.13500 Y44.97502
G01 X5.21303 Y44.96733
G01 X5.28806 Y44.94457
G01 X5.35722 Y44.90761
G01 X5.41783 Y44.85785
G01 X5.46759 Y44.79725
G01 X5.50454 Y44.72809
G01 X5.52730 Y44.65305
G01 X5.53500 Y44.57503
G01 X5.53500 Y42.17500
G01 X5.52730 Y42.09698
G01 X5.50454 Y42.02194
G01 X5.46759 Y41.95278
G01 X5.41783 Y41.89218
G01 X5.35722 Y41.84242
G01 X5.28806 Y41.80546
G01 X5.21303 Y41.78270
G01 X5.13500 Y41.77501
G01 X2.73498 Y41.77501
G01 X2.65695 Y41.78270
G01 X2.58192 Y41.80546
G01 X2.51275 Y41.84242
G01 X2.45215 Y41.89218
G01 X2.40239 Y41.95278
G01 X2.36543 Y42.02194
G01 X2.34267 Y42.09698
G01 X2.33498 Y42.17500
G04 P0 ( dwell for no time -- G64 should not smooth over this point )
G00 Z3.50000 ( retract )

G00 X2.33691 Y39.83582 ( rapid move to begin. )
G01 F200.00000
( Mill infeed pass 1/1 )
G01 Z-0.20000
G04 P0 ( dwell for no time -- G64 should not smooth over this point )
G01 F400.00000
G01 X2.33691 Y39.83582
G01 X2.33691 Y39.91423
G01 X2.35997 Y40.14834
G01 X2.37526 Y40.22522
G01 X2.44356 Y40.45034
G01 X2.47356 Y40.52279
G01 X2.58446 Y40.73025
G01 X2.62802 Y40.79545
G01 X2.77724 Y40.97729
G01 X2.83269 Y41.03274
G01 X3.01455 Y41.18199
G01 X3.07976 Y41.22555
G01 X3.28720 Y41.33645
G01 X3.35966 Y41.36645
G01 X3.58476 Y41.43472
G01 X3.66167 Y41.45004
G01 X3.89578 Y41.47308
G01 X3.97419 Y41.47308
G01 X4.20830 Y41.45004
G01 X4.28522 Y41.43472
G01 X4.51031 Y41.36645
G01 X4.58278 Y41.33645
G01 X4.79022 Y41.22555
G01 X4.85542 Y41.18199
G01 X5.03728 Y41.03274
G01 X5.09273 Y40.97729
G01 X5.24196 Y40.79545
G01 X5.28552 Y40.73025
G01 X5.39641 Y40.52279
G01 X5.42641 Y40.45034
G01 X5.49471 Y40.22522
G01 X5.51000 Y40.14834
G01 X5.53307 Y39.91423
G01 X5.53307 Y39.83582
G01 X5.51000 Y39.60171
G01 X5.49471 Y39.52479
G01 X5.42641 Y39.29967
G01 X5.39641 Y39.22723
G01 X5.28552 Y39.01977
G01 X5.24196 Y38.95456
G01 X5.09273 Y38.77273
G01 X5.03728 Y38.71728
G01 X4.85542 Y38.56805
G01 X4.79022 Y38.52449
G01 X4.58278 Y38.41359
G01 X4.51031 Y38.38357
G01 X4.28522 Y38.31530
G01 X4.20830 Y38.30001
G01 X3.97419 Y38.27694
G01 X3.89578 Y38.27694
G01 X3.66167 Y38.30001
G01 X3.58476 Y38.31530
G01 X3.35966 Y38.38357
G01 X3.28720 Y38.41359
G01 X3.07976 Y38.52449
G01 X3.01455 Y38.56805
G01 X2.83269 Y38.71728
G01 X2.77724 Y38.77273
G01 X2.62802 Y38.95456
G01 X2.58446 Y39.01977
G01 X2.47356 Y39.22723
G01 X2.44356 Y39.29967
G01 X2.37526 Y39.52479
G01 X2.35997 Y39.60171
G01 X2.33691 Y39.83582
G04 P0 ( dwell for no time -- G64 should not smooth over this point )
G00 Z3.50000 ( retract )

G00 X2.33691 Y36.33580 ( rapid move to begin. )
G01 F200.00000
( Mill infeed pass 1/1 )
G01 Z-0.20000
G04 P0 ( dwell for no time -- G64 should not smooth over this point )
G01 F400.00000
G01 X2.33691 Y36.33580
G01 X2.33691 Y36.41421
G01 X2.35997 Y36.64832
G01 X2.37526 Y36.72523
G01 X2.44356 Y36.95035
G01 X2.47356 Y37.02279
G01 X2.58446 Y37.23026
G01 X2.62802 Y37.29546
G01 X2.77724 Y37.47730
G01 X2.83269 Y37.53275
G01 X3.01455 Y37.68197
G01 X3.07976 Y37.72553
G01 X3.28720 Y37.83643
G01 X3.35966 Y37.86645
G01 X3.58476 Y37.93473
G01 X3.66167 Y37.95002
G01 X3.89578 Y37.97308
G01 X3.97419 Y37.97308
G01 X4.20830 Y37.95002
G01 X4.28522 Y37.93473
G01 X4.31719 Y37.92503
G01 X4.51031 Y37.86645
G01 X4.58278 Y37.83643
G01 X4.79022 Y37.72553
G01 X4.85542 Y37.68197
G01 X5.03728 Y37.53275
G01 X5.09273 Y37.47730
G01 X5.24196 Y37.29546
G01 X5.28552 Y37.23026
G01 X5.39641 Y37.02279
G01 X5.42641 Y36.95035
G01 X5.49471 Y36.72523
G01 X5.51000 Y36.64832
G01 X5.53307 Y36.41421
G01 X5.53307 Y36.33580
G01 X5.51000 Y36.10169
G01 X5.49471 Y36.02480
G01 X5.42641 Y35.79968
G01 X5.39641 Y35.72724
G01 X5.28552 Y35.51977
G01 X5.24196 Y35.45457
G01 X5.09273 Y35.27273
G01 X5.03728 Y35.21728
G01 X4.85542 Y35.06803
G01 X4.79022 Y35.02447
G01 X4.58278 Y34.91358
G01 X4.51031 Y34.88358
G01 X4.28522 Y34.81530
G01 X4.20830 Y34.79999
G01 X3.97419 Y34.77695
G01 X3.89578 Y34.77695
G01 X3.66167 Y34.79999
G01 X3.58476 Y34.81530
G01 X3.55265 Y34.82503
G01 X3.35966 Y34.88358
G01 X3.28720 Y34.91358
G01 X3.07976 Y35.02447
G01 X3.01455 Y35.06803
G01 X2.83269 Y35.21728
G01 X2.77724 Y35.27273
G01 X2.62802 Y35.45457
G01 X2.58446 Y35.51977
G01 X2.47356 Y35.72724
G01 X2.44356 Y35.79968
G01 X2.37526 Y36.02480
G01 X2.35997 Y36.10169
G01 X2.33691 Y36.33580
G04 P0 ( dwell for no time -- G64 should not smooth over this point )
G00 Z3.50000 ( retract )

G00 X2.33691 Y32.83581 ( rapid move to begin. )
G01 F200.00000
( Mill infeed pass 1/1 )
G01 Z-0.20000
G04 P0 ( dwell for no time -- G64 should not smooth over this point )
G01 F400.00000
G01 X2.33691 Y32.83581
G01 X2.33691 Y32.91422
G01 X2.35997 Y33.14833
G01 X2.37526 Y33.22524
G01 X2.44356 Y33.45036
G01 X2.47356 Y33.52280
G01 X2.58446 Y33.73027
G01 X2.62802 Y33.79544
G01 X2.77724 Y33.97731
G01 X2.83269 Y34.03276
G01 X3.01455 Y34.18198
G01 X3.07976 Y34.22554
G01 X3.28720 Y34.33644
G01 X3.35966 Y34.36643
G01 X3.58476 Y34.43474
G01 X3.66167 Y34.45003
G01 X3.89578 Y34.47309
G01 X3.97419 Y34.47309
G01 X4.20830 Y34.45003
G01 X4.28522 Y34.43474
G01 X4.51031 Y34.36643
G01 X4.58278 Y34.33644
G01 X4.79022 Y34.22554
G01 X4.85542 Y34.18198
G01 X5.03728 Y34.03276
G01 X5.09273 Y33.97731
G01 X5.24196 Y33.79544
G01 X5.28552 Y33.73027
G01 X5.39641 Y33.52280
G01 X5.42641 Y33.45036
G01 X5.49471 Y33.22524
G01 X5.51000 Y33.14833
G01 X5.53307 Y32.91422
G01 X5.53307 Y32.83581
G01 X5.51000 Y32.60169
G01 X5.49471 Y32.52478
G01 X5.42641 Y32.29969
G01 X5.39641 Y32.22722
G01 X5.28552 Y32.01978
G01 X5.24196 Y31.95458
G01 X5.09273 Y31.77274
G01 X5.03728 Y31.71729
G01 X4.85542 Y31.56804
G01 X4.79022 Y31.52448
G01 X4.58278 Y31.41358
G01 X4.51031 Y31.38359
G01 X4.28522 Y31.31529
G01 X4.20830 Y31.29999
G01 X3.97419 Y31.27693
G01 X3.89578 Y31.27693
G01 X3.66167 Y31.29999
G01 X3.58476 Y31.31529
G01 X3.35966 Y31.38359
G01 X3.28720 Y31.41358
G01 X3.07976 Y31.52448
G01 X3.01455 Y31.56804
G01 X2.83269 Y31.71729
G01 X2.77724 Y31.77274
G01 X2.62802 Y31.95458
G01 X2.58446 Y32.01978
G01 X2.47356 Y32.22722
G01 X2.44356 Y32.29969
G01 X2.37526 Y32.52478
G01 X2.35997 Y32.60169
G01 X2.33691 Y32.83581
G04 P0 ( dwell for no time -- G64 should not smooth over this point )
G00 Z3.50000 ( retract )

G00 X11.52691 Y27.92581 ( rapid move to begin. )
G01 F200.00000
( Mill infeed pass 1/1 )
G01 Z-0.20000
G04 P0 ( dwell for no time -- G64 should not smooth over this point )
G01 F400.00000
G01 X11.52691 Y27.92581
G01 X11.54227 Y27.76972
G01 X11.55759 Y27.69284
G01 X11.60311 Y27.54275
G01 X11.63310 Y27.47031
G01 X11.70704 Y27.33201
G01 X11.75061 Y27.26680
G01 X11.85010 Y27.14557
G01 X11.90555 Y27.09012
G01 X12.02678 Y26.99063
G01 X12.09198 Y26.94707
G01 X12.23028 Y26.87313
G01 X12.30273 Y26.84313
G01 X12.45281 Y26.79762
G01 X12.52970 Y26.78230
G01 X12.68578 Y26.76693
G01 X12.76419 Y26.76693
G01 X12.92028 Y26.78230
G01 X12.99716 Y26.79762
G01 X13.14725 Y26.84313
G01 X13.21969 Y26.87313
G01 X13.35799 Y26.94707
G01 X13.42320 Y26.99063
G01 X13.54443 Y27.09012
G01 X13.59988 Y27.14557
G01 X13.69937 Y27.26680
G01 X13.74293 Y27.33201
G01 X13.81687 Y27.47031
G01 X13.84687 Y27.54275
G01 X13.89238 Y27.69284
G01 X13.90770 Y27.76972
G01 X13.92307 Y27.92581
G01 X13.92307 Y28.00422
G01 X13.90770 Y28.16030
G01 X13.89238 Y28.23719
G01 X13.84687 Y28.38727
G01 X13.81687 Y28.45972
G01 X13.74293 Y28.59802
G01 X13.69937 Y28.66322
G01 X13.59988 Y28.78445
G01 X13.54443 Y28.83990
G01 X13.42320 Y28.93939
G01 X13.35799 Y28.98296
G01 X13.21969 Y29.05690
G01 X13.14725 Y29.08689
G01 X12.99716 Y29.13241
G01 X12.92028 Y29.14773
G01 X12.76419 Y29.16309
G01 X12.68578 Y29.16309
G01 X12.52970 Y29.14773
G01 X12.45281 Y29.13241
G01 X12.30273 Y29.08689
G01 X12.23028 Y29.05690
G01 X12.09198 Y28.98296
G01 X12.02678 Y28.93939
G01 X11.90555 Y28.83990
G01 X11.85010 Y28.78445
G01 X11.75061 Y28.66322
G01 X11.70704 Y28.59802
G01 X11.63310 Y28.45972
G01 X11.60311 Y28.38727
G01 X11.55759 Y28.23719
G01 X11.54227 Y28.16030
G01 X11.52691 Y28.00422
G01 X11.52691 Y27.92581
G04 P0 ( dwell for no time -- G64 should not smooth over this point )
G00 Z3.50000 ( retract )

G00 X11.52691 Y31.73581 ( rapid move to begin. )
G01 F200.00000
( Mill infeed pass 1/1 )
G01 Z-0.20000
G04 P0 ( dwell for no time -- G64 should not smooth over this point )
G01 F400.00000
G01 X11.52691 Y31.73581
G01 X11.54227 Y31.57972
G01 X11.55759 Y31.50284
G01 X11.60311 Y31.35275
G01 X11.63310 Y31.28031
G01 X11.70704 Y31.14201
G01 X11.75061 Y31.07680
G01 X11.85010 Y30.95557
G01 X11.90555 Y30.90012
G01 X12.02678 Y30.80063
G01 X12.09198 Y30.75707
G01 X12.23028 Y30.68313
G01 X12.30273 Y30.65313
G01 X12.45281 Y30.60762
G01 X12.52970 Y30.59230
G01 X12.68578 Y30.57693
G01 X12.76419 Y30.57693
G01 X12.92028 Y30.59230
G01 X12.99716 Y30.60762
G01 X13.14725 Y30.65313
G01 X13.21969 Y30.68313
G01 X13.35799 Y30.75707
G01 X13.42320 Y30.80063
G01 X13.54443 Y30.90012
G01 X13.59988 Y30.95557
G01 X13.69937 Y31.07680
G01 X13.74293 Y31.14201
G01 X13.81687 Y31.28031
G01 X13.84687 Y31.35275
G01 X13.89238 Y31.50284
G01 X13.90770 Y31.57972
G01 X13.92307 Y31.73581
G01 X13.92307 Y31.81422
G01 X13.90770 Y31.97030
G01 X13.89238 Y32.04719
G01 X13.84687 Y32.19727
G01 X13.81687 Y32.26972
G01 X13.74293 Y32.40802
G01 X13.69937 Y32.47322
G01 X13.59988 Y32.59445
G01 X13.54443 Y32.64990
G01 X13.42320 Y32.74939
G01 X13.35799 Y32.79296
G01 X13.21969 Y32.86690
G01 X13.14725 Y32.89689
G01 X12.99716 Y32.94241
G01 X12.92028 Y32.95773
G01 X12.76419 Y32.97309
G01 X12.68578 Y32.97309
G01 X12.52970 Y32.95773
G01 X12.45281 Y32.94241
G01 X12.30273 Y32.89689
G01 X12.23028 Y32.86690
G01 X12.09198 Y32.79296
G01 X12.02678 Y32.74939
G01 X11.90555 Y32.64990
G01 X11.85010 Y32.59445
G01 X11.75061 Y32.47322
G01 X11.70704 Y32.40802
G01 X11.63310 Y32.26972
G01 X11.60311 Y32.19727
G01 X11.55759 Y32.04719
G01 X11.54227 Y31.97030
G01 X11.52691 Y31.81422
G01 X11.52691 Y31.73581
G04 P0 ( dwell for no time -- G64 should not smooth over this point )
G00 Z3.50000 ( retract )

G00 X8.93499 Y33.46501 ( rapid move to begin. )
G01 F200.00000
( Mill infeed pass 1/1 )
G01 Z-0.20000
G04 P0 ( dwell for no time -- G64 should not smooth over this point )
G01 F400.00000
G01 X8.93499 Y33.46501
G01 X8.94266 Y33.38699
G01 X8.96544 Y33.31193
G01 X9.00240 Y33.24279
G01 X9.05213 Y33.18216
G01 X9.11276 Y33.13243
G01 X9.18190 Y33.09547
G01 X9.25696 Y33.07269
G01 X9.33499 Y33.06502
G01 X11.03499 Y33.06502
G01 X11.11301 Y33.07269
G01 X11.18807 Y33.09547
G01 X11.25721 Y33.13243
G01 X11.31784 Y33.18216
G01 X11.36757 Y33.24279
G01 X11.40453 Y33.31193
G01 X11.42731 Y33.38699
G01 X11.43498 Y33.46501
G01 X11.43498 Y35.16501
G01 X11.42731 Y35.24304
G01 X11.40453 Y35.31810
G01 X11.36757 Y35.38724
G01 X11.31784 Y35.44787
G01 X11.25721 Y35.49760
G01 X11.18807 Y35.53456
G01 X11.11301 Y35.55734
G01 X11.03499 Y35.56501
G01 X9.33499 Y35.56501
G01 X9.25696 Y35.55734
G01 X9.18190 Y35.53456
G01 X9.11276 Y35.49760
G01 X9.05213 Y35.44787
G01 X9.00240 Y35.38724
G01 X8.96544 Y35.31810
G01 X8.94266 Y35.24304
G01 X8.93499 Y35.16501
G01 X8.93499 Y33.46501
G04 P0 ( dwell for no time -- G64 should not smooth over this point )
G00 Z3.50000 ( retract )

G00 X8.93692 Y36.81581 ( rapid move to begin. )
G01 F200.00000
( Mill infeed pass 1/1 )
G01 Z-0.20000
G04 P0 ( dwell for no time -- G64 should not smooth over this point )
G01 F400.00000
G01 X8.93692 Y36.81581
G01 X8.93692 Y36.89422
G01 X8.95325 Y37.06005
G01 X8.96854 Y37.13697
G01 X9.01690 Y37.29640
G01 X9.04693 Y37.36884
G01 X9.12546 Y37.51581
G01 X9.16903 Y37.58101
G01 X9.27474 Y37.70981
G01 X9.33019 Y37.76526
G01 X9.45899 Y37.87097
G01 X9.52419 Y37.91454
G01 X9.67116 Y37.99307
G01 X9.74360 Y38.02310
G01 X9.90303 Y38.07146
G01 X9.97995 Y38.08675
G01 X10.14578 Y38.10308
G01 X10.22419 Y38.10308
G01 X10.39003 Y38.08675
G01 X10.46694 Y38.07146
G01 X10.62638 Y38.02310
G01 X10.69882 Y37.99307
G01 X10.84578 Y37.91454
G01 X10.91098 Y37.87097
G01 X11.03979 Y37.76526
G01 X11.09523 Y37.70981
G01 X11.20095 Y37.58101
G01 X11.24451 Y37.51581
G01 X11.32305 Y37.36884
G01 X11.35307 Y37.29640
G01 X11.40143 Y37.13697
G01 X11.41672 Y37.06005
G01 X11.43305 Y36.89422
G01 X11.43305 Y36.81581
G01 X11.41672 Y36.64997
G01 X11.40143 Y36.57306
G01 X11.35307 Y36.41362
G01 X11.32305 Y36.34118
G01 X11.24451 Y36.19422
G01 X11.20095 Y36.12902
G01 X11.09523 Y36.00021
G01 X11.03979 Y35.94477
G01 X10.91098 Y35.83905
G01 X10.84578 Y35.79549
G01 X10.69882 Y35.71695
G01 X10.62638 Y35.68693
G01 X10.46694 Y35.63857
G01 X10.39003 Y35.62328
G01 X10.22419 Y35.60695
G01 X10.14578 Y35.60695
G01 X9.97995 Y35.62328
G01 X9.90303 Y35.63857
G01 X9.74360 Y35.68693
G01 X9.67116 Y35.71695
G01 X9.52419 Y35.79549
G01 X9.45899 Y35.83905
G01 X9.33019 Y35.94477
G01 X9.27474 Y36.00021
G01 X9.16903 Y36.12902
G01 X9.12546 Y36.19422
G01 X9.04693 Y36.34118
G01 X9.01690 Y36.41362
G01 X8.96854 Y36.57306
G01 X8.95325 Y36.64997
G01 X8.93692 Y36.81581
G04 P0 ( dwell for no time -- G64 should not smooth over this point )
G00 Z3.50000 ( retract )

G00 X8.93692 Y39.35581 ( rapid move to begin. )
G01 F200.00000
( Mill infeed pass 1/1 )
G01 Z-0.20000
G04 P0 ( dwell for no time -- G64 should not smooth over this point )
G01 F400.00000
G01 X8.93692 Y39.35581
G01 X8.93692 Y39.43422
G01 X8.95325 Y39.60005
G01 X8.96854 Y39.67697
G01 X9.01690 Y39.83640
G01 X9.04693 Y39.90884
G01 X9.12546 Y40.05581
G01 X9.16903 Y40.12101
G01 X9.27474 Y40.24981
G01 X9.33019 Y40.30526
G01 X9.45899 Y40.41097
G01 X9.52419 Y40.45454
G01 X9.67116 Y40.53307
G01 X9.74360 Y40.56310
G01 X9.90303 Y40.61146
G01 X9.97995 Y40.62675
G01 X10.14578 Y40.64308
G01 X10.22419 Y40.64308
G01 X10.39003 Y40.62675
G01 X10.46694 Y40.61146
G01 X10.62638 Y40.56310
G01 X10.69882 Y40.53307
G01 X10.84578 Y40.45454
G01 X10.91098 Y40.41097
G01 X11.03979 Y40.30526
G01 X11.09523 Y40.24981
G01 X11.20095 Y40.12101
G01 X11.24451 Y40.05581
G01 X11.32305 Y39.90884
G01 X11.35307 Y39.83640
G01 X11.40143 Y39.67697
G01 X11.41672 Y39.60005
G01 X11.43305 Y39.43422
G01 X11.43305 Y39.35581
G01 X11.41672 Y39.18997
G01 X11.40143 Y39.11306
G01 X11.35307 Y38.95362
G01 X11.32305 Y38.88118
G01 X11.24451 Y38.73422
G01 X11.20095 Y38.66902
G01 X11.09523 Y38.54021
G01 X11.03979 Y38.48477
G01 X10.91098 Y38.37905
G01 X10.84578 Y38.33549
G01 X10.69882 Y38.25695
G01 X10.62638 Y38.22693
G01 X10.46694 Y38.17857
G01 X10.39003 Y38.16328
G01 X10.22419 Y38.14695
G01 X10.14578 Y38.14695
G01 X9.97995 Y38.16328
G01 X9.90303 Y38.17857
G01 X9.74360 Y38.22693
G01 X9.67116 Y38.25695
G01 X9.52419 Y38.33549
G01 X9.45899 Y38.37905
G01 X9.33019 Y38.48477
G01 X9.27474 Y38.54021
G01 X9.16903 Y38.66902
G01 X9.12546 Y38.73422
G01 X9.04693 Y38.88118
G01 X9.01690 Y38.95362
G01 X8.96854 Y39.11306
G01 X8.95325 Y39.18997
G01 X8.93692 Y39.35581
G04 P0 ( dwell for no time -- G64 should not smooth over this point )
G00 Z3.50000 ( retract )

G00 X8.93692 Y41.89581 ( rapid move to begin. )
G01 F200.00000
( Mill infeed pass 1/1 )
G01 Z-0.20000
G04 P0 ( dwell for no time -- G64 should not smooth over this point )
G01 F400.00000
G01 X8.93692 Y41.89581
G01 X8.93692 Y41.97422
G01 X8.95325 Y42.14005
G01 X8.96854 Y42.21697
G01 X9.01690 Y42.37640
G01 X9.04693 Y42.44884
G01 X9.12546 Y42.59581
G01 X9.16903 Y42.66101
G01 X9.27474 Y42.78981
G01 X9.33019 Y42.84526
G01 X9.45899 Y42.95097
G01 X9.52419 Y42.99454
G01 X9.67116 Y43.07307
G01 X9.74360 Y43.10310
G01 X9.90303 Y43.15146
G01 X9.97995 Y43.16675
G01 X10.14578 Y43.18308
G01 X10.22419 Y43.18308
G01 X10.39003 Y43.16675
G01 X10.46694 Y43.15146
G01 X10.62638 Y43.10310
G01 X10.69882 Y43.07307
G01 X10.84578 Y42.99454
G01 X10.91098 Y42.95097
G01 X11.03979 Y42.84526
G01 X11.09523 Y42.78981
G01 X11.20095 Y42.66101
G01 X11.24451 Y42.59581
G01 X11.32305 Y42.44884
G01 X11.35307 Y42.37640
G01 X11.40143 Y42.21697
G01 X11.41672 Y42.14005
G01 X11.43305 Y41.97422
G01 X11.43305 Y41.89581
G01 X11.41672 Y41.72997
G01 X11.40143 Y41.65306
G01 X11.35307 Y41.49362
G01 X11.32305 Y41.42118
G01 X11.24451 Y41.27422
G01 X11.20095 Y41.20902
G01 X11.09523 Y41.08021
G01 X11.03979 Y41.02477
G01 X10.91098 Y40.91905
G01 X10.84578 Y40.87549
G01 X10.69882 Y40.79695
G01 X10.62638 Y40.76693
G01 X10.46694 Y40.71857
G01 X10.39003 Y40.70328
G01 X10.22419 Y40.68695
G01 X10.14578 Y40.68695
G01 X9.97995 Y40.70328
G01 X9.90303 Y40.71857
G01 X9.74360 Y40.76693
G01 X9.67116 Y40.79695
G01 X9.52419 Y40.87549
G01 X9.45899 Y40.91905
G01 X9.33019 Y41.02477
G01 X9.27474 Y41.08021
G01 X9.16903 Y41.20902
G01 X9.12546 Y41.27422
G01 X9.04693 Y41.42118
G01 X9.01690 Y41.49362
G01 X8.96854 Y41.65306
G01 X8.95325 Y41.72997
G01 X8.93692 Y41.89581
G04 P0 ( dwell for no time -- G64 should not smooth over this point )
G00 Z3.50000 ( retract )

G00 X11.52691 Y44.43581 ( rapid move to begin. )
G01 F200.00000
( Mill infeed pass 1/1 )
G01 Z-0.20000
G04 P0 ( dwell for no time -- G64 should not smooth over this point )
G01 F400.00000
G01 X11.52691 Y44.43581
G01 X11.52691 Y44.51422
G01 X11.54227 Y44.67030
G01 X11.55759 Y44.74719
G01 X11.60311 Y44.89727
G01 X11.63310 Y44.96972
G01 X11.70704 Y45.10802
G01 X11.75061 Y45.17322
G01 X11.85010 Y45.29445
G01 X11.90555 Y45.34990
G01 X12.02678 Y45.44939
G01 X12.09198 Y45.49296
G01 X12.23028 Y45.56690
G01 X12.30273 Y45.59689
G01 X12.45281 Y45.64241
G01 X12.52970 Y45.65773
G01 X12.68578 Y45.67309
G01 X12.76419 Y45.67309
G01 X12.92028 Y45.65773
G01 X12.99716 Y45.64241
G01 X13.14725 Y45.59689
G01 X13.21969 Y45.56690
G01 X13.35799 Y45.49296
G01 X13.42320 Y45.44939
G01 X13.54443 Y45.34990
G01 X13.59988 Y45.29445
G01 X13.69937 Y45.17322
G01 X13.74293 Y45.10802
G01 X13.81687 Y44.96972
G01 X13.84687 Y44.89727
G01 X13.89238 Y44.74719
G01 X13.90770 Y44.67030
G01 X13.92307 Y44.51422
G01 X13.92307 Y44.43581
G01 X13.90770 Y44.27972
G01 X13.89238 Y44.20284
G01 X13.84687 Y44.05275
G01 X13.81687 Y43.98031
G01 X13.74293 Y43.84201
G01 X13.69937 Y43.77680
G01 X13.59988 Y43.65557
G01 X13.54443 Y43.60012
G01 X13.42320 Y43.50063
G01 X13.35799 Y43.45707
G01 X13.21969 Y43.38313
G01 X13.14725 Y43.35313
G01 X12.99716 Y43.30762
G01 X12.92028 Y43.29230
G01 X12.76419 Y43.27693
G01 X12.68578 Y43.27693
G01 X12.52970 Y43.29230
G01 X12.45281 Y43.30762
G01 X12.30273 Y43.35313
G01 X12.23028 Y43.38313
G01 X12.09198 Y43.45707
G01 X12.02678 Y43.50063
G01 X11.90555 Y43.60012
G01 X11.85010 Y43.65557
G01 X11.75061 Y43.77680
G01 X11.70704 Y43.84201
G01 X11.63310 Y43.98031
G01 X11.60311 Y44.05275
G01 X11.55759 Y44.20284
G01 X11.54227 Y44.27972
G01 X11.52691 Y44.43581
G04 P0 ( dwell for no time -- G64 should not smooth over this point )
G00 Z3.50000 ( retract )

G00 X11.52691 Y47.99181 ( rapid move to begin. )
G01 F200.00000
( Mill infeed pass 1/1 )
G01 Z-0.20000
G04 P0 ( dwell for no time -- G64 should not smooth over this point )
G01 F400.00000
G01 X11.52691 Y47.99181
G01 X11.52691 Y48.07022
G01 X11.54227 Y48.22630
G01 X11.55759 Y48.30319
G01 X11.60311 Y48.45327
G01 X11.63310 Y48.52572
G01 X11.70704 Y48.66402
G01 X11.75061 Y48.72922
G01 X11.85010 Y48.85045
G01 X11.90555 Y48.90590
G01 X12.02678 Y49.00539
G01 X12.09198 Y49.04896
G01 X12.23028 Y49.12290
G01 X12.30273 Y49.15289
G01 X12.45281 Y49.19841
G01 X12.52970 Y49.21373
G01 X12.68578 Y49.22909
G01 X12.76419 Y49.22909
G01 X12.92028 Y49.21373
G01 X12.99716 Y49.19841
G01 X13.14725 Y49.15289
G01 X13.21969 Y49.12290
G01 X13.35799 Y49.04896
G01 X13.42320 Y49.00539
G01 X13.54443 Y48.90590
G01 X13.59988 Y48.85045
G01 X13.69937 Y48.72922
G01 X13.74293 Y48.66402
G01 X13.81687 Y48.52572
G01 X13.84687 Y48.45327
G01 X13.89238 Y48.30319
G01 X13.90770 Y48.22630
G01 X13.92307 Y48.07022
G01 X13.92307 Y47.99181
G01 X13.90770 Y47.83572
G01 X13.89238 Y47.75884
G01 X13.84687 Y47.60875
G01 X13.81687 Y47.53631
G01 X13.74293 Y47.39801
G01 X13.69937 Y47.33280
G01 X13.59988 Y47.21157
G01 X13.54443 Y47.15612
G01 X13.42320 Y47.05663
G01 X13.35799 Y47.01307
G01 X13.21969 Y46.93913
G01 X13.14725 Y46.90913
G01 X12.99716 Y46.86362
G01 X12.92028 Y46.84830
G01 X12.76419 Y46.83293
G01 X12.68578 Y46.83293
G01 X12.52970 Y46.84830
G01 X12.45281 Y46.86362
G01 X12.30273 Y46.90913
G01 X12.23028 Y46.93913
G01 X12.09198 Y47.01307
G01 X12.02678 Y47.05663
G01 X11.90555 Y47.15612
G01 X11.85010 Y47.21157
G01 X11.75061 Y47.33280
G01 X11.70704 Y47.39801
G01 X11.63310 Y47.53631
G01 X11.60311 Y47.60875
G01 X11.55759 Y47.75884
G01 X11.54227 Y47.83572
G01 X11.52691 Y47.99181
G04 P0 ( dwell for no time -- G64 should not smooth over this point )
G00 Z3.50000 ( retract )

G00 X22.31398 Y55.22601 ( rapid move to begin. )
G01 F200.00000
( Mill infeed pass 1/1 )
G01 Z-0.20000
G04 P0 ( dwell for no time -- G64 should not smooth over this point )
G01 F400.00000
G01 X22.31398 Y55.22601
G01 X22.32168 Y55.14800
G01 X22.34444 Y55.07295
G01 X22.38139 Y55.00381
G01 X22.43115 Y54.94320
G01 X22.49176 Y54.89342
G01 X22.56092 Y54.85646
G01 X22.63595 Y54.83370
G01 X22.71398 Y54.82601
G01 X23.56399 Y54.82601
G01 X23.64202 Y54.83370
G01 X23.71705 Y54.85646
G01 X23.78622 Y54.89342
G01 X23.84682 Y54.94320
G01 X23.89658 Y55.00381
G01 X23.93354 Y55.07295
G01 X23.95630 Y55.14800
G01 X23.96399 Y55.22601
G01 X23.96399 Y56.07604
G01 X23.95630 Y56.15407
G01 X23.93354 Y56.22908
G01 X23.89658 Y56.29824
G01 X23.84682 Y56.35885
G01 X23.78622 Y56.40861
G01 X23.71705 Y56.44556
G01 X23.64202 Y56.46832
G01 X23.56399 Y56.47602
G01 X22.71398 Y56.47602
G01 X22.63595 Y56.46832
G01 X22.56092 Y56.44556
G01 X22.49176 Y56.40861
G01 X22.43115 Y56.35885
G01 X22.38139 Y56.29824
G01 X22.34444 Y56.22908
G01 X22.32168 Y56.15407
G01 X22.31398 Y56.07604
G01 X22.31398 Y55.22601
G04 P0 ( dwell for no time -- G64 should not smooth over this point )
G00 Z3.50000 ( retract )

G00 X21.32691 Y60.94581 ( rapid move to begin. )
G01 F200.00000
( Mill infeed pass 1/1 )
G01 Z-0.20000
G04 P0 ( dwell for no time -- G64 should not smooth over this point )
G01 F400.00000
G01 X21.32691 Y60.94581
G01 X21.32691 Y61.02422
G01 X21.34228 Y61.18030
G01 X21.35757 Y61.25719
G01 X21.40311 Y61.40727
G01 X21.43311 Y61.47972
G01 X21.50705 Y61.61802
G01 X21.55061 Y61.68322
G01 X21.65010 Y61.80445
G01 X21.70555 Y61.85990
G01 X21.82679 Y61.95939
G01 X21.89196 Y62.00296
G01 X22.03029 Y62.07690
G01 X22.10273 Y62.10689
G01 X22.25279 Y62.15241
G01 X22.32971 Y62.16773
G01 X22.48579 Y62.18309
G01 X22.56420 Y62.18309
G01 X22.72026 Y62.16773
G01 X22.79717 Y62.15241
G01 X22.94726 Y62.10689
G01 X23.01970 Y62.07690
G01 X23.15800 Y62.00296
G01 X23.22320 Y61.95939
G01 X23.34444 Y61.85990
G01 X23.39988 Y61.80445
G01 X23.49938 Y61.68322
G01 X23.54294 Y61.61802
G01 X23.61685 Y61.47972
G01 X23.64687 Y61.40727
G01 X23.69239 Y61.25719
G01 X23.70768 Y61.18030
G01 X23.72307 Y61.02422
G01 X23.72307 Y60.94581
G01 X23.70768 Y60.78972
G01 X23.69239 Y60.71284
G01 X23.64687 Y60.56275
G01 X23.61685 Y60.49031
G01 X23.54294 Y60.35201
G01 X23.49938 Y60.28680
G01 X23.39988 Y60.16557
G01 X23.34444 Y60.11012
G01 X23.22320 Y60.01063
G01 X23.15800 Y59.96707
G01 X23.01970 Y59.89313
G01 X22.94726 Y59.86313
G01 X22.79717 Y59.81762
G01 X22.72026 Y59.80230
G01 X22.56420 Y59.78693
G01 X22.48579 Y59.78693
G01 X22.32971 Y59.80230
G01 X22.25279 Y59.81762
G01 X22.10273 Y59.86313
G01 X22.03029 Y59.89313
G01 X21.89196 Y59.96707
G01 X21.82679 Y60.01063
G01 X21.70555 Y60.11012
G01 X21.65010 Y60.16557
G01 X21.55061 Y60.28680
G01 X21.50705 Y60.35201
G01 X21.43311 Y60.49031
G01 X21.40311 Y60.56275
G01 X21.35757 Y60.71284
G01 X21.34228 Y60.78972
G01 X21.32691 Y60.94581
G04 P0 ( dwell for no time -- G64 should not smooth over this point )
G00 Z3.50000 ( retract )

G00 X21.32691 Y64.75581 ( rapid move to begin. )
G01 F200.00000
( Mill infeed pass 1/1 )
G01 Z-0.20000
G04 P0 ( dwell for no time -- G64 should not smooth over this point )
G01 F400.00000
G01 X21.32691 Y64.75581
G01 X21.32691 Y64.83422
G01 X21.34228 Y64.99030
G01 X21.35757 Y65.06719
G01 X21.40311 Y65.21727
G01 X21.43311 Y65.28972
G01 X21.50705 Y65.42802
G01 X21.55061 Y65.49322
G01 X21.65010 Y65.61445
G01 X21.70555 Y65.66990
G01 X21.82679 Y65.76939
G01 X21.89196 Y65.81296
G01 X22.03029 Y65.88690
G01 X22.10273 Y65.91689
G01 X22.25279 Y65.96241
G01 X22.32971 Y65.97773
G01 X22.48579 Y65.99309
G01 X22.56420 Y65.99309
G01 X22.72026 Y65.97773
G01 X22.79717 Y65.96241
G01 X22.94726 Y65.91689
G01 X23.01970 Y65.88690
G01 X23.15800 Y65.81296
G01 X23.22320 Y65.76939
G01 X23.34444 Y65.66990
G01 X23.39988 Y65.61445
G01 X23.49938 Y65.49322
G01 X23.54294 Y65.42802
G01 X23.61685 Y65.28972
G01 X23.64687 Y65.21727
G01 X23.69239 Y65.06719
G01 X23.70768 Y64.99030
G01 X23.72307 Y64.83422
G01 X23.72307 Y64.75581
G01 X23.70768 Y64.59972
G01 X23.69239 Y64.52284
G01 X23.64687 Y64.37275
G01 X23.61685 Y64.30031
G01 X23.54294 Y64.16201
G01 X23.49938 Y64.09680
G01 X23.39988 Y63.97557
G01 X23.34444 Y63.92012
G01 X23.22320 Y63.82063
G01 X23.15800 Y63.77707
G01 X23.01970 Y63.70313
G01 X22.94726 Y63.67313
G01 X22.79717 Y63.62762
G01 X22.72026 Y63.61230
G01 X22.56420 Y63.59693
G01 X22.48579 Y63.59693
G01 X22.32971 Y63.61230
G01 X22.25279 Y63.62762
G01 X22.10273 Y63.67313
G01 X22.03029 Y63.70313
G01 X21.89196 Y63.77707
G01 X21.82679 Y63.82063
G01 X21.70555 Y63.92012
G01 X21.65010 Y63.97557
G01 X21.55061 Y64.09680
G01 X21.50705 Y64.16201
G01 X21.43311 Y64.30031
G01 X21.40311 Y64.37275
G01 X21.35757 Y64.52284
G01 X21.34228 Y64.59972
G01 X21.32691 Y64.75581
G04 P0 ( dwell for no time -- G64 should not smooth over this point )
G00 Z3.50000 ( retract )

G00 X11.16691 Y60.94581 ( rapid move to begin. )
G01 F200.00000
( Mill infeed pass 1/1 )
G01 Z-0.20000
G04 P0 ( dwell for no time -- G64 should not smooth over this point )
G01 F400.00000
G01 X11.16691 Y60.94581
G01 X11.18228 Y60.78972
G01 X11.19757 Y60.71284
G01 X11.24311 Y60.56275
G01 X11.27311 Y60.49031
G01 X11.34705 Y60.35201
G01 X11.39061 Y60.28680
G01 X11.49010 Y60.16557
G01 X11.54555 Y60.11012
G01 X11.66679 Y60.01063
G01 X11.73196 Y59.96707
G01 X11.87029 Y59.89313
G01 X11.94273 Y59.86313
G01 X12.09279 Y59.81762
G01 X12.16971 Y59.80230
G01 X12.32579 Y59.78693
G01 X12.40420 Y59.78693
G01 X12.56026 Y59.80230
G01 X12.63717 Y59.81762
G01 X12.78726 Y59.86313
G01 X12.85970 Y59.89313
G01 X12.99800 Y59.96707
G01 X13.06320 Y60.01063
G01 X13.18444 Y60.11012
G01 X13.23988 Y60.16557
G01 X13.33938 Y60.28680
G01 X13.38294 Y60.35201
G01 X13.45685 Y60.49031
G01 X13.48687 Y60.56275
G01 X13.53239 Y60.71284
G01 X13.54768 Y60.78972
G01 X13.56307 Y60.94581
G01 X13.56307 Y61.02422
G01 X13.54768 Y61.18030
G01 X13.53239 Y61.25719
G01 X13.48687 Y61.40727
G01 X13.45685 Y61.47972
G01 X13.38294 Y61.61802
G01 X13.33938 Y61.68322
G01 X13.23988 Y61.80445
G01 X13.18444 Y61.85990
G01 X13.06320 Y61.95939
G01 X12.99800 Y62.00296
G01 X12.85970 Y62.07690
G01 X12.78726 Y62.10689
G01 X12.63717 Y62.15241
G01 X12.56026 Y62.16773
G01 X12.40420 Y62.18309
G01 X12.32579 Y62.18309
G01 X12.16971 Y62.16773
G01 X12.09279 Y62.15241
G01 X11.94273 Y62.10689
G01 X11.87029 Y62.07690
G01 X11.73196 Y62.00296
G01 X11.66679 Y61.95939
G01 X11.54555 Y61.85990
G01 X11.49010 Y61.80445
G01 X11.39061 Y61.68322
G01 X11.34705 Y61.61802
G01 X11.27311 Y61.47972
G01 X11.24311 Y61.40727
G01 X11.19757 Y61.25719
G01 X11.18228 Y61.18030
G01 X11.16691 Y61.02422
G01 X11.16691 Y60.94581
G04 P0 ( dwell for no time -- G64 should not smooth over this point )
G00 Z3.50000 ( retract )

G00 X11.16691 Y64.75581 ( rapid move to begin. )
G01 F200.00000
( Mill infeed pass 1/1 )
G01 Z-0.20000
G04 P0 ( dwell for no time -- G64 should not smooth over this point )
G01 F400.00000
G01 X11.16691 Y64.75581
G01 X11.18228 Y64.59972
G01 X11.19757 Y64.52284
G01 X11.24311 Y64.37275
G01 X11.27311 Y64.30031
G01 X11.34705 Y64.16201
G01 X11.39061 Y64.09680
G01 X11.49010 Y63.97557
G01 X11.54555 Y63.92012
G01 X11.66679 Y63.82063
G01 X11.73196 Y63.77707
G01 X11.87029 Y63.70313
G01 X11.94273 Y63.67313
G01 X12.09279 Y63.62762
G01 X12.16971 Y63.61230
G01 X12.32579 Y63.59693
G01 X12.40420 Y63.59693
G01 X12.56026 Y63.61230
G01 X12.63717 Y63.62762
G01 X12.78726 Y63.67313
G01 X12.85970 Y63.70313
G01 X12.99800 Y63.77707
G01 X13.06320 Y63.82063
G01 X13.18444 Y63.92012
G01 X13.23988 Y63.97557
G01 X13.33938 Y64.09680
G01 X13.38294 Y64.16201
G01 X13.45685 Y64.30031
G01 X13.48687 Y64.37275
G01 X13.53239 Y64.52284
G01 X13.54768 Y64.59972
G01 X13.56307 Y64.75581
G01 X13.56307 Y64.83422
G01 X13.54768 Y64.99030
G01 X13.53239 Y65.06719
G01 X13.48687 Y65.21727
G01 X13.45685 Y65.28972
G01 X13.38294 Y65.42802
G01 X13.33938 Y65.49322
G01 X13.23988 Y65.61445
G01 X13.18444 Y65.66990
G01 X13.06320 Y65.76939
G01 X12.99800 Y65.81296
G01 X12.85970 Y65.88690
G01 X12.78726 Y65.91689
G01 X12.63717 Y65.96241
G01 X12.56026 Y65.97773
G01 X12.40420 Y65.99309
G01 X12.32579 Y65.99309
G01 X12.16971 Y65.97773
G01 X12.09279 Y65.96241
G01 X11.94273 Y65.91689
G01 X11.87029 Y65.88690
G01 X11.73196 Y65.81296
G01 X11.66679 Y65.76939
G01 X11.54555 Y65.66990
G01 X11.49010 Y65.61445
G01 X11.39061 Y65.49322
G01 X11.34705 Y65.42802
G01 X11.27311 Y65.28972
G01 X11.24311 Y65.21727
G01 X11.19757 Y65.06719
G01 X11.18228 Y64.99030
G01 X11.16691 Y64.83422
G01 X11.16691 Y64.75581
G04 P0 ( dwell for no time -- G64 should not smooth over this point )
G00 Z3.50000 ( retract )

G00 X15.96398 Y71.60901 ( rapid move to begin. )
G01 F200.00000
( Mill infeed pass 1/1 )
G01 Z-0.20000
G04 P0 ( dwell for no time -- G64 should not smooth over this point )
G01 F400.00000
G01 X15.96398 Y71.60901
G01 X15.97168 Y71.53098
G01 X15.99444 Y71.45595
G01 X16.03139 Y71.38678
G01 X16.08115 Y71.32618
G01 X16.14176 Y71.27642
G01 X16.21092 Y71.23946
G01 X16.28595 Y71.21670
G01 X16.36398 Y71.20901
G01 X17.21399 Y71.20901
G01 X17.29202 Y71.21670
G01 X17.36705 Y71.23946
G01 X17.43622 Y71.27642
G01 X17.49682 Y71.32618
G01 X17.54658 Y71.38678
G01 X17.58354 Y71.45595
G01 X17.60630 Y71.53098
G01 X17.61399 Y71.60901
G01 X17.61399 Y72.45902
G01 X17.60630 Y72.53705
G01 X17.58354 Y72.61208
G01 X17.54658 Y72.68124
G01 X17.49682 Y72.74185
G01 X17.43622 Y72.79161
G01 X17.36705 Y72.82856
G01 X17.29202 Y72.85132
G01 X17.21399 Y72.85902
G01 X16.36398 Y72.85902
G01 X16.28595 Y72.85132
G01 X16.21092 Y72.82856
G01 X16.14176 Y72.79161
G01 X16.08115 Y72.74185
G01 X16.03139 Y72.68124
G01 X15.99444 Y72.61208
G01 X15.97168 Y72.53705
G01 X15.96398 Y72.45902
G01 X15.96398 Y71.60901
G04 P0 ( dwell for no time -- G64 should not smooth over this point )
G00 Z3.50000 ( retract )

G00 X20.60591 Y71.74081 ( rapid move to begin. )
G01 F200.00000
( Mill infeed pass 1/1 )
G01 Z-0.20000
G04 P0 ( dwell for no time -- G64 should not smooth over this point )
G01 F400.00000
G01 X20.60591 Y71.74081
G01 X20.63474 Y71.44817
G01 X20.65003 Y71.37126
G01 X20.73540 Y71.08988
G01 X20.76540 Y71.01744
G01 X20.90400 Y70.75811
G01 X20.94759 Y70.69291
G01 X21.13413 Y70.46560
G01 X21.18958 Y70.41015
G01 X21.41688 Y70.22361
G01 X21.48208 Y70.18003
G01 X21.74142 Y70.04142
G01 X21.81386 Y70.01142
G01 X22.09524 Y69.92605
G01 X22.17215 Y69.91076
G01 X22.46478 Y69.88193
G01 X22.54319 Y69.88193
G01 X22.83583 Y69.91076
G01 X22.91274 Y69.92605
G01 X23.19412 Y70.01142
G01 X23.26656 Y70.04142
G01 X23.52589 Y70.18003
G01 X23.59109 Y70.22361
G01 X23.81840 Y70.41015
G01 X23.87385 Y70.46560
G01 X24.06038 Y70.69291
G01 X24.10397 Y70.75811
G01 X24.24258 Y71.01744
G01 X24.27258 Y71.08988
G01 X24.35795 Y71.37126
G01 X24.37324 Y71.44817
G01 X24.40207 Y71.74081
G01 X24.40207 Y71.81922
G01 X24.37324 Y72.11185
G01 X24.35795 Y72.18876
G01 X24.27258 Y72.47014
G01 X24.24258 Y72.54258
G01 X24.10397 Y72.80192
G01 X24.06038 Y72.86712
G01 X23.87385 Y73.09442
G01 X23.81840 Y73.14987
G01 X23.59109 Y73.33641
G01 X23.52589 Y73.38000
G01 X23.26656 Y73.51860
G01 X23.19412 Y73.54860
G01 X22.91274 Y73.63397
G01 X22.83583 Y73.64926
G01 X22.54319 Y73.67809
G01 X22.46478 Y73.67809
G01 X22.17215 Y73.64926
G01 X22.09524 Y73.63397
G01 X21.81386 Y73.54860
G01 X21.74142 Y73.51860
G01 X21.48208 Y73.38000
G01 X21.41688 Y73.33641
G01 X21.18958 Y73.14987
G01 X21.13413 Y73.09442
G01 X20.94759 Y72.86712
G01 X20.90400 Y72.80192
G01 X20.76540 Y72.54258
G01 X20.73540 Y72.47014
G01 X20.65003 Y72.18876
G01 X20.63474 Y72.11185
G01 X20.60591 Y71.81922
G01 X20.60591 Y71.74081
G04 P0 ( dwell for no time -- G64 should not smooth over this point )
G00 Z3.50000 ( retract )

G00 X25.68398 Y70.28000 ( rapid move to begin. )
G01 F200.00000
( Mill infeed pass 1/1 )
G01 Z-0.20000
G04 P0 ( dwell for no time -- G64 should not smooth over this point )
G01 F400.00000
G01 X25.68398 Y70.28000
G01 X25.69167 Y70.20197
G01 X25.71443 Y70.12694
G01 X25.75139 Y70.05778
G01 X25.80115 Y69.99717
G01 X25.86175 Y69.94742
G01 X25.93092 Y69.91046
G01 X26.00595 Y69.88770
G01 X26.08398 Y69.88000
G01 X29.08400 Y69.88000
G01 X29.16203 Y69.88770
G01 X29.23706 Y69.91046
G01 X29.30622 Y69.94742
G01 X29.36683 Y69.99717
G01 X29.41658 Y70.05778
G01 X29.45354 Y70.12694
G01 X29.47630 Y70.20197
G01 X29.48400 Y70.28000
G01 X29.48400 Y73.28002
G01 X29.47630 Y73.35805
G01 X29.45354 Y73.43308
G01 X29.41658 Y73.50225
G01 X29.36683 Y73.56285
G01 X29.30622 Y73.61261
G01 X29.23706 Y73.64957
G01 X29.16203 Y73.67233
G01 X29.08400 Y73.68002
G01 X26.08398 Y73.68002
G01 X26.00595 Y73.67233
G01 X25.93092 Y73.64957
G01 X25.86175 Y73.61261
G01 X25.80115 Y73.56285
G01 X25.75139 Y73.50225
G01 X25.71443 Y73.43308
G01 X25.69167 Y73.35805
G01 X25.68398 Y73.28002
G01 X25.68398 Y70.28000
G04 P0 ( dwell for no time -- G64 should not smooth over this point )
G00 Z3.50000 ( retract )

G00 X31.76799 Y71.03001 ( rapid move to begin. )
G01 F200.00000
( Mill infeed pass 1/1 )
G01 Z-0.20000
G04 P0 ( dwell for no time -- G64 should not smooth over this point )
G01 F400.00000
G01 X31.76799 Y71.03001
G01 X31.77569 Y70.95199
G01 X31.79844 Y70.87693
G01 X31.83540 Y70.80779
G01 X31.88513 Y70.74716
G01 X31.94576 Y70.69743
G01 X32.01490 Y70.66047
G01 X32.08996 Y70.63771
G01 X32.16799 Y70.63001
G01 X33.66799 Y70.63001
G01 X33.74601 Y70.63771
G01 X33.82107 Y70.66047
G01 X33.89021 Y70.69743
G01 X33.95084 Y70.74716
G01 X34.00057 Y70.80779
G01 X34.03753 Y70.87693
G01 X34.06029 Y70.95199
G01 X34.06798 Y71.03001
G01 X34.06798 Y72.53001
G01 X34.06029 Y72.60804
G01 X34.03753 Y72.68310
G01 X34.00057 Y72.75224
G01 X33.95084 Y72.81287
G01 X33.89021 Y72.86260
G01 X33.82107 Y72.89956
G01 X33.74601 Y72.92231
G01 X33.66799 Y72.93001
G01 X32.16799 Y72.93001
G01 X32.08996 Y72.92231
G01 X32.01490 Y72.89956
G01 X31.94576 Y72.86260
G01 X31.88513 Y72.81287
G01 X31.83540 Y72.75224
G01 X31.79844 Y72.68310
G01 X31.77569 Y72.60804
G01 X31.76799 Y72.53001
G01 X31.76799 Y71.03001
G04 P0 ( dwell for no time -- G64 should not smooth over this point )
G00 Z3.50000 ( retract )

G00 X30.61191 Y66.66081 ( rapid move to begin. )
G01 F200.00000
( Mill infeed pass 1/1 )
G01 Z-0.20000
G04 P0 ( dwell for no time -- G64 should not smooth over this point )
G01 F400.00000
G01 X30.61191 Y66.66081
G01 X30.63881 Y66.38768
G01 X30.65412 Y66.31077
G01 X30.73378 Y66.04813
G01 X30.76378 Y65.97569
G01 X30.89316 Y65.73366
G01 X30.93672 Y65.66846
G01 X31.11084 Y65.45631
G01 X31.16629 Y65.40087
G01 X31.37843 Y65.22675
G01 X31.44363 Y65.18319
G01 X31.68567 Y65.05380
G01 X31.75811 Y65.02380
G01 X32.02075 Y64.94415
G01 X32.09766 Y64.92883
G01 X32.37078 Y64.90193
G01 X32.44919 Y64.90193
G01 X32.72232 Y64.92883
G01 X32.79923 Y64.94415
G01 X33.06187 Y65.02380
G01 X33.13431 Y65.05380
G01 X33.37634 Y65.18319
G01 X33.44154 Y65.22675
G01 X33.65369 Y65.40087
G01 X33.70913 Y65.45631
G01 X33.88325 Y65.66846
G01 X33.92681 Y65.73366
G01 X34.05620 Y65.97569
G01 X34.08620 Y66.04813
G01 X34.16585 Y66.31077
G01 X34.18117 Y66.38768
G01 X34.20807 Y66.66081
G01 X34.20807 Y66.73922
G01 X34.18117 Y67.01234
G01 X34.16585 Y67.08925
G01 X34.08620 Y67.35189
G01 X34.05620 Y67.42433
G01 X33.92681 Y67.66637
G01 X33.88325 Y67.73157
G01 X33.70913 Y67.94371
G01 X33.65369 Y67.99916
G01 X33.44154 Y68.17328
G01 X33.37634 Y68.21684
G01 X33.13431 Y68.34622
G01 X33.06187 Y68.37622
G01 X32.79923 Y68.45588
G01 X32.72232 Y68.47119
G01 X32.44919 Y68.49809
G01 X32.37078 Y68.49809
G01 X32.09766 Y68.47119
G01 X32.02075 Y68.45588
G01 X31.75811 Y68.37622
G01 X31.68567 Y68.34622
G01 X31.44363 Y68.21684
G01 X31.37843 Y68.17328
G01 X31.16629 Y67.99916
G01 X31.11084 Y67.94371
G01 X30.93672 Y67.73157
G01 X30.89316 Y67.66637
G01 X30.76378 Y67.42433
G01 X30.73378 Y67.35189
G01 X30.65412 Y67.08925
G01 X30.63881 Y67.01234
G01 X30.61191 Y66.73922
G01 X30.61191 Y66.66081
G04 P0 ( dwell for no time -- G64 should not smooth over this point )
G00 Z3.50000 ( retract )

G00 X26.54191 Y63.48581 ( rapid move to begin. )
G01 F200.00000
( Mill infeed pass 1/1 )
G01 Z-0.20000
G04 P0 ( dwell for no time -- G64 should not smooth over this point )
G01 F400.00000
G01 X26.54191 Y63.48581
G01 X26.55632 Y63.33948
G01 X26.57163 Y63.26259
G01 X26.61430 Y63.12188
G01 X26.64430 Y63.04944
G01 X26.71362 Y62.91977
G01 X26.75718 Y62.85457
G01 X26.85045 Y62.74093
G01 X26.90590 Y62.68548
G01 X27.01956 Y62.59221
G01 X27.08476 Y62.54865
G01 X27.21440 Y62.47933
G01 X27.27310 Y62.45502
G01 X27.28687 Y62.44934
G01 X27.42756 Y62.40664
G01 X27.50447 Y62.39135
G01 X27.65078 Y62.37695
G01 X27.72919 Y62.37695
G01 X27.87552 Y62.39135
G01 X27.95243 Y62.40664
G01 X28.09312 Y62.44934
G01 X28.16556 Y62.47933
G01 X28.29523 Y62.54865
G01 X28.36043 Y62.59221
G01 X28.47407 Y62.68548
G01 X28.52951 Y62.74093
G01 X28.62278 Y62.85457
G01 X28.66637 Y62.91977
G01 X28.73566 Y63.04944
G01 X28.76568 Y63.12188
G01 X28.80836 Y63.26259
G01 X28.82365 Y63.33948
G01 X28.83805 Y63.48581
G01 X28.83805 Y63.56422
G01 X28.82365 Y63.71055
G01 X28.80836 Y63.78743
G01 X28.76568 Y63.92815
G01 X28.73566 Y64.00059
G01 X28.66637 Y64.13026
G01 X28.62278 Y64.19546
G01 X28.52951 Y64.30910
G01 X28.47407 Y64.36455
G01 X28.36043 Y64.45781
G01 X28.29523 Y64.50138
G01 X28.16556 Y64.57069
G01 X28.09312 Y64.60069
G01 X27.95243 Y64.64339
G01 X27.87552 Y64.65868
G01 X27.72919 Y64.67308
G01 X27.65078 Y64.67308
G01 X27.50447 Y64.65868
G01 X27.42756 Y64.64339
G01 X27.28687 Y64.60069
G01 X27.21440 Y64.57069
G01 X27.08476 Y64.50138
G01 X27.01956 Y64.45781
G01 X26.90590 Y64.36455
G01 X26.85045 Y64.30910
G01 X26.75718 Y64.19546
G01 X26.71362 Y64.13026
G01 X26.64430 Y64.00059
G01 X26.61430 Y63.92815
G01 X26.57163 Y63.78743
G01 X26.55632 Y63.71055
G01 X26.54191 Y63.56422
G01 X26.54191 Y63.48581
G04 P0 ( dwell for no time -- G64 should not smooth over this point )
G00 Z3.50000 ( retract )

G00 X26.54191 Y60.94581 ( rapid move to begin. )
G01 F200.00000
( Mill infeed pass 1/1 )
G01 Z-0.20000
G04 P0 ( dwell for no time -- G64 should not smooth over this point )
G01 F400.00000
G01 X26.54191 Y60.94581
G01 X26.55632 Y60.79948
G01 X26.57163 Y60.72259
G01 X26.61430 Y60.58188
G01 X26.64430 Y60.50944
G01 X26.71362 Y60.37977
G01 X26.75718 Y60.31457
G01 X26.85045 Y60.20093
G01 X26.90590 Y60.14548
G01 X27.01956 Y60.05221
G01 X27.08476 Y60.00865
G01 X27.13264 Y59.98305
G01 X27.21440 Y59.93933
G01 X27.28687 Y59.90934
G01 X27.42756 Y59.86664
G01 X27.50447 Y59.85135
G01 X27.65078 Y59.83695
G01 X27.72919 Y59.83695
G01 X27.87552 Y59.85135
G01 X27.95243 Y59.86664
G01 X28.09312 Y59.90934
G01 X28.16556 Y59.93933
G01 X28.29523 Y60.00865
G01 X28.36043 Y60.05221
G01 X28.47407 Y60.14548
G01 X28.52951 Y60.20093
G01 X28.62278 Y60.31457
G01 X28.66637 Y60.37977
G01 X28.73566 Y60.50944
G01 X28.76568 Y60.58188
G01 X28.80836 Y60.72259
G01 X28.82365 Y60.79948
G01 X28.83805 Y60.94581
G01 X28.83805 Y61.02422
G01 X28.82365 Y61.17055
G01 X28.80836 Y61.24743
G01 X28.76568 Y61.38815
G01 X28.73566 Y61.46059
G01 X28.66637 Y61.59026
G01 X28.62278 Y61.65546
G01 X28.52951 Y61.76910
G01 X28.47407 Y61.82455
G01 X28.36043 Y61.91781
G01 X28.29523 Y61.96138
G01 X28.16556 Y62.03069
G01 X28.10681 Y62.05503
G01 X28.09312 Y62.06069
G01 X27.95243 Y62.10339
G01 X27.87552 Y62.11868
G01 X27.72919 Y62.13308
G01 X27.65078 Y62.13308
G01 X27.50447 Y62.11868
G01 X27.42756 Y62.10339
G01 X27.28687 Y62.06069
G01 X27.21440 Y62.03069
G01 X27.08476 Y61.96138
G01 X27.01956 Y61.91781
G01 X26.90590 Y61.82455
G01 X26.85045 Y61.76910
G01 X26.75718 Y61.65546
G01 X26.71362 Y61.59026
G01 X26.64430 Y61.46059
G01 X26.61430 Y61.38815
G01 X26.57163 Y61.24743
G01 X26.55632 Y61.17055
G01 X26.54191 Y61.02422
G01 X26.54191 Y60.94581
G04 P0 ( dwell for no time -- G64 should not smooth over this point )
G00 Z3.50000 ( retract )

G00 X26.53998 Y57.69501 ( rapid move to begin. )
G01 F200.00000
( Mill infeed pass 1/1 )
G01 Z-0.20000
G04 P0 ( dwell for no time -- G64 should not smooth over this point )
G01 F400.00000
G01 X26.53998 Y57.69501
G01 X26.54768 Y57.61699
G01 X26.57044 Y57.54193
G01 X26.60740 Y57.47279
G01 X26.65715 Y57.41216
G01 X26.71776 Y57.36243
G01 X26.78692 Y57.32547
G01 X26.86195 Y57.30271
G01 X26.93998 Y57.29501
G01 X28.43998 Y57.29501
G01 X28.51803 Y57.30271
G01 X28.59307 Y57.32547
G01 X28.66220 Y57.36243
G01 X28.72283 Y57.41216
G01 X28.77257 Y57.47279
G01 X28.80955 Y57.54193
G01 X28.83231 Y57.61699
G01 X28.83998 Y57.69501
G01 X28.83998 Y59.19501
G01 X28.83231 Y59.27304
G01 X28.80955 Y59.34810
G01 X28.77257 Y59.41724
G01 X28.72283 Y59.47787
G01 X28.66220 Y59.52760
G01 X28.59307 Y59.56456
G01 X28.51803 Y59.58731
G01 X28.43998 Y59.59501
G01 X26.93998 Y59.59501
G01 X26.86195 Y59.58731
G01 X26.78692 Y59.56456
G01 X26.71776 Y59.52760
G01 X26.65715 Y59.47787
G01 X26.60740 Y59.41724
G01 X26.57044 Y59.34810
G01 X26.54768 Y59.27304
G01 X26.53998 Y59.19501
G01 X26.53998 Y57.69501
G04 P0 ( dwell for no time -- G64 should not smooth over this point )
G00 Z3.50000 ( retract )

G00 X30.60998 Y52.60000 ( rapid move to begin. )
G01 F200.00000
( Mill infeed pass 1/1 )
G01 Z-0.20000
G04 P0 ( dwell for no time -- G64 should not smooth over this point )
G01 F400.00000
G01 X30.60998 Y52.60000
G01 X30.61767 Y52.52197
G01 X30.64043 Y52.44694
G01 X30.67739 Y52.37778
G01 X30.72715 Y52.31717
G01 X30.78775 Y52.26742
G01 X30.85692 Y52.23046
G01 X30.93195 Y52.20770
G01 X31.00998 Y52.20000
G01 X33.81000 Y52.20000
G01 X33.88803 Y52.20770
G01 X33.96306 Y52.23046
G01 X34.03222 Y52.26742
G01 X34.09283 Y52.31717
G01 X34.14258 Y52.37778
G01 X34.17954 Y52.44694
G01 X34.20230 Y52.52197
G01 X34.21000 Y52.60000
G01 X34.21000 Y55.40002
G01 X34.20230 Y55.47805
G01 X34.17954 Y55.55311
G01 X34.14258 Y55.62227
G01 X34.09283 Y55.68288
G01 X34.03222 Y55.73261
G01 X33.96306 Y55.76957
G01 X33.88803 Y55.79233
G01 X33.81000 Y55.80005
G01 X31.00998 Y55.80005
G01 X30.93195 Y55.79233
G01 X30.85692 Y55.76957
G01 X30.78775 Y55.73261
G01 X30.72715 Y55.68288
G01 X30.67739 Y55.62227
G01 X30.64043 Y55.55311
G01 X30.61767 Y55.47805
G01 X30.60998 Y55.40002
G01 X30.60998 Y52.60000
G04 P0 ( dwell for no time -- G64 should not smooth over this point )
G00 Z3.50000 ( retract )

G00 X30.61191 Y50.15081 ( rapid move to begin. )
G01 F200.00000
( Mill infeed pass 1/1 )
G01 Z-0.20000
G04 P0 ( dwell for no time -- G64 should not smooth over this point )
G01 F400.00000
G01 X30.61191 Y50.15081
G01 X30.63881 Y49.87768
G01 X30.65412 Y49.80077
G01 X30.73378 Y49.53813
G01 X30.76378 Y49.46569
G01 X30.89316 Y49.22366
G01 X30.93672 Y49.15846
G01 X31.11084 Y48.94631
G01 X31.16629 Y48.89087
G01 X31.37843 Y48.71675
G01 X31.44363 Y48.67319
G01 X31.68567 Y48.54380
G01 X31.75811 Y48.51380
G01 X32.02075 Y48.43415
G01 X32.09766 Y48.41883
G01 X32.37078 Y48.39193
G01 X32.44919 Y48.39193
G01 X32.72232 Y48.41883
G01 X32.79923 Y48.43415
G01 X33.06187 Y48.51380
G01 X33.13431 Y48.54380
G01 X33.37634 Y48.67319
G01 X33.44154 Y48.71675
G01 X33.65369 Y48.89087
G01 X33.70913 Y48.94631
G01 X33.88325 Y49.15846
G01 X33.92681 Y49.22366
G01 X34.05620 Y49.46569
G01 X34.08620 Y49.53813
G01 X34.16585 Y49.80077
G01 X34.18117 Y49.87768
G01 X34.20807 Y50.15081
G01 X34.20807 Y50.22922
G01 X34.18117 Y50.50234
G01 X34.16585 Y50.57925
G01 X34.08620 Y50.84189
G01 X34.05620 Y50.91433
G01 X33.92681 Y51.15637
G01 X33.88325 Y51.22157
G01 X33.70913 Y51.43371
G01 X33.65369 Y51.48916
G01 X33.44154 Y51.66328
G01 X33.37634 Y51.70684
G01 X33.17987 Y51.81184
G01 X33.13431 Y51.83622
G01 X33.06187 Y51.86622
G01 X32.79923 Y51.94588
G01 X32.72232 Y51.96119
G01 X32.44919 Y51.98809
G01 X32.37078 Y51.98809
G01 X32.09766 Y51.96119
G01 X32.02075 Y51.94588
G01 X31.75811 Y51.86622
G01 X31.68567 Y51.83622
G01 X31.44363 Y51.70684
G01 X31.37843 Y51.66328
G01 X31.16629 Y51.48916
G01 X31.11084 Y51.43371
G01 X30.93672 Y51.22157
G01 X30.89316 Y51.15637
G01 X30.76378 Y50.91433
G01 X30.73378 Y50.84189
G01 X30.65412 Y50.57925
G01 X30.63881 Y50.50234
G01 X30.61191 Y50.22922
G01 X30.61191 Y50.15081
G04 P0 ( dwell for no time -- G64 should not smooth over this point )
G00 Z3.50000 ( retract )

G00 X26.54191 Y46.97581 ( rapid move to begin. )
G01 F200.00000
( Mill infeed pass 1/1 )
G01 Z-0.20000
G04 P0 ( dwell for no time -- G64 should not smooth over this point )
G01 F400.00000
G01 X26.54191 Y46.97581
G01 X26.55632 Y46.82948
G01 X26.57163 Y46.75259
G01 X26.61430 Y46.61188
G01 X26.64430 Y46.53944
G01 X26.71362 Y46.40977
G01 X26.75718 Y46.34457
G01 X26.85045 Y46.23093
G01 X26.90590 Y46.17548
G01 X27.01956 Y46.08221
G01 X27.08476 Y46.03865
G01 X27.21440 Y45.96933
G01 X27.27310 Y45.94502
G01 X27.28687 Y45.93934
G01 X27.42756 Y45.89664
G01 X27.50447 Y45.88135
G01 X27.65078 Y45.86695
G01 X27.72919 Y45.86695
G01 X27.87552 Y45.88135
G01 X27.95243 Y45.89664
G01 X28.09312 Y45.93934
G01 X28.16556 Y45.96933
G01 X28.29523 Y46.03865
G01 X28.36043 Y46.08221
G01 X28.47407 Y46.17548
G01 X28.52951 Y46.23093
G01 X28.62278 Y46.34457
G01 X28.66637 Y46.40977
G01 X28.73566 Y46.53944
G01 X28.76568 Y46.61188
G01 X28.80836 Y46.75259
G01 X28.82365 Y46.82948
G01 X28.83805 Y46.97581
G01 X28.83805 Y47.05422
G01 X28.82365 Y47.20055
G01 X28.80836 Y47.27743
G01 X28.76568 Y47.41815
G01 X28.73566 Y47.49059
G01 X28.66637 Y47.62026
G01 X28.62278 Y47.68546
G01 X28.52951 Y47.79910
G01 X28.47407 Y47.85455
G01 X28.36043 Y47.94781
G01 X28.29523 Y47.99138
G01 X28.16556 Y48.06069
G01 X28.09312 Y48.09069
G01 X27.95243 Y48.13339
G01 X27.87552 Y48.14868
G01 X27.72919 Y48.16308
G01 X27.65078 Y48.16308
G01 X27.50447 Y48.14868
G01 X27.42756 Y48.13339
G01 X27.28687 Y48.09069
G01 X27.21440 Y48.06069
G01 X27.08476 Y47.99138
G01 X27.01956 Y47.94781
G01 X26.90590 Y47.85455
G01 X26.85045 Y47.79910
G01 X26.75718 Y47.68546
G01 X26.71362 Y47.62026
G01 X26.64430 Y47.49059
G01 X26.61430 Y47.41815
G01 X26.57163 Y47.27743
G01 X26.55632 Y47.20055
G01 X26.54191 Y47.05422
G01 X26.54191 Y46.97581
G04 P0 ( dwell for no time -- G64 should not smooth over this point )
G00 Z3.50000 ( retract )

G00 X26.54191 Y44.43581 ( rapid move to begin. )
G01 F200.00000
( Mill infeed pass 1/1 )
G01 Z-0.20000
G04 P0 ( dwell for no time -- G64 should not smooth over this point )
G01 F400.00000
G01 X26.54191 Y44.43581
G01 X26.55632 Y44.28948
G01 X26.57163 Y44.21259
G01 X26.61430 Y44.07188
G01 X26.64430 Y43.99944
G01 X26.71362 Y43.86977
G01 X26.75718 Y43.80457
G01 X26.85045 Y43.69093
G01 X26.90590 Y43.63548
G01 X27.01956 Y43.54221
G01 X27.08476 Y43.49865
G01 X27.13264 Y43.47305
G01 X27.21440 Y43.42933
G01 X27.28687 Y43.39934
G01 X27.42756 Y43.35664
G01 X27.50447 Y43.34135
G01 X27.65078 Y43.32695
G01 X27.72919 Y43.32695
G01 X27.87552 Y43.34135
G01 X27.95243 Y43.35664
G01 X28.09312 Y43.39934
G01 X28.16556 Y43.42933
G01 X28.29523 Y43.49865
G01 X28.36043 Y43.54221
G01 X28.47407 Y43.63548
G01 X28.52951 Y43.69093
G01 X28.62278 Y43.80457
G01 X28.66637 Y43.86977
G01 X28.73566 Y43.99944
G01 X28.76568 Y44.07188
G01 X28.80836 Y44.21259
G01 X28.82365 Y44.28948
G01 X28.83805 Y44.43581
G01 X28.83805 Y44.51422
G01 X28.82365 Y44.66055
G01 X28.80836 Y44.73743
G01 X28.76568 Y44.87815
G01 X28.73566 Y44.95059
G01 X28.66637 Y45.08026
G01 X28.62278 Y45.14546
G01 X28.52951 Y45.25910
G01 X28.47407 Y45.31455
G01 X28.36043 Y45.40781
G01 X28.29523 Y45.45138
G01 X28.16556 Y45.52069
G01 X28.10681 Y45.54503
G01 X28.09312 Y45.55069
G01 X27.95243 Y45.59339
G01 X27.87552 Y45.60868
G01 X27.72919 Y45.62308
G01 X27.65078 Y45.62308
G01 X27.50447 Y45.60868
G01 X27.42756 Y45.59339
G01 X27.28687 Y45.55069
G01 X27.21440 Y45.52069
G01 X27.08476 Y45.45138
G01 X27.01956 Y45.40781
G01 X26.90590 Y45.31455
G01 X26.85045 Y45.25910
G01 X26.75718 Y45.14546
G01 X26.71362 Y45.08026
G01 X26.64430 Y44.95059
G01 X26.61430 Y44.87815
G01 X26.57163 Y44.73743
G01 X26.55632 Y44.66055
G01 X26.54191 Y44.51422
G01 X26.54191 Y44.43581
G04 P0 ( dwell for no time -- G64 should not smooth over this point )
G00 Z3.50000 ( retract )

G00 X21.68691 Y47.99181 ( rapid move to begin. )
G01 F200.00000
( Mill infeed pass 1/1 )
G01 Z-0.20000
G04 P0 ( dwell for no time -- G64 should not smooth over this point )
G01 F400.00000
G01 X21.68691 Y47.99181
G01 X21.70227 Y47.83572
G01 X21.71759 Y47.75884
G01 X21.76311 Y47.60875
G01 X21.79310 Y47.53631
G01 X21.86704 Y47.39801
G01 X21.91061 Y47.33280
G01 X22.01010 Y47.21157
G01 X22.06555 Y47.15612
G01 X22.18678 Y47.05663
G01 X22.25198 Y47.01307
G01 X22.39028 Y46.93913
G01 X22.46272 Y46.90913
G01 X22.61281 Y46.86362
G01 X22.68970 Y46.84830
G01 X22.84578 Y46.83293
G01 X22.92419 Y46.83293
G01 X23.08028 Y46.84830
G01 X23.15716 Y46.86362
G01 X23.30725 Y46.90913
G01 X23.37969 Y46.93913
G01 X23.51799 Y47.01307
G01 X23.58320 Y47.05663
G01 X23.70443 Y47.15612
G01 X23.75988 Y47.21157
G01 X23.85937 Y47.33280
G01 X23.90293 Y47.39801
G01 X23.97687 Y47.53631
G01 X24.00687 Y47.60875
G01 X24.05238 Y47.75884
G01 X24.06770 Y47.83572
G01 X24.08307 Y47.99181
G01 X24.08307 Y48.07022
G01 X24.06770 Y48.22630
G01 X24.05238 Y48.30319
G01 X24.00687 Y48.45327
G01 X23.97687 Y48.52572
G01 X23.90293 Y48.66402
G01 X23.85937 Y48.72922
G01 X23.75988 Y48.85045
G01 X23.70443 Y48.90590
G01 X23.58320 Y49.00539
G01 X23.51799 Y49.04896
G01 X23.37969 Y49.12290
G01 X23.30725 Y49.15289
G01 X23.15716 Y49.19841
G01 X23.08028 Y49.21373
G01 X22.92419 Y49.22909
G01 X22.84578 Y49.22909
G01 X22.68970 Y49.21373
G01 X22.61281 Y49.19841
G01 X22.46272 Y49.15289
G01 X22.39028 Y49.12290
G01 X22.25198 Y49.04896
G01 X22.18678 Y49.00539
G01 X22.06555 Y48.90590
G01 X22.01010 Y48.85045
G01 X21.91061 Y48.72922
G01 X21.86704 Y48.66402
G01 X21.79310 Y48.52572
G01 X21.76311 Y48.45327
G01 X21.71759 Y48.30319
G01 X21.70227 Y48.22630
G01 X21.68691 Y48.07022
G01 X21.68691 Y47.99181
G04 P0 ( dwell for no time -- G64 should not smooth over this point )
G00 Z3.50000 ( retract )

G00 X21.68691 Y44.43581 ( rapid move to begin. )
G01 F200.00000
( Mill infeed pass 1/1 )
G01 Z-0.20000
G04 P0 ( dwell for no time -- G64 should not smooth over this point )
G01 F400.00000
G01 X21.68691 Y44.43581
G01 X21.70227 Y44.27972
G01 X21.71759 Y44.20284
G01 X21.76311 Y44.05275
G01 X21.79310 Y43.98031
G01 X21.86704 Y43.84201
G01 X21.91061 Y43.77680
G01 X22.01010 Y43.65557
G01 X22.06555 Y43.60012
G01 X22.18678 Y43.50063
G01 X22.25198 Y43.45707
G01 X22.39028 Y43.38313
G01 X22.46272 Y43.35313
G01 X22.61281 Y43.30762
G01 X22.68970 Y43.29230
G01 X22.84578 Y43.27693
G01 X22.92419 Y43.27693
G01 X23.08028 Y43.29230
G01 X23.15716 Y43.30762
G01 X23.30725 Y43.35313
G01 X23.37969 Y43.38313
G01 X23.51799 Y43.45707
G01 X23.58320 Y43.50063
G01 X23.70443 Y43.60012
G01 X23.75988 Y43.65557
G01 X23.85937 Y43.77680
G01 X23.90293 Y43.84201
G01 X23.97687 Y43.98031
G01 X24.00687 Y44.05275
G01 X24.05238 Y44.20284
G01 X24.06770 Y44.27972
G01 X24.08307 Y44.43581
G01 X24.08307 Y44.51422
G01 X24.06770 Y44.67030
G01 X24.05238 Y44.74719
G01 X24.00687 Y44.89727
G01 X23.97687 Y44.96972
G01 X23.90293 Y45.10802
G01 X23.85937 Y45.17322
G01 X23.75988 Y45.29445
G01 X23.70443 Y45.34990
G01 X23.58320 Y45.44939
G01 X23.51799 Y45.49296
G01 X23.37969 Y45.56690
G01 X23.30725 Y45.59689
G01 X23.15716 Y45.64241
G01 X23.08028 Y45.65773
G01 X22.92419 Y45.67309
G01 X22.84578 Y45.67309
G01 X22.68970 Y45.65773
G01 X22.61281 Y45.64241
G01 X22.46272 Y45.59689
G01 X22.39028 Y45.56690
G01 X22.25198 Y45.49296
G01 X22.18678 Y45.44939
G01 X22.06555 Y45.34990
G01 X22.01010 Y45.29445
G01 X21.91061 Y45.17322
G01 X21.86704 Y45.10802
G01 X21.79310 Y44.96972
G01 X21.76311 Y44.89727
G01 X21.71759 Y44.74719
G01 X21.70227 Y44.67030
G01 X21.68691 Y44.51422
G01 X21.68691 Y44.43581
G04 P0 ( dwell for no time -- G64 should not smooth over this point )
G00 Z3.50000 ( retract )

G00 X26.53998 Y41.18501 ( rapid move to begin. )
G01 F200.00000
( Mill infeed pass 1/1 )
G01 Z-0.20000
G04 P0 ( dwell for no time -- G64 should not smooth over this point )
G01 F400.00000
G01 X26.53998 Y41.18501
G01 X26.53998 Y42.68501
G01 X26.54768 Y42.76304
G01 X26.57044 Y42.83810
G01 X26.60740 Y42.90724
G01 X26.65715 Y42.96787
G01 X26.71776 Y43.01760
G01 X26.78692 Y43.05456
G01 X26.86195 Y43.07731
G01 X26.93998 Y43.08501
G01 X28.43998 Y43.08501
G01 X28.51803 Y43.07731
G01 X28.59307 Y43.05456
G01 X28.66220 Y43.01760
G01 X28.72283 Y42.96787
G01 X28.77257 Y42.90724
G01 X28.80955 Y42.83810
G01 X28.83231 Y42.76304
G01 X28.83998 Y42.68501
G01 X28.83998 Y41.18501
G01 X28.83231 Y41.10699
G01 X28.80955 Y41.03193
G01 X28.77257 Y40.96279
G01 X28.72283 Y40.90216
G01 X28.66220 Y40.85243
G01 X28.59307 Y40.81547
G01 X28.51803 Y40.79271
G01 X28.43998 Y40.78501
G01 X26.93998 Y40.78501
G01 X26.86195 Y40.79271
G01 X26.78692 Y40.81547
G01 X26.71776 Y40.85243
G01 X26.65715 Y40.90216
G01 X26.60740 Y40.96279
G01 X26.57044 Y41.03193
G01 X26.54768 Y41.10699
G01 X26.53998 Y41.18501
G04 P0 ( dwell for no time -- G64 should not smooth over this point )
G00 Z3.50000 ( retract )

G00 X22.44098 Y38.58901 ( rapid move to begin. )
G01 F200.00000
( Mill infeed pass 1/1 )
G01 Z-0.20000
G04 P0 ( dwell for no time -- G64 should not smooth over this point )
G01 F400.00000
G01 X22.44098 Y38.58901
G01 X22.44098 Y39.43902
G01 X22.44868 Y39.51705
G01 X22.47144 Y39.59208
G01 X22.50839 Y39.66124
G01 X22.55815 Y39.72185
G01 X22.61876 Y39.77161
G01 X22.68792 Y39.80856
G01 X22.76295 Y39.83132
G01 X22.84098 Y39.83902
G01 X23.69099 Y39.83902
G01 X23.76902 Y39.83132
G01 X23.84405 Y39.80856
G01 X23.91322 Y39.77161
G01 X23.97382 Y39.72185
G01 X24.02358 Y39.66124
G01 X24.06054 Y39.59208
G01 X24.08330 Y39.51705
G01 X24.09099 Y39.43902
G01 X24.09099 Y38.58901
G01 X24.08330 Y38.51098
G01 X24.06054 Y38.43595
G01 X24.02358 Y38.36678
G01 X23.97382 Y38.30618
G01 X23.91322 Y38.25642
G01 X23.84405 Y38.21946
G01 X23.76902 Y38.19670
G01 X23.69099 Y38.18901
G01 X22.84098 Y38.18901
G01 X22.76295 Y38.19670
G01 X22.68792 Y38.21946
G01 X22.61876 Y38.25642
G01 X22.55815 Y38.30618
G01 X22.50839 Y38.36678
G01 X22.47144 Y38.43595
G01 X22.44868 Y38.51098
G01 X22.44098 Y38.58901
G04 P0 ( dwell for no time -- G64 should not smooth over this point )
G00 Z3.50000 ( retract )

G00 X21.68691 Y31.73581 ( rapid move to begin. )
G01 F200.00000
( Mill infeed pass 1/1 )
G01 Z-0.20000
G04 P0 ( dwell for no time -- G64 should not smooth over this point )
G01 F400.00000
G01 X21.68691 Y31.73581
G01 X21.68691 Y31.81422
G01 X21.70227 Y31.97030
G01 X21.71759 Y32.04719
G01 X21.76311 Y32.19727
G01 X21.79310 Y32.26972
G01 X21.86704 Y32.40802
G01 X21.91061 Y32.47322
G01 X22.01010 Y32.59445
G01 X22.06555 Y32.64990
G01 X22.18678 Y32.74939
G01 X22.25198 Y32.79296
G01 X22.39028 Y32.86690
G01 X22.46272 Y32.89689
G01 X22.61281 Y32.94241
G01 X22.68970 Y32.95773
G01 X22.84578 Y32.97309
G01 X22.92419 Y32.97309
G01 X23.08028 Y32.95773
G01 X23.15716 Y32.94241
G01 X23.30725 Y32.89689
G01 X23.37969 Y32.86690
G01 X23.51799 Y32.79296
G01 X23.58320 Y32.74939
G01 X23.70443 Y32.64990
G01 X23.75988 Y32.59445
G01 X23.85937 Y32.47322
G01 X23.90293 Y32.40802
G01 X23.97687 Y32.26972
G01 X24.00687 Y32.19727
G01 X24.05238 Y32.04719
G01 X24.06770 Y31.97030
G01 X24.08307 Y31.81422
G01 X24.08307 Y31.73581
G01 X24.06770 Y31.57972
G01 X24.05238 Y31.50284
G01 X24.00687 Y31.35275
G01 X23.97687 Y31.28031
G01 X23.90293 Y31.14201
G01 X23.85937 Y31.07680
G01 X23.75988 Y30.95557
G01 X23.70443 Y30.90012
G01 X23.58320 Y30.80063
G01 X23.51799 Y30.75707
G01 X23.37969 Y30.68313
G01 X23.30725 Y30.65313
G01 X23.15716 Y30.60762
G01 X23.08028 Y30.59230
G01 X22.92419 Y30.57693
G01 X22.84578 Y30.57693
G01 X22.68970 Y30.59230
G01 X22.61281 Y30.60762
G01 X22.46272 Y30.65313
G01 X22.39028 Y30.68313
G01 X22.25198 Y30.75707
G01 X22.18678 Y30.80063
G01 X22.06555 Y30.90012
G01 X22.01010 Y30.95557
G01 X21.91061 Y31.07680
G01 X21.86704 Y31.14201
G01 X21.79310 Y31.28031
G01 X21.76311 Y31.35275
G01 X21.71759 Y31.50284
G01 X21.70227 Y31.57972
G01 X21.68691 Y31.73581
G04 P0 ( dwell for no time -- G64 should not smooth over this point )
G00 Z3.50000 ( retract )

G00 X21.68691 Y27.92581 ( rapid move to begin. )
G01 F200.00000
( Mill infeed pass 1/1 )
G01 Z-0.20000
G04 P0 ( dwell for no time -- G64 should not smooth over this point )
G01 F400.00000
G01 X21.68691 Y27.92581
G01 X21.68691 Y28.00422
G01 X21.70227 Y28.16030
G01 X21.71759 Y28.23719
G01 X21.76311 Y28.38727
G01 X21.79310 Y28.45972
G01 X21.86704 Y28.59802
G01 X21.91061 Y28.66322
G01 X22.01010 Y28.78445
G01 X22.06555 Y28.83990
G01 X22.18678 Y28.93939
G01 X22.25198 Y28.98296
G01 X22.39028 Y29.05690
G01 X22.46272 Y29.08689
G01 X22.61281 Y29.13241
G01 X22.68970 Y29.14773
G01 X22.84578 Y29.16309
G01 X22.92419 Y29.16309
G01 X23.08028 Y29.14773
G01 X23.15716 Y29.13241
G01 X23.30725 Y29.08689
G01 X23.37969 Y29.05690
G01 X23.51799 Y28.98296
G01 X23.58320 Y28.93939
G01 X23.70443 Y28.83990
G01 X23.75988 Y28.78445
G01 X23.85937 Y28.66322
G01 X23.90293 Y28.59802
G01 X23.97687 Y28.45972
G01 X24.00687 Y28.38727
G01 X24.05238 Y28.23719
G01 X24.06770 Y28.16030
G01 X24.08307 Y28.00422
G01 X24.08307 Y27.92581
G01 X24.06770 Y27.76972
G01 X24.05238 Y27.69284
G01 X24.00687 Y27.54275
G01 X23.97687 Y27.47031
G01 X23.90293 Y27.33201
G01 X23.85937 Y27.26680
G01 X23.75988 Y27.14557
G01 X23.70443 Y27.09012
G01 X23.58320 Y26.99063
G01 X23.51799 Y26.94707
G01 X23.37969 Y26.87313
G01 X23.30725 Y26.84313
G01 X23.15716 Y26.79762
G01 X23.08028 Y26.78230
G01 X22.92419 Y26.76693
G01 X22.84578 Y26.76693
G01 X22.68970 Y26.78230
G01 X22.61281 Y26.79762
G01 X22.46272 Y26.84313
G01 X22.39028 Y26.87313
G01 X22.25198 Y26.94707
G01 X22.18678 Y26.99063
G01 X22.06555 Y27.09012
G01 X22.01010 Y27.14557
G01 X21.91061 Y27.26680
G01 X21.86704 Y27.33201
G01 X21.79310 Y27.47031
G01 X21.76311 Y27.54275
G01 X21.71759 Y27.69284
G01 X21.70227 Y27.76972
G01 X21.68691 Y27.92581
G04 P0 ( dwell for no time -- G64 should not smooth over this point )
G00 Z3.50000 ( retract )

G00 X26.53998 Y24.67501 ( rapid move to begin. )
G01 F200.00000
( Mill infeed pass 1/1 )
G01 Z-0.20000
G04 P0 ( dwell for no time -- G64 should not smooth over this point )
G01 F400.00000
G01 X26.53998 Y24.67501
G01 X26.53998 Y26.17501
G01 X26.54768 Y26.25304
G01 X26.57044 Y26.32810
G01 X26.60740 Y26.39724
G01 X26.65715 Y26.45787
G01 X26.71776 Y26.50760
G01 X26.78692 Y26.54456
G01 X26.86195 Y26.56731
G01 X26.93998 Y26.57501
G01 X28.43998 Y26.57501
G01 X28.51803 Y26.56731
G01 X28.59307 Y26.54456
G01 X28.66220 Y26.50760
G01 X28.72283 Y26.45787
G01 X28.77257 Y26.39724
G01 X28.80955 Y26.32810
G01 X28.83231 Y26.25304
G01 X28.83998 Y26.17501
G01 X28.83998 Y24.67501
G01 X28.83231 Y24.59699
G01 X28.80955 Y24.52193
G01 X28.77257 Y24.45279
G01 X28.72283 Y24.39216
G01 X28.66220 Y24.34243
G01 X28.59307 Y24.30547
G01 X28.51803 Y24.28271
G01 X28.43998 Y24.27501
G01 X26.93998 Y24.27501
G01 X26.86195 Y24.28271
G01 X26.78692 Y24.30547
G01 X26.71776 Y24.34243
G01 X26.65715 Y24.39216
G01 X26.60740 Y24.45279
G01 X26.57044 Y24.52193
G01 X26.54768 Y24.59699
G01 X26.53998 Y24.67501
G04 P0 ( dwell for no time -- G64 should not smooth over this point )
G00 Z3.50000 ( retract )

G00 X26.54191 Y27.92581 ( rapid move to begin. )
G01 F200.00000
( Mill infeed pass 1/1 )
G01 Z-0.20000
G04 P0 ( dwell for no time -- G64 should not smooth over this point )
G01 F400.00000
G01 X26.54191 Y27.92581
G01 X26.54191 Y28.00422
G01 X26.55632 Y28.15055
G01 X26.57163 Y28.22743
G01 X26.61430 Y28.36815
G01 X26.64430 Y28.44059
G01 X26.71362 Y28.57026
G01 X26.75718 Y28.63546
G01 X26.85045 Y28.74910
G01 X26.90590 Y28.80455
G01 X27.01956 Y28.89781
G01 X27.08476 Y28.94138
G01 X27.21440 Y29.01069
G01 X27.28687 Y29.04069
G01 X27.42756 Y29.08339
G01 X27.50447 Y29.09868
G01 X27.65078 Y29.11308
G01 X27.72919 Y29.11308
G01 X27.87552 Y29.09868
G01 X27.95243 Y29.08339
G01 X28.09312 Y29.04069
G01 X28.10681 Y29.03503
G01 X28.16556 Y29.01069
G01 X28.29523 Y28.94138
G01 X28.36043 Y28.89781
G01 X28.47407 Y28.80455
G01 X28.52951 Y28.74910
G01 X28.62278 Y28.63546
G01 X28.66637 Y28.57026
G01 X28.73566 Y28.44059
G01 X28.76568 Y28.36815
G01 X28.80836 Y28.22743
G01 X28.82365 Y28.15055
G01 X28.83805 Y28.00422
G01 X28.83805 Y27.92581
G01 X28.82365 Y27.77948
G01 X28.80836 Y27.70259
G01 X28.76568 Y27.56188
G01 X28.73566 Y27.48944
G01 X28.66637 Y27.35977
G01 X28.62278 Y27.29457
G01 X28.52951 Y27.18093
G01 X28.47407 Y27.12548
G01 X28.36043 Y27.03221
G01 X28.29523 Y26.98865
G01 X28.16556 Y26.91933
G01 X28.09312 Y26.88934
G01 X27.95243 Y26.84664
G01 X27.87552 Y26.83135
G01 X27.72919 Y26.81695
G01 X27.65078 Y26.81695
G01 X27.50447 Y26.83135
G01 X27.42756 Y26.84664
G01 X27.28687 Y26.88934
G01 X27.21440 Y26.91933
G01 X27.13264 Y26.96305
G01 X27.08476 Y26.98865
G01 X27.01956 Y27.03221
G01 X26.90590 Y27.12548
G01 X26.85045 Y27.18093
G01 X26.75718 Y27.29457
G01 X26.71362 Y27.35977
G01 X26.64430 Y27.48944
G01 X26.61430 Y27.56188
G01 X26.57163 Y27.70259
G01 X26.55632 Y27.77948
G01 X26.54191 Y27.92581
G04 P0 ( dwell for no time -- G64 should not smooth over this point )
G00 Z3.50000 ( retract )

G00 X26.54191 Y30.46581 ( rapid move to begin. )
G01 F200.00000
( Mill infeed pass 1/1 )
G01 Z-0.20000
G04 P0 ( dwell for no time -- G64 should not smooth over this point )
G01 F400.00000
G01 X26.54191 Y30.46581
G01 X26.54191 Y30.54422
G01 X26.55632 Y30.69055
G01 X26.57163 Y30.76743
G01 X26.61430 Y30.90815
G01 X26.64430 Y30.98059
G01 X26.71362 Y31.11026
G01 X26.75718 Y31.17546
G01 X26.85045 Y31.28910
G01 X26.90590 Y31.34455
G01 X27.01956 Y31.43781
G01 X27.08476 Y31.48138
G01 X27.21440 Y31.55069
G01 X27.28687 Y31.58069
G01 X27.42756 Y31.62339
G01 X27.50447 Y31.63868
G01 X27.65078 Y31.65308
G01 X27.72919 Y31.65308
G01 X27.87552 Y31.63868
G01 X27.95243 Y31.62339
G01 X28.09312 Y31.58069
G01 X28.16556 Y31.55069
G01 X28.29523 Y31.48138
G01 X28.36043 Y31.43781
G01 X28.47407 Y31.34455
G01 X28.52951 Y31.28910
G01 X28.62278 Y31.17546
G01 X28.66637 Y31.11026
G01 X28.73566 Y30.98059
G01 X28.76568 Y30.90815
G01 X28.80836 Y30.76743
G01 X28.82365 Y30.69055
G01 X28.83805 Y30.54422
G01 X28.83805 Y30.46581
G01 X28.82365 Y30.31948
G01 X28.80836 Y30.24259
G01 X28.76568 Y30.10188
G01 X28.73566 Y30.02944
G01 X28.66637 Y29.89977
G01 X28.62278 Y29.83457
G01 X28.52951 Y29.72093
G01 X28.47407 Y29.66548
G01 X28.36043 Y29.57221
G01 X28.29523 Y29.52865
G01 X28.16556 Y29.45933
G01 X28.09312 Y29.42934
G01 X27.95243 Y29.38664
G01 X27.87552 Y29.37135
G01 X27.72919 Y29.35695
G01 X27.65078 Y29.35695
G01 X27.50447 Y29.37135
G01 X27.42756 Y29.38664
G01 X27.28687 Y29.42934
G01 X27.27310 Y29.43502
G01 X27.21440 Y29.45933
G01 X27.08476 Y29.52865
G01 X27.01956 Y29.57221
G01 X26.90590 Y29.66548
G01 X26.85045 Y29.72093
G01 X26.75718 Y29.83457
G01 X26.71362 Y29.89977
G01 X26.64430 Y30.02944
G01 X26.61430 Y30.10188
G01 X26.57163 Y30.24259
G01 X26.55632 Y30.31948
G01 X26.54191 Y30.46581
G04 P0 ( dwell for no time -- G64 should not smooth over this point )
G00 Z3.50000 ( retract )

G00 X30.61191 Y33.64081 ( rapid move to begin. )
G01 F200.00000
( Mill infeed pass 1/1 )
G01 Z-0.20000
G04 P0 ( dwell for no time -- G64 should not smooth over this point )
G01 F400.00000
G01 X30.61191 Y33.64081
G01 X30.61191 Y33.71922
G01 X30.63881 Y33.99234
G01 X30.65412 Y34.06925
G01 X30.73378 Y34.33189
G01 X30.76378 Y34.40433
G01 X30.89316 Y34.64637
G01 X30.93672 Y34.71157
G01 X31.11084 Y34.92371
G01 X31.16629 Y34.97916
G01 X31.37843 Y35.15328
G01 X31.44363 Y35.19684
G01 X31.68567 Y35.32622
G01 X31.75811 Y35.35622
G01 X32.02075 Y35.43588
G01 X32.09766 Y35.45119
G01 X32.37078 Y35.47809
G01 X32.44919 Y35.47809
G01 X32.72232 Y35.45119
G01 X32.79923 Y35.43588
G01 X33.06187 Y35.35622
G01 X33.13431 Y35.32622
G01 X33.17987 Y35.30184
G01 X33.37634 Y35.19684
G01 X33.44154 Y35.15328
G01 X33.65369 Y34.97916
G01 X33.70913 Y34.92371
G01 X33.88325 Y34.71157
G01 X33.92681 Y34.64637
G01 X34.05620 Y34.40433
G01 X34.08620 Y34.33189
G01 X34.16585 Y34.06925
G01 X34.18117 Y33.99234
G01 X34.20807 Y33.71922
G01 X34.20807 Y33.64081
G01 X34.18117 Y33.36768
G01 X34.16585 Y33.29077
G01 X34.08620 Y33.02813
G01 X34.05620 Y32.95569
G01 X33.92681 Y32.71366
G01 X33.88325 Y32.64846
G01 X33.70913 Y32.43631
G01 X33.65369 Y32.38087
G01 X33.44154 Y32.20675
G01 X33.37634 Y32.16319
G01 X33.13431 Y32.03380
G01 X33.06187 Y32.00380
G01 X32.79923 Y31.92415
G01 X32.72232 Y31.90883
G01 X32.44919 Y31.88193
G01 X32.37078 Y31.88193
G01 X32.09766 Y31.90883
G01 X32.02075 Y31.92415
G01 X31.75811 Y32.00380
G01 X31.68567 Y32.03380
G01 X31.44363 Y32.16319
G01 X31.37843 Y32.20675
G01 X31.16629 Y32.38087
G01 X31.11084 Y32.43631
G01 X30.93672 Y32.64846
G01 X30.89316 Y32.71366
G01 X30.76378 Y32.95569
G01 X30.73378 Y33.02813
G01 X30.65412 Y33.29077
G01 X30.63881 Y33.36768
G01 X30.61191 Y33.64081
G04 P0 ( dwell for no time -- G64 should not smooth over this point )
G00 Z3.50000 ( retract )

G00 X30.60998 Y36.09000 ( rapid move to begin. )
G01 F200.00000
( Mill infeed pass 1/1 )
G01 Z-0.20000
G04 P0 ( dwell for no time -- G64 should not smooth over this point )
G01 F400.00000
G01 X30.60998 Y36.09000
G01 X30.60998 Y38.89002
G01 X30.61767 Y38.96805
G01 X30.64043 Y39.04308
G01 X30.67739 Y39.11225
G01 X30.72715 Y39.17285
G01 X30.78775 Y39.22261
G01 X30.85692 Y39.25957
G01 X30.93195 Y39.28233
G01 X31.00998 Y39.29002
G01 X33.81000 Y39.29002
G01 X33.88803 Y39.28233
G01 X33.96306 Y39.25957
G01 X34.03222 Y39.22261
G01 X34.09283 Y39.17285
G01 X34.14258 Y39.11225
G01 X34.17954 Y39.04308
G01 X34.20230 Y38.96805
G01 X34.21000 Y38.89002
G01 X34.21000 Y36.09000
G01 X34.20230 Y36.01197
G01 X34.17954 Y35.93694
G01 X34.14258 Y35.86778
G01 X34.09283 Y35.80717
G01 X34.03222 Y35.75742
G01 X33.96306 Y35.72046
G01 X33.88803 Y35.69770
G01 X33.81000 Y35.69000
G01 X31.00998 Y35.69000
G01 X30.93195 Y35.69770
G01 X30.85692 Y35.72046
G01 X30.78775 Y35.75742
G01 X30.72715 Y35.80717
G01 X30.67739 Y35.86778
G01 X30.64043 Y35.93694
G01 X30.61767 Y36.01197
G01 X30.60998 Y36.09000
G04 P0 ( dwell for no time -- G64 should not smooth over this point )
G00 Z3.50000 ( retract )

G00 X36.85800 Y39.03000 ( rapid move to begin. )
G01 F200.00000
( Mill infeed pass 1/1 )
G01 Z-0.20000
G04 P0 ( dwell for no time -- G64 should not smooth over this point )
G01 F400.00000
G01 X36.85800 Y39.03000
G01 X36.85800 Y41.03002
G01 X36.86567 Y41.10805
G01 X36.88843 Y41.18308
G01 X36.92541 Y41.25225
G01 X36.97514 Y41.31285
G01 X37.03577 Y41.36261
G01 X37.10491 Y41.39957
G01 X37.17994 Y41.42233
G01 X37.25800 Y41.43002
G01 X40.25799 Y41.43002
G01 X40.33602 Y41.42233
G01 X40.41105 Y41.39957
G01 X40.48022 Y41.36261
G01 X40.54082 Y41.31285
G01 X40.59058 Y41.25225
G01 X40.62754 Y41.18308
G01 X40.65029 Y41.10805
G01 X40.65799 Y41.03002
G01 X40.65799 Y39.03000
G01 X40.65029 Y38.95197
G01 X40.62754 Y38.87694
G01 X40.59058 Y38.80778
G01 X40.54082 Y38.74717
G01 X40.48022 Y38.69741
G01 X40.41105 Y38.66046
G01 X40.33602 Y38.63770
G01 X40.25799 Y38.63000
G01 X37.25800 Y38.63000
G01 X37.17994 Y38.63770
G01 X37.10491 Y38.66046
G01 X37.03577 Y38.69741
G01 X36.97514 Y38.74717
G01 X36.92541 Y38.80778
G01 X36.88843 Y38.87694
G01 X36.86567 Y38.95197
G01 X36.85800 Y39.03000
G04 P0 ( dwell for no time -- G64 should not smooth over this point )
G00 Z3.50000 ( retract )

G00 X36.85990 Y47.49082 ( rapid move to begin. )
G01 F200.00000
( Mill infeed pass 1/1 )
G01 Z-0.20000
G04 P0 ( dwell for no time -- G64 should not smooth over this point )
G01 F400.00000
G01 X36.85990 Y47.49082
G01 X36.87913 Y47.29572
G01 X36.89442 Y47.21881
G01 X36.95134 Y47.03121
G01 X36.98134 Y46.95876
G01 X37.07374 Y46.78589
G01 X37.11731 Y46.72069
G01 X37.24166 Y46.56915
G01 X37.29711 Y46.51371
G01 X37.44865 Y46.38935
G01 X37.51385 Y46.34579
G01 X37.68675 Y46.25336
G01 X37.75919 Y46.22336
G01 X37.94679 Y46.16646
G01 X38.02368 Y46.15115
G01 X38.21878 Y46.13194
G01 X38.25799 Y46.13001
G01 X39.25799 Y46.13001
G01 X39.29718 Y46.13194
G01 X39.49228 Y46.15115
G01 X39.56919 Y46.16646
G01 X39.75677 Y46.22336
G01 X39.82924 Y46.25336
G01 X40.00211 Y46.34579
G01 X40.06731 Y46.38935
G01 X40.21885 Y46.51371
G01 X40.27430 Y46.56915
G01 X40.39866 Y46.72069
G01 X40.44222 Y46.78589
G01 X40.53465 Y46.95876
G01 X40.56464 Y47.03121
G01 X40.62154 Y47.21881
G01 X40.63686 Y47.29572
G01 X40.65606 Y47.49082
G01 X40.65606 Y47.56923
G01 X40.63686 Y47.76430
G01 X40.62154 Y47.84121
G01 X40.56464 Y48.02882
G01 X40.53465 Y48.10126
G01 X40.44222 Y48.27415
G01 X40.39866 Y48.33933
G01 X40.27430 Y48.49087
G01 X40.21885 Y48.54632
G01 X40.06731 Y48.67070
G01 X40.00211 Y48.71426
G01 X39.82924 Y48.80667
G01 X39.75677 Y48.83666
G01 X39.56919 Y48.89358
G01 X39.49228 Y48.90887
G01 X39.29718 Y48.92808
G01 X39.25799 Y48.93001
G01 X38.25799 Y48.93001
G01 X38.21878 Y48.92808
G01 X38.02368 Y48.90887
G01 X37.94679 Y48.89358
G01 X37.75919 Y48.83666
G01 X37.68675 Y48.80667
G01 X37.51385 Y48.71426
G01 X37.44865 Y48.67070
G01 X37.29711 Y48.54632
G01 X37.24166 Y48.49087
G01 X37.11731 Y48.33933
G01 X37.07374 Y48.27415
G01 X36.98134 Y48.10126
G01 X36.95134 Y48.02882
G01 X36.89442 Y47.84121
G01 X36.87913 Y47.76430
G01 X36.85990 Y47.56923
G01 X36.85990 Y47.49082
G04 P0 ( dwell for no time -- G64 should not smooth over this point )
G00 Z3.50000 ( retract )

G00 X36.85998 Y55.54000 ( rapid move to begin. )
G01 F200.00000
( Mill infeed pass 1/1 )
G01 Z-0.20000
G04 P0 ( dwell for no time -- G64 should not smooth over this point )
G01 F400.00000
G01 X36.85998 Y55.54000
G01 X36.86767 Y55.46200
G01 X36.89043 Y55.38694
G01 X36.92739 Y55.31780
G01 X36.97715 Y55.25720
G01 X37.03775 Y55.20741
G01 X37.10692 Y55.17046
G01 X37.18195 Y55.14770
G01 X37.25998 Y55.14003
G01 X40.26000 Y55.14003
G01 X40.33803 Y55.14770
G01 X40.41306 Y55.17046
G01 X40.48222 Y55.20741
G01 X40.54283 Y55.25720
G01 X40.59258 Y55.31780
G01 X40.62954 Y55.38694
G01 X40.65230 Y55.46200
G01 X40.66000 Y55.54000
G01 X40.66000 Y57.54002
G01 X40.65230 Y57.61805
G01 X40.62954 Y57.69308
G01 X40.59258 Y57.76225
G01 X40.54283 Y57.82285
G01 X40.48222 Y57.87261
G01 X40.41306 Y57.90957
G01 X40.33803 Y57.93233
G01 X40.26000 Y57.94002
G01 X37.25998 Y57.94002
G01 X37.18195 Y57.93233
G01 X37.10692 Y57.90957
G01 X37.03775 Y57.87261
G01 X36.97715 Y57.82285
G01 X36.92739 Y57.76225
G01 X36.89043 Y57.69308
G01 X36.86767 Y57.61805
G01 X36.85998 Y57.54002
G01 X36.85998 Y55.54000
G04 P0 ( dwell for no time -- G64 should not smooth over this point )
G00 Z3.50000 ( retract )

G00 X36.86191 Y64.00082 ( rapid move to begin. )
G01 F200.00000
( Mill infeed pass 1/1 )
G01 Z-0.20000
G04 P0 ( dwell for no time -- G64 should not smooth over this point )
G01 F400.00000
G01 X36.86191 Y64.00082
G01 X36.88114 Y63.80572
G01 X36.89643 Y63.72881
G01 X36.95332 Y63.54121
G01 X36.98335 Y63.46876
G01 X37.07575 Y63.29589
G01 X37.11931 Y63.23069
G01 X37.24367 Y63.07915
G01 X37.29912 Y63.02371
G01 X37.45066 Y62.89935
G01 X37.51586 Y62.85579
G01 X37.68875 Y62.76336
G01 X37.76120 Y62.73336
G01 X37.94877 Y62.67646
G01 X38.02569 Y62.66115
G01 X38.22078 Y62.64194
G01 X38.25998 Y62.64001
G01 X39.26000 Y62.64001
G01 X39.29919 Y62.64194
G01 X39.49429 Y62.66115
G01 X39.57120 Y62.67646
G01 X39.75878 Y62.73336
G01 X39.83122 Y62.76336
G01 X40.00412 Y62.85579
G01 X40.06932 Y62.89935
G01 X40.22086 Y63.02371
G01 X40.27630 Y63.07915
G01 X40.40066 Y63.23069
G01 X40.44422 Y63.29589
G01 X40.53663 Y63.46876
G01 X40.56665 Y63.54121
G01 X40.62355 Y63.72881
G01 X40.63884 Y63.80572
G01 X40.65807 Y64.00082
G01 X40.65807 Y64.07923
G01 X40.63884 Y64.27430
G01 X40.62355 Y64.35121
G01 X40.56665 Y64.53882
G01 X40.53663 Y64.61126
G01 X40.44422 Y64.78415
G01 X40.40066 Y64.84933
G01 X40.27630 Y65.00087
G01 X40.22086 Y65.05632
G01 X40.06932 Y65.18070
G01 X40.00412 Y65.22426
G01 X39.83122 Y65.31667
G01 X39.75878 Y65.34666
G01 X39.57120 Y65.40358
G01 X39.49429 Y65.41887
G01 X39.29919 Y65.43808
G01 X39.26000 Y65.44001
G01 X38.25998 Y65.44001
G01 X38.22078 Y65.43808
G01 X38.02569 Y65.41887
G01 X37.94877 Y65.40358
G01 X37.76120 Y65.34666
G01 X37.68875 Y65.31667
G01 X37.51586 Y65.22426
G01 X37.45066 Y65.18070
G01 X37.29912 Y65.05632
G01 X37.24367 Y65.00087
G01 X37.11931 Y64.84933
G01 X37.07575 Y64.78415
G01 X36.98335 Y64.61126
G01 X36.95332 Y64.53882
G01 X36.89643 Y64.35121
G01 X36.88114 Y64.27430
G01 X36.86191 Y64.07923
G01 X36.86191 Y64.00082
G04 P0 ( dwell for no time -- G64 should not smooth over this point )
G00 Z3.50000 ( retract )

G00 X42.18199 Y71.03001 ( rapid move to begin. )
G01 F200.00000
( Mill infeed pass 1/1 )
G01 Z-0.20000
G04 P0 ( dwell for no time -- G64 should not smooth over this point )
G01 F400.00000
G01 X42.18199 Y71.03001
G01 X42.18969 Y70.95199
G01 X42.21244 Y70.87693
G01 X42.24940 Y70.80779
G01 X42.29913 Y70.74716
G01 X42.35976 Y70.69743
G01 X42.42890 Y70.66047
G01 X42.50396 Y70.63771
G01 X42.58199 Y70.63001
G01 X44.08199 Y70.63001
G01 X44.16001 Y70.63771
G01 X44.23507 Y70.66047
G01 X44.30421 Y70.69743
G01 X44.36484 Y70.74716
G01 X44.41457 Y70.80779
G01 X44.45153 Y70.87693
G01 X44.47429 Y70.95199
G01 X44.48198 Y71.03001
G01 X44.48198 Y72.53001
G01 X44.47429 Y72.60804
G01 X44.45153 Y72.68310
G01 X44.41457 Y72.75224
G01 X44.36484 Y72.81287
G01 X44.30421 Y72.86260
G01 X44.23507 Y72.89956
G01 X44.16001 Y72.92231
G01 X44.08199 Y72.93001
G01 X42.58199 Y72.93001
G01 X42.50396 Y72.92231
G01 X42.42890 Y72.89956
G01 X42.35976 Y72.86260
G01 X42.29913 Y72.81287
G01 X42.24940 Y72.75224
G01 X42.21244 Y72.68310
G01 X42.18969 Y72.60804
G01 X42.18199 Y72.53001
G01 X42.18199 Y71.03001
G04 P0 ( dwell for no time -- G64 should not smooth over this point )
G00 Z3.50000 ( retract )

G00 X47.02191 Y71.74081 ( rapid move to begin. )
G01 F200.00000
( Mill infeed pass 1/1 )
G01 Z-0.20000
G04 P0 ( dwell for no time -- G64 should not smooth over this point )
G01 F400.00000
G01 X47.02191 Y71.74081
G01 X47.05074 Y71.44817
G01 X47.06603 Y71.37126
G01 X47.15140 Y71.08988
G01 X47.18140 Y71.01744
G01 X47.32000 Y70.75811
G01 X47.36359 Y70.69291
G01 X47.55013 Y70.46560
G01 X47.60558 Y70.41015
G01 X47.83288 Y70.22361
G01 X47.89808 Y70.18003
G01 X48.15742 Y70.04142
G01 X48.22986 Y70.01142
G01 X48.51124 Y69.92605
G01 X48.58815 Y69.91076
G01 X48.88078 Y69.88193
G01 X48.95919 Y69.88193
G01 X49.25183 Y69.91076
G01 X49.32874 Y69.92605
G01 X49.61012 Y70.01142
G01 X49.68256 Y70.04142
G01 X49.94189 Y70.18003
G01 X50.00709 Y70.22361
G01 X50.23440 Y70.41015
G01 X50.28985 Y70.46560
G01 X50.47638 Y70.69291
G01 X50.51997 Y70.75811
G01 X50.65858 Y71.01744
G01 X50.68858 Y71.08988
G01 X50.77395 Y71.37126
G01 X50.78924 Y71.44817
G01 X50.81807 Y71.74081
G01 X50.81807 Y71.81922
G01 X50.78924 Y72.11185
G01 X50.77395 Y72.18876
G01 X50.68858 Y72.47014
G01 X50.65858 Y72.54258
G01 X50.51997 Y72.80192
G01 X50.47638 Y72.86712
G01 X50.28985 Y73.09442
G01 X50.23440 Y73.14987
G01 X50.00709 Y73.33641
G01 X49.94189 Y73.38000
G01 X49.68256 Y73.51860
G01 X49.61012 Y73.54860
G01 X49.32874 Y73.63397
G01 X49.25183 Y73.64926
G01 X48.95919 Y73.67809
G01 X48.88078 Y73.67809
G01 X48.58815 Y73.64926
G01 X48.51124 Y73.63397
G01 X48.22986 Y73.54860
G01 X48.15742 Y73.51860
G01 X47.89808 Y73.38000
G01 X47.83288 Y73.33641
G01 X47.60558 Y73.14987
G01 X47.55013 Y73.09442
G01 X47.36359 Y72.86712
G01 X47.32000 Y72.80192
G01 X47.18140 Y72.54258
G01 X47.15140 Y72.47014
G01 X47.06603 Y72.18876
G01 X47.05074 Y72.11185
G01 X47.02191 Y71.81922
G01 X47.02191 Y71.74081
G04 P0 ( dwell for no time -- G64 should not smooth over this point )
G00 Z3.50000 ( retract )

G00 X52.09998 Y70.28000 ( rapid move to begin. )
G01 F200.00000
( Mill infeed pass 1/1 )
G01 Z-0.20000
G04 P0 ( dwell for no time -- G64 should not smooth over this point )
G01 F400.00000
G01 X52.09998 Y70.28000
G01 X52.10767 Y70.20197
G01 X52.13043 Y70.12694
G01 X52.16739 Y70.05778
G01 X52.21715 Y69.99717
G01 X52.27775 Y69.94742
G01 X52.34692 Y69.91046
G01 X52.42195 Y69.88770
G01 X52.49998 Y69.88000
G01 X55.50000 Y69.88000
G01 X55.57803 Y69.88770
G01 X55.65306 Y69.91046
G01 X55.72222 Y69.94742
G01 X55.78283 Y69.99717
G01 X55.83258 Y70.05778
G01 X55.86954 Y70.12694
G01 X55.89230 Y70.20197
G01 X55.90000 Y70.28000
G01 X55.90000 Y73.28002
G01 X55.89230 Y73.35805
G01 X55.86954 Y73.43308
G01 X55.83258 Y73.50225
G01 X55.78283 Y73.56285
G01 X55.72222 Y73.61261
G01 X55.65306 Y73.64957
G01 X55.57803 Y73.67233
G01 X55.50000 Y73.68002
G01 X52.49998 Y73.68002
G01 X52.42195 Y73.67233
G01 X52.34692 Y73.64957
G01 X52.27775 Y73.61261
G01 X52.21715 Y73.56285
G01 X52.16739 Y73.50225
G01 X52.13043 Y73.43308
G01 X52.10767 Y73.35805
G01 X52.09998 Y73.28002
G01 X52.09998 Y70.28000
G04 P0 ( dwell for no time -- G64 should not smooth over this point )
G00 Z3.50000 ( retract )

G00 X52.61999 Y63.54001 ( rapid move to begin. )
G01 F200.00000
( Mill infeed pass 1/1 )
G01 Z-0.20000
G04 P0 ( dwell for no time -- G64 should not smooth over this point )
G01 F400.00000
G01 X52.61999 Y63.54001
G01 X52.61999 Y64.54001
G01 X52.62192 Y64.57923
G01 X52.64113 Y64.77430
G01 X52.65642 Y64.85121
G01 X52.71334 Y65.03881
G01 X52.74334 Y65.11126
G01 X52.83574 Y65.28415
G01 X52.87930 Y65.34933
G01 X53.00368 Y65.50087
G01 X53.05913 Y65.55631
G01 X53.21067 Y65.68070
G01 X53.27585 Y65.72426
G01 X53.44874 Y65.81666
G01 X53.52118 Y65.84666
G01 X53.70879 Y65.90358
G01 X53.78570 Y65.91887
G01 X53.98077 Y65.93808
G01 X54.05918 Y65.93808
G01 X54.25428 Y65.91887
G01 X54.33119 Y65.90358
G01 X54.51879 Y65.84666
G01 X54.59124 Y65.81666
G01 X54.76411 Y65.72426
G01 X54.82931 Y65.68070
G01 X54.98085 Y65.55631
G01 X55.03629 Y65.50087
G01 X55.16065 Y65.34933
G01 X55.20421 Y65.28415
G01 X55.29664 Y65.11126
G01 X55.32664 Y65.03881
G01 X55.38354 Y64.85121
G01 X55.39885 Y64.77430
G01 X55.41806 Y64.57923
G01 X55.41999 Y64.54001
G01 X55.41999 Y63.54001
G01 X55.41806 Y63.50079
G01 X55.39885 Y63.30572
G01 X55.38354 Y63.22881
G01 X55.32664 Y63.04121
G01 X55.29664 Y62.96877
G01 X55.20421 Y62.79589
G01 X55.16065 Y62.73069
G01 X55.03629 Y62.57915
G01 X54.98085 Y62.52371
G01 X54.82931 Y62.39935
G01 X54.76411 Y62.35579
G01 X54.59124 Y62.26336
G01 X54.51879 Y62.23336
G01 X54.33119 Y62.17646
G01 X54.25428 Y62.16115
G01 X54.05918 Y62.14194
G01 X53.98077 Y62.14194
G01 X53.78570 Y62.16115
G01 X53.70879 Y62.17646
G01 X53.52118 Y62.23336
G01 X53.44874 Y62.26336
G01 X53.27585 Y62.35579
G01 X53.21067 Y62.39935
G01 X53.05913 Y62.52371
G01 X53.00368 Y62.57915
G01 X52.87930 Y62.73069
G01 X52.83574 Y62.79589
G01 X52.74334 Y62.96877
G01 X52.71334 Y63.04121
G01 X52.65642 Y63.22881
G01 X52.64113 Y63.30572
G01 X52.62192 Y63.50079
G01 X52.61999 Y63.54001
G04 P0 ( dwell for no time -- G64 should not smooth over this point )
G00 Z3.50000 ( retract )

G00 X57.65999 Y63.54001 ( rapid move to begin. )
G01 F200.00000
( Mill infeed pass 1/1 )
G01 Z-0.20000
G04 P0 ( dwell for no time -- G64 should not smooth over this point )
G01 F400.00000
G01 X57.65999 Y63.54001
G01 X57.65999 Y64.54001
G01 X57.66192 Y64.57923
G01 X57.68112 Y64.77430
G01 X57.69644 Y64.85121
G01 X57.75333 Y65.03881
G01 X57.78333 Y65.11126
G01 X57.87576 Y65.28415
G01 X57.91932 Y65.34933
G01 X58.04368 Y65.50087
G01 X58.09913 Y65.55631
G01 X58.25066 Y65.68070
G01 X58.31587 Y65.72426
G01 X58.48874 Y65.81666
G01 X58.56118 Y65.84666
G01 X58.74878 Y65.90358
G01 X58.82570 Y65.91887
G01 X59.02079 Y65.93808
G01 X59.09920 Y65.93808
G01 X59.29427 Y65.91887
G01 X59.37119 Y65.90358
G01 X59.55879 Y65.84666
G01 X59.63123 Y65.81666
G01 X59.80413 Y65.72426
G01 X59.86931 Y65.68070
G01 X60.02084 Y65.55631
G01 X60.07629 Y65.50087
G01 X60.20067 Y65.34933
G01 X60.24423 Y65.28415
G01 X60.33664 Y65.11126
G01 X60.36664 Y65.03881
G01 X60.42356 Y64.85121
G01 X60.43885 Y64.77430
G01 X60.45805 Y64.57923
G01 X60.45998 Y64.54001
G01 X60.45998 Y63.54001
G01 X60.45805 Y63.50079
G01 X60.43885 Y63.30572
G01 X60.42356 Y63.22881
G01 X60.36664 Y63.04121
G01 X60.33664 Y62.96877
G01 X60.24423 Y62.79589
G01 X60.20067 Y62.73069
G01 X60.07629 Y62.57915
G01 X60.02084 Y62.52371
G01 X59.86931 Y62.39935
G01 X59.80413 Y62.35579
G01 X59.63123 Y62.26336
G01 X59.55879 Y62.23336
G01 X59.37119 Y62.17646
G01 X59.29427 Y62.16115
G01 X59.09920 Y62.14194
G01 X59.02079 Y62.14194
G01 X58.82570 Y62.16115
G01 X58.74878 Y62.17646
G01 X58.56118 Y62.23336
G01 X58.48874 Y62.26336
G01 X58.31587 Y62.35579
G01 X58.25066 Y62.39935
G01 X58.09913 Y62.52371
G01 X58.04368 Y62.57915
G01 X57.91932 Y62.73069
G01 X57.87576 Y62.79589
G01 X57.78333 Y62.96877
G01 X57.75333 Y63.04121
G01 X57.69644 Y63.22881
G01 X57.68112 Y63.30572
G01 X57.66192 Y63.50079
G01 X57.65999 Y63.54001
G04 P0 ( dwell for no time -- G64 should not smooth over this point )
G00 Z3.50000 ( retract )

G00 X62.69998 Y63.54001 ( rapid move to begin. )
G01 F200.00000
( Mill infeed pass 1/1 )
G01 Z-0.20000
G04 P0 ( dwell for no time -- G64 should not smooth over this point )
G01 F400.00000
G01 X62.69998 Y63.54001
G01 X62.69998 Y64.54001
G01 X62.70191 Y64.57923
G01 X62.72114 Y64.77430
G01 X62.73643 Y64.85121
G01 X62.79333 Y65.03881
G01 X62.82335 Y65.11126
G01 X62.91576 Y65.28415
G01 X62.95932 Y65.34933
G01 X63.08368 Y65.50087
G01 X63.13912 Y65.55631
G01 X63.29066 Y65.68070
G01 X63.35586 Y65.72426
G01 X63.52873 Y65.81666
G01 X63.60120 Y65.84666
G01 X63.78878 Y65.90358
G01 X63.86569 Y65.91887
G01 X64.06079 Y65.93808
G01 X64.13920 Y65.93808
G01 X64.33429 Y65.91887
G01 X64.41118 Y65.90358
G01 X64.59878 Y65.84666
G01 X64.67123 Y65.81666
G01 X64.84412 Y65.72426
G01 X64.90933 Y65.68070
G01 X65.06086 Y65.55631
G01 X65.11631 Y65.50087
G01 X65.24067 Y65.34933
G01 X65.28423 Y65.28415
G01 X65.37663 Y65.11126
G01 X65.40663 Y65.03881
G01 X65.46355 Y64.85121
G01 X65.47884 Y64.77430
G01 X65.49807 Y64.57923
G01 X65.49998 Y64.54001
G01 X65.49998 Y63.54001
G01 X65.49807 Y63.50079
G01 X65.47884 Y63.30572
G01 X65.46355 Y63.22881
G01 X65.40663 Y63.04121
G01 X65.37663 Y62.96877
G01 X65.28423 Y62.79589
G01 X65.24067 Y62.73069
G01 X65.11631 Y62.57915
G01 X65.06086 Y62.52371
G01 X64.90933 Y62.39935
G01 X64.84412 Y62.35579
G01 X64.67123 Y62.26336
G01 X64.59878 Y62.23336
G01 X64.41118 Y62.17646
G01 X64.33429 Y62.16115
G01 X64.13920 Y62.14194
G01 X64.06079 Y62.14194
G01 X63.86569 Y62.16115
G01 X63.78878 Y62.17646
G01 X63.60120 Y62.23336
G01 X63.52873 Y62.26336
G01 X63.35586 Y62.35579
G01 X63.29066 Y62.39935
G01 X63.13912 Y62.52371
G01 X63.08368 Y62.57915
G01 X62.95932 Y62.73069
G01 X62.91576 Y62.79589
G01 X62.82335 Y62.96877
G01 X62.79333 Y63.04121
G01 X62.73643 Y63.22881
G01 X62.72114 Y63.30572
G01 X62.70191 Y63.50079
G01 X62.69998 Y63.54001
G04 P0 ( dwell for no time -- G64 should not smooth over this point )
G00 Z3.50000 ( retract )

G00 X62.26191 Y71.74081 ( rapid move to begin. )
G01 F200.00000
( Mill infeed pass 1/1 )
G01 Z-0.20000
G04 P0 ( dwell for no time -- G64 should not smooth over this point )
G01 F400.00000
G01 X62.26191 Y71.74081
G01 X62.29074 Y71.44817
G01 X62.30603 Y71.37126
G01 X62.39140 Y71.08988
G01 X62.42140 Y71.01744
G01 X62.56000 Y70.75811
G01 X62.60359 Y70.69291
G01 X62.79013 Y70.46560
G01 X62.84558 Y70.41015
G01 X63.07288 Y70.22361
G01 X63.13808 Y70.18003
G01 X63.39742 Y70.04142
G01 X63.46986 Y70.01142
G01 X63.75124 Y69.92605
G01 X63.82815 Y69.91076
G01 X64.12078 Y69.88193
G01 X64.19919 Y69.88193
G01 X64.49183 Y69.91076
G01 X64.56874 Y69.92605
G01 X64.85012 Y70.01142
G01 X64.92256 Y70.04142
G01 X65.18189 Y70.18003
G01 X65.24709 Y70.22361
G01 X65.47440 Y70.41015
G01 X65.52985 Y70.46560
G01 X65.71639 Y70.69291
G01 X65.75997 Y70.75811
G01 X65.89858 Y71.01744
G01 X65.92858 Y71.08988
G01 X66.01395 Y71.37126
G01 X66.02924 Y71.44817
G01 X66.05807 Y71.74081
G01 X66.05807 Y71.81922
G01 X66.02924 Y72.11185
G01 X66.01395 Y72.18876
G01 X65.92858 Y72.47014
G01 X65.89858 Y72.54258
G01 X65.75997 Y72.80192
G01 X65.71639 Y72.86712
G01 X65.52985 Y73.09442
G01 X65.47440 Y73.14987
G01 X65.24709 Y73.33641
G01 X65.18189 Y73.38000
G01 X64.92256 Y73.51860
G01 X64.85012 Y73.54860
G01 X64.56874 Y73.63397
G01 X64.49183 Y73.64926
G01 X64.19919 Y73.67809
G01 X64.12078 Y73.67809
G01 X63.82815 Y73.64926
G01 X63.75124 Y73.63397
G01 X63.46986 Y73.54860
G01 X63.39742 Y73.51860
G01 X63.13808 Y73.38000
G01 X63.07288 Y73.33641
G01 X62.84558 Y73.14987
G01 X62.79013 Y73.09442
G01 X62.60359 Y72.86712
G01 X62.56000 Y72.80192
G01 X62.42140 Y72.54258
G01 X62.39140 Y72.47014
G01 X62.30603 Y72.18876
G01 X62.29074 Y72.11185
G01 X62.26191 Y71.81922
G01 X62.26191 Y71.74081
G04 P0 ( dwell for no time -- G64 should not smooth over this point )
G00 Z3.50000 ( retract )

G00 X67.33998 Y70.28000 ( rapid move to begin. )
G01 F200.00000
( Mill infeed pass 1/1 )
G01 Z-0.20000
G04 P0 ( dwell for no time -- G64 should not smooth over this point )
G01 F400.00000
G01 X67.33998 Y70.28000
G01 X67.34767 Y70.20197
G01 X67.37043 Y70.12694
G01 X67.40739 Y70.05778
G01 X67.45715 Y69.99717
G01 X67.51775 Y69.94742
G01 X67.58692 Y69.91046
G01 X67.66195 Y69.88770
G01 X67.73998 Y69.88000
G01 X70.74000 Y69.88000
G01 X70.81803 Y69.88770
G01 X70.89306 Y69.91046
G01 X70.96222 Y69.94742
G01 X71.02283 Y69.99717
G01 X71.07258 Y70.05778
G01 X71.10954 Y70.12694
G01 X71.13230 Y70.20197
G01 X71.14000 Y70.28000
G01 X71.14000 Y73.28002
G01 X71.13230 Y73.35805
G01 X71.10954 Y73.43308
G01 X71.07258 Y73.50225
G01 X71.02283 Y73.56285
G01 X70.96222 Y73.61261
G01 X70.89306 Y73.64957
G01 X70.81803 Y73.67233
G01 X70.74000 Y73.68002
G01 X67.73998 Y73.68002
G01 X67.66195 Y73.67233
G01 X67.58692 Y73.64957
G01 X67.51775 Y73.61261
G01 X67.45715 Y73.56285
G01 X67.40739 Y73.50225
G01 X67.37043 Y73.43308
G01 X67.34767 Y73.35805
G01 X67.33998 Y73.28002
G01 X67.33998 Y70.28000
G04 P0 ( dwell for no time -- G64 should not smooth over this point )
G00 Z3.50000 ( retract )

G00 X74.12998 Y71.35501 ( rapid move to begin. )
G01 F200.00000
( Mill infeed pass 1/1 )
G01 Z-0.20000
G04 P0 ( dwell for no time -- G64 should not smooth over this point )
G01 F400.00000
G01 X74.12998 Y71.35501
G01 X74.12998 Y72.20502
G01 X74.13768 Y72.28305
G01 X74.16044 Y72.35808
G01 X74.19739 Y72.42724
G01 X74.24715 Y72.48785
G01 X74.30776 Y72.53761
G01 X74.37692 Y72.57456
G01 X74.45195 Y72.59732
G01 X74.52998 Y72.60502
G01 X75.37999 Y72.60502
G01 X75.45802 Y72.59732
G01 X75.53305 Y72.57456
G01 X75.60222 Y72.53761
G01 X75.66282 Y72.48785
G01 X75.71258 Y72.42724
G01 X75.74954 Y72.35808
G01 X75.77230 Y72.28305
G01 X75.77999 Y72.20502
G01 X75.77999 Y71.35501
G01 X75.77230 Y71.27698
G01 X75.74954 Y71.20195
G01 X75.71258 Y71.13278
G01 X75.66282 Y71.07218
G01 X75.60222 Y71.02242
G01 X75.53305 Y70.98546
G01 X75.45802 Y70.96270
G01 X75.37999 Y70.95501
G01 X74.52998 Y70.95501
G01 X74.45195 Y70.96270
G01 X74.37692 Y70.98546
G01 X74.30776 Y71.02242
G01 X74.24715 Y71.07218
G01 X74.19739 Y71.13278
G01 X74.16044 Y71.20195
G01 X74.13768 Y71.27698
G01 X74.12998 Y71.35501
G04 P0 ( dwell for no time -- G64 should not smooth over this point )
G00 Z3.50000 ( retract )

G00 X70.81498 Y64.86500 ( rapid move to begin. )
G01 F200.00000
( Mill infeed pass 1/1 )
G01 Z-0.20000
G04 P0 ( dwell for no time -- G64 should not smooth over this point )
G01 F400.00000
G01 X70.81498 Y64.86500
G01 X70.81498 Y67.26502
G01 X70.82267 Y67.34305
G01 X70.84543 Y67.41808
G01 X70.88239 Y67.48725
G01 X70.93215 Y67.54785
G01 X70.99275 Y67.59761
G01 X71.06192 Y67.63457
G01 X71.13695 Y67.65733
G01 X71.21498 Y67.66502
G01 X73.61500 Y67.66502
G01 X73.69303 Y67.65733
G01 X73.76806 Y67.63457
G01 X73.83722 Y67.59761
G01 X73.89783 Y67.54785
G01 X73.94759 Y67.48725
G01 X73.98454 Y67.41808
G01 X74.00730 Y67.34305
G01 X74.01500 Y67.26502
G01 X74.01500 Y64.86500
G01 X74.00730 Y64.78697
G01 X73.98454 Y64.71194
G01 X73.94759 Y64.64278
G01 X73.89783 Y64.58217
G01 X73.83722 Y64.53241
G01 X73.76806 Y64.49546
G01 X73.69303 Y64.47270
G01 X73.61500 Y64.46500
G01 X71.21498 Y64.46500
G01 X71.13695 Y64.47270
G01 X71.06192 Y64.49546
G01 X70.99275 Y64.53241
G01 X70.93215 Y64.58217
G01 X70.88239 Y64.64278
G01 X70.84543 Y64.71194
G01 X70.82267 Y64.78697
G01 X70.81498 Y64.86500
G04 P0 ( dwell for no time -- G64 should not smooth over this point )
G00 Z3.50000 ( retract )

G00 X76.52998 Y59.78500 ( rapid move to begin. )
G01 F200.00000
( Mill infeed pass 1/1 )
G01 Z-0.20000
G04 P0 ( dwell for no time -- G64 should not smooth over this point )
G01 F400.00000
G01 X76.52998 Y59.78500
G01 X76.52998 Y62.18502
G01 X76.53767 Y62.26305
G01 X76.56043 Y62.33808
G01 X76.59739 Y62.40725
G01 X76.64715 Y62.46785
G01 X76.70775 Y62.51761
G01 X76.77692 Y62.55457
G01 X76.85195 Y62.57733
G01 X76.92998 Y62.58502
G01 X79.33000 Y62.58502
G01 X79.40803 Y62.57733
G01 X79.48306 Y62.55457
G01 X79.55222 Y62.51761
G01 X79.61283 Y62.46785
G01 X79.66259 Y62.40725
G01 X79.69954 Y62.33808
G01 X79.72230 Y62.26305
G01 X79.73000 Y62.18502
G01 X79.73000 Y59.78500
G01 X79.72230 Y59.70697
G01 X79.69954 Y59.63194
G01 X79.66259 Y59.56278
G01 X79.61283 Y59.50217
G01 X79.55222 Y59.45241
G01 X79.48306 Y59.41546
G01 X79.40803 Y59.39270
G01 X79.33000 Y59.38500
G01 X76.92998 Y59.38500
G01 X76.85195 Y59.39270
G01 X76.77692 Y59.41546
G01 X76.70775 Y59.45241
G01 X76.64715 Y59.50217
G01 X76.59739 Y59.56278
G01 X76.56043 Y59.63194
G01 X76.53767 Y59.70697
G01 X76.52998 Y59.78500
G04 P0 ( dwell for no time -- G64 should not smooth over this point )
G00 Z3.50000 ( retract )

G00 X87.96191 Y60.94581 ( rapid move to begin. )
G01 F200.00000
( Mill infeed pass 1/1 )
G01 Z-0.20000
G04 P0 ( dwell for no time -- G64 should not smooth over this point )
G01 F400.00000
G01 X87.96191 Y60.94581
G01 X87.96191 Y61.02422
G01 X87.98497 Y61.25833
G01 X88.00026 Y61.33524
G01 X88.06856 Y61.56034
G01 X88.09856 Y61.63280
G01 X88.20946 Y61.84024
G01 X88.25302 Y61.90545
G01 X88.40224 Y62.08731
G01 X88.45769 Y62.14276
G01 X88.63955 Y62.29198
G01 X88.70476 Y62.33554
G01 X88.91220 Y62.44644
G01 X88.98466 Y62.47644
G01 X89.20976 Y62.54474
G01 X89.28667 Y62.56003
G01 X89.52078 Y62.58309
G01 X89.59919 Y62.58309
G01 X89.83330 Y62.56003
G01 X89.91022 Y62.54474
G01 X90.13531 Y62.47644
G01 X90.20778 Y62.44644
G01 X90.41522 Y62.33554
G01 X90.48042 Y62.29198
G01 X90.66228 Y62.14276
G01 X90.71773 Y62.08731
G01 X90.86696 Y61.90545
G01 X90.91052 Y61.84024
G01 X91.02141 Y61.63280
G01 X91.05141 Y61.56034
G01 X91.11971 Y61.33524
G01 X91.13500 Y61.25833
G01 X91.15807 Y61.02422
G01 X91.15807 Y60.94581
G01 X91.13500 Y60.71170
G01 X91.11971 Y60.63478
G01 X91.05141 Y60.40969
G01 X91.02141 Y60.33722
G01 X90.91052 Y60.12978
G01 X90.86696 Y60.06458
G01 X90.71773 Y59.88272
G01 X90.66228 Y59.82727
G01 X90.48042 Y59.67804
G01 X90.41522 Y59.63448
G01 X90.20778 Y59.52359
G01 X90.13531 Y59.49359
G01 X89.91022 Y59.42529
G01 X89.83330 Y59.41000
G01 X89.59919 Y59.38693
G01 X89.52078 Y59.38693
G01 X89.28667 Y59.41000
G01 X89.20976 Y59.42529
G01 X88.98466 Y59.49359
G01 X88.91220 Y59.52359
G01 X88.70476 Y59.63448
G01 X88.63955 Y59.67804
G01 X88.45769 Y59.82727
G01 X88.40224 Y59.88272
G01 X88.25302 Y60.06458
G01 X88.20946 Y60.12978
G01 X88.09856 Y60.33722
G01 X88.06856 Y60.40969
G01 X88.00026 Y60.63478
G01 X87.98497 Y60.71170
G01 X87.96191 Y60.94581
G04 P0 ( dwell for no time -- G64 should not smooth over this point )
G00 Z3.50000 ( retract )

G00 X95.97396 Y55.98801 ( rapid move to begin. )
G01 F200.00000
( Mill infeed pass 1/1 )
G01 Z-0.20000
G04 P0 ( dwell for no time -- G64 should not smooth over this point )
G01 F400.00000
G01 X95.97396 Y55.98801
G01 X95.97396 Y56.83802
G01 X95.98168 Y56.91605
G01 X96.00441 Y56.99108
G01 X96.04137 Y57.06024
G01 X96.09115 Y57.12085
G01 X96.15176 Y57.17061
G01 X96.22090 Y57.20756
G01 X96.29595 Y57.23032
G01 X96.37398 Y57.23802
G01 X97.22397 Y57.23802
G01 X97.30202 Y57.23032
G01 X97.37705 Y57.20756
G01 X97.44619 Y57.17061
G01 X97.50682 Y57.12085
G01 X97.55658 Y57.06024
G01 X97.59354 Y56.99108
G01 X97.61627 Y56.91605
G01 X97.62399 Y56.83802
G01 X97.62399 Y55.98801
G01 X97.61627 Y55.90998
G01 X97.59354 Y55.83495
G01 X97.55658 Y55.76578
G01 X97.50682 Y55.70518
G01 X97.44619 Y55.65544
G01 X97.37705 Y55.61849
G01 X97.30202 Y55.59573
G01 X97.22397 Y55.58801
G01 X96.37398 Y55.58801
G01 X96.29595 Y55.59573
G01 X96.22090 Y55.61849
G01 X96.15176 Y55.65544
G01 X96.09115 Y55.70518
G01 X96.04137 Y55.76578
G01 X96.00441 Y55.83495
G01 X95.98168 Y55.90998
G01 X95.97396 Y55.98801
G04 P0 ( dwell for no time -- G64 should not smooth over this point )
G00 Z3.50000 ( retract )

G00 X94.64691 Y50.15081 ( rapid move to begin. )
G01 F200.00000
( Mill infeed pass 1/1 )
G01 Z-0.20000
G04 P0 ( dwell for no time -- G64 should not smooth over this point )
G01 F400.00000
G01 X94.64691 Y50.15081
G01 X94.64691 Y50.22922
G01 X94.67574 Y50.52185
G01 X94.69103 Y50.59876
G01 X94.77640 Y50.88014
G01 X94.80640 Y50.95258
G01 X94.94500 Y51.21192
G01 X94.98859 Y51.27712
G01 X95.17513 Y51.50442
G01 X95.23058 Y51.55987
G01 X95.45788 Y51.74641
G01 X95.52308 Y51.79000
G01 X95.78242 Y51.92860
G01 X95.85486 Y51.95860
G01 X96.13624 Y52.04397
G01 X96.21312 Y52.05926
G01 X96.50576 Y52.08809
G01 X96.58419 Y52.08809
G01 X96.87683 Y52.05926
G01 X96.95374 Y52.04397
G01 X97.23512 Y51.95860
G01 X97.30753 Y51.92860
G01 X97.56689 Y51.79000
G01 X97.63209 Y51.74641
G01 X97.85940 Y51.55987
G01 X97.91485 Y51.50442
G01 X98.10139 Y51.27712
G01 X98.14497 Y51.21192
G01 X98.28358 Y50.95258
G01 X98.31355 Y50.88014
G01 X98.39892 Y50.59876
G01 X98.41424 Y50.52185
G01 X98.44307 Y50.22922
G01 X98.44307 Y50.15081
G01 X98.41424 Y49.85817
G01 X98.39892 Y49.78126
G01 X98.31355 Y49.49988
G01 X98.28358 Y49.42744
G01 X98.14497 Y49.16811
G01 X98.10139 Y49.10291
G01 X97.91485 Y48.87560
G01 X97.85940 Y48.82015
G01 X97.63209 Y48.63361
G01 X97.56689 Y48.59003
G01 X97.30753 Y48.45142
G01 X97.23512 Y48.42142
G01 X96.95374 Y48.33605
G01 X96.87683 Y48.32076
G01 X96.58419 Y48.29193
G01 X96.50576 Y48.29193
G01 X96.21312 Y48.32076
G01 X96.13624 Y48.33605
G01 X95.85486 Y48.42142
G01 X95.78242 Y48.45142
G01 X95.52308 Y48.59003
G01 X95.45788 Y48.63361
G01 X95.23058 Y48.82015
G01 X95.17513 Y48.87560
G01 X94.98859 Y49.10291
G01 X94.94500 Y49.16811
G01 X94.80640 Y49.42744
G01 X94.77640 Y49.49988
G01 X94.69103 Y49.78126
G01 X94.67574 Y49.85817
G01 X94.64691 Y50.15081
G04 P0 ( dwell for no time -- G64 should not smooth over this point )
G00 Z3.50000 ( retract )

G00 X94.64498 Y43.61000 ( rapid move to begin. )
G01 F200.00000
( Mill infeed pass 1/1 )
G01 Z-0.20000
G04 P0 ( dwell for no time -- G64 should not smooth over this point )
G01 F400.00000
G01 X94.64498 Y43.61000
G01 X94.64498 Y46.61002
G01 X94.65267 Y46.68805
G01 X94.67543 Y46.76308
G01 X94.71239 Y46.83225
G01 X94.76215 Y46.89285
G01 X94.82275 Y46.94261
G01 X94.89192 Y46.97957
G01 X94.96695 Y47.00233
G01 X95.04498 Y47.01002
G01 X98.04497 Y47.01002
G01 X98.12303 Y47.00233
G01 X98.19806 Y46.97957
G01 X98.26720 Y46.94261
G01 X98.32783 Y46.89285
G01 X98.37758 Y46.83225
G01 X98.41454 Y46.76308
G01 X98.43730 Y46.68805
G01 X98.44500 Y46.61002
G01 X98.44500 Y43.61000
G01 X98.43730 Y43.53197
G01 X98.41454 Y43.45694
G01 X98.37758 Y43.38778
G01 X98.32783 Y43.32717
G01 X98.26720 Y43.27742
G01 X98.19806 Y43.24046
G01 X98.12303 Y43.21770
G01 X98.04497 Y43.21000
G01 X95.04498 Y43.21000
G01 X94.96695 Y43.21770
G01 X94.89192 Y43.24046
G01 X94.82275 Y43.27742
G01 X94.76215 Y43.32717
G01 X94.71239 Y43.38778
G01 X94.67543 Y43.45694
G01 X94.65267 Y43.53197
G01 X94.64498 Y43.61000
G04 P0 ( dwell for no time -- G64 should not smooth over this point )
G00 Z3.50000 ( retract )

G00 X95.97396 Y38.71601 ( rapid move to begin. )
G01 F200.00000
( Mill infeed pass 1/1 )
G01 Z-0.20000
G04 P0 ( dwell for no time -- G64 should not smooth over this point )
G01 F400.00000
G01 X95.97396 Y38.71601
G01 X95.97396 Y39.56602
G01 X95.98168 Y39.64405
G01 X96.00441 Y39.71908
G01 X96.04137 Y39.78824
G01 X96.09115 Y39.84885
G01 X96.15176 Y39.89861
G01 X96.22090 Y39.93556
G01 X96.29595 Y39.95832
G01 X96.37398 Y39.96602
G01 X97.22397 Y39.96602
G01 X97.30202 Y39.95832
G01 X97.37705 Y39.93556
G01 X97.44619 Y39.89861
G01 X97.50682 Y39.84885
G01 X97.55658 Y39.78824
G01 X97.59354 Y39.71908
G01 X97.61627 Y39.64405
G01 X97.62399 Y39.56602
G01 X97.62399 Y38.71601
G01 X97.61627 Y38.63798
G01 X97.59354 Y38.56295
G01 X97.55658 Y38.49378
G01 X97.50682 Y38.43318
G01 X97.44619 Y38.38342
G01 X97.37705 Y38.34646
G01 X97.30202 Y38.32370
G01 X97.22397 Y38.31601
G01 X96.37398 Y38.31601
G01 X96.29595 Y38.32370
G01 X96.22090 Y38.34646
G01 X96.15176 Y38.38342
G01 X96.09115 Y38.43318
G01 X96.04137 Y38.49378
G01 X96.00441 Y38.56295
G01 X95.98168 Y38.63798
G01 X95.97396 Y38.71601
G04 P0 ( dwell for no time -- G64 should not smooth over this point )
G00 Z3.50000 ( retract )

G00 X87.95998 Y39.46500 ( rapid move to begin. )
G01 F200.00000
( Mill infeed pass 1/1 )
G01 Z-0.20000
G04 P0 ( dwell for no time -- G64 should not smooth over this point )
G01 F400.00000
G01 X87.95998 Y39.46500
G01 X87.95998 Y41.86502
G01 X87.96767 Y41.94305
G01 X87.99043 Y42.01808
G01 X88.02739 Y42.08725
G01 X88.07715 Y42.14785
G01 X88.13775 Y42.19761
G01 X88.20692 Y42.23457
G01 X88.28195 Y42.25733
G01 X88.35998 Y42.26502
G01 X90.76000 Y42.26502
G01 X90.83803 Y42.25733
G01 X90.91306 Y42.23457
G01 X90.98222 Y42.19761
G01 X91.04283 Y42.14785
G01 X91.09259 Y42.08725
G01 X91.12954 Y42.01808
G01 X91.15230 Y41.94305
G01 X91.16000 Y41.86502
G01 X91.16000 Y39.46500
G01 X91.15230 Y39.38697
G01 X91.12954 Y39.31194
G01 X91.09259 Y39.24278
G01 X91.04283 Y39.18217
G01 X90.98222 Y39.13241
G01 X90.91306 Y39.09546
G01 X90.83803 Y39.07270
G01 X90.76000 Y39.06500
G01 X88.35998 Y39.06500
G01 X88.28195 Y39.07270
G01 X88.20692 Y39.09546
G01 X88.13775 Y39.13241
G01 X88.07715 Y39.18217
G01 X88.02739 Y39.24278
G01 X87.99043 Y39.31194
G01 X87.96767 Y39.38697
G01 X87.95998 Y39.46500
G04 P0 ( dwell for no time -- G64 should not smooth over this point )
G00 Z3.50000 ( retract )

G00 X82.24498 Y44.54500 ( rapid move to begin. )
G01 F200.00000
( Mill infeed pass 1/1 )
G01 Z-0.20000
G04 P0 ( dwell for no time -- G64 should not smooth over this point )
G01 F400.00000
G01 X82.24498 Y44.54500
G01 X82.24498 Y46.94502
G01 X82.25267 Y47.02305
G01 X82.27543 Y47.09808
G01 X82.31239 Y47.16725
G01 X82.36215 Y47.22785
G01 X82.42275 Y47.27761
G01 X82.49192 Y47.31457
G01 X82.56695 Y47.33733
G01 X82.64498 Y47.34502
G01 X85.04500 Y47.34502
G01 X85.12303 Y47.33733
G01 X85.19806 Y47.31457
G01 X85.26722 Y47.27761
G01 X85.32783 Y47.22785
G01 X85.37759 Y47.16725
G01 X85.41454 Y47.09808
G01 X85.43730 Y47.02305
G01 X85.44500 Y46.94502
G01 X85.44500 Y44.54500
G01 X85.43730 Y44.46697
G01 X85.41454 Y44.39194
G01 X85.37759 Y44.32278
G01 X85.32783 Y44.26217
G01 X85.26722 Y44.21241
G01 X85.19806 Y44.17546
G01 X85.12303 Y44.15270
G01 X85.04500 Y44.14500
G01 X82.64498 Y44.14500
G01 X82.56695 Y44.15270
G01 X82.49192 Y44.17546
G01 X82.42275 Y44.21241
G01 X82.36215 Y44.26217
G01 X82.31239 Y44.32278
G01 X82.27543 Y44.39194
G01 X82.25267 Y44.46697
G01 X82.24498 Y44.54500
G04 P0 ( dwell for no time -- G64 should not smooth over this point )
G00 Z3.50000 ( retract )

G00 X77.88829 Y44.06502 ( rapid move to begin. )
G01 F200.00000
( Mill infeed pass 1/1 )
G01 Z-0.20000
G04 P0 ( dwell for no time -- G64 should not smooth over this point )
G01 F400.00000
G01 X77.88829 Y44.06502
G01 X77.88829 Y48.23834
G01 X77.89022 Y48.27756
G01 X77.91423 Y48.52142
G01 X77.92954 Y48.59833
G01 X78.00066 Y48.83283
G01 X78.03069 Y48.90527
G01 X78.14618 Y49.12137
G01 X78.18974 Y49.18657
G01 X78.34521 Y49.37601
G01 X78.37158 Y49.40509
G01 X82.19499 Y53.22847
G01 X82.19499 Y66.06500
G01 X82.19692 Y66.10422
G01 X82.22092 Y66.34808
G01 X82.23624 Y66.42499
G01 X82.30736 Y66.65949
G01 X82.33736 Y66.73193
G01 X82.45288 Y66.94803
G01 X82.49644 Y67.01323
G01 X82.65191 Y67.20267
G01 X82.70733 Y67.25809
G01 X82.89677 Y67.41356
G01 X82.96197 Y67.45712
G01 X83.17807 Y67.57264
G01 X83.25051 Y67.60264
G01 X83.48501 Y67.67376
G01 X83.56192 Y67.68908
G01 X83.80578 Y67.71308
G01 X83.88419 Y67.71308
G01 X84.12806 Y67.68908
G01 X84.20497 Y67.67376
G01 X84.43946 Y67.60264
G01 X84.51190 Y67.57264
G01 X84.72801 Y67.45712
G01 X84.79321 Y67.41356
G01 X84.98264 Y67.25809
G01 X85.03806 Y67.20267
G01 X85.19354 Y67.01323
G01 X85.23710 Y66.94803
G01 X85.35262 Y66.73193
G01 X85.38261 Y66.65949
G01 X85.45373 Y66.42499
G01 X85.46905 Y66.34808
G01 X85.49305 Y66.10422
G01 X85.49498 Y66.06500
G01 X85.49498 Y52.54501
G01 X85.49305 Y52.50582
